%
(Header)
(Generated by gcodetools from Inkscape.)
(Using default header. To add your own header create file "header" in the output dir.)
M3
(Header end.)
G21 (All units in mm)

(Start cutting path id: path1538)
(Change tool to Default tool)

M300 S50
G00 X14.434652 Y1.692104

M300 S30
G03 X14.449689 Y1.835603 I-17.162999 J1.870982 F400.000000
G03 X14.539994 Y2.740279 I-614.943499 J61.840854
G02 X14.742614 Y4.559012 I74.640994 J-7.394875
G02 X15.176364 Y7.881630 I249.582219 J-30.892035
G03 X15.863526 Y12.956742 I-1340.235270 J184.049684
G03 X16.024554 Y14.236486 I-85.049144 J11.351614
G02 X16.150720 Y15.295536 I580.300134 J-68.594641
G02 X16.167895 Y15.430379 I9.364091 J-1.124221
G01 X16.186045 Y15.565098 
G01 X15.791287 Y15.735009 
G02 X13.030130 Y17.603866 I3.516158 J8.169149
G02 X11.335253 Y20.174793 I5.354434 J5.374032
G01 X11.171987 Y20.585377 
G01 X11.006542 Y20.411324 
G03 X10.026751 Y19.169274 I6.230807 J-5.922651
G03 X9.270278 Y17.736560 I7.562763 J-4.909201
G02 X9.078239 Y17.306655 I-8.947414 J3.738984
G01 X9.066774 Y17.309166 
G01 X9.053048 Y17.340041 
G01 X9.032468 Y17.340946 
G01 X8.998086 Y17.363708 
G02 X9.245574 Y18.147995 I8.371675 J-2.210561
G02 X9.804768 Y19.281549 I5.652194 J-2.083582
G02 X10.676124 Y20.412676 I6.499012 J-4.105283
G03 X11.035396 Y20.825046 I-6.123219 J5.697468
G03 X11.062463 Y20.886546 I-0.097837 J0.079765
G03 X11.059479 Y20.953615 I-0.176125 J0.025765
G03 X11.027103 Y21.034755 I-0.293088 J-0.069918
G01 X10.970298 Y21.048237 
G03 X10.420141 Y20.637388 I3.046067 J-4.652687
G03 X8.692316 Y19.017668 I15.351506 J-18.107544
G03 X6.858377 Y16.947843 I23.286929 J-22.480434
G02 X6.170738 Y16.112679 I-64.511103 J52.415096
G01 X6.164731 Y16.116469 
G03 X6.169902 Y16.160677 I-0.065516 J0.030070
G01 X6.151347 Y16.183409 
G01 X6.132302 Y16.250929 
G02 X7.379035 Y17.896007 I31.587312 J-22.643693
G02 X8.719092 Y19.403500 I15.265555 J-12.220663
G02 X10.275056 Y20.833658 I15.288107 J-15.071455
G02 X10.870962 Y21.322407 I34.583231 J-41.557851
G02 X10.904244 Y21.342248 I0.085926 J-0.106301
G01 X10.919446 Y21.368396 
G03 X10.848104 Y21.800369 I-5.211467 J-0.638821
G02 X10.763738 Y22.244213 I12.581017 J2.621357
G02 X10.755914 Y22.336529 I0.533264 J0.091682
G03 X10.745932 Y22.424724 I-0.390486 J0.000465
G01 X10.729734 Y22.450077 
G03 X10.595179 Y22.473940 I-0.089920 J-0.115745
G03 X8.492409 Y21.734768 I11.873923 J-37.139057
G03 X7.270751 Y21.221897 I7.697607 J-20.047130
G03 X6.026100 Y20.608661 I9.781592 J-21.422858
G03 X4.169459 Y19.517449 I11.435233 J-21.581561
G03 X2.593210 Y18.381782 I10.817032 J-16.675208
G02 X2.111481 Y18.018022 I-7.111142 J8.916449
G01 X2.098928 Y18.028686 
G03 X2.103031 Y18.067689 I-0.050870 J0.025069
G01 X2.085591 Y18.081286 
G01 X2.066832 Y18.094061 
G01 X2.068103 Y18.125466 
G01 X2.115832 Y18.149916 
G01 X2.134699 Y18.114306 
G01 X2.133998 Y18.097272 
G01 X2.141379 Y18.095896 
G03 X2.165071 Y18.135731 I-0.097700 J0.085071
G03 X2.173418 Y18.181876 I-0.124251 J0.046302
G02 X2.220200 Y18.282407 I0.131748 J-0.000158
G02 X3.472761 Y19.278311 I17.696068 J-20.970951
G02 X4.935261 Y20.271732 I11.543529 J-15.420963
G02 X6.527132 Y21.154179 I10.684167 J-17.396440
G02 X8.525407 Y22.034558 I10.438867 J-20.986017
G02 X10.311092 Y22.614814 I6.240490 J-16.166761
G01 X10.690482 Y22.715735 
G01 X10.668362 Y23.116149 
G03 X10.460524 Y23.491087 I-0.491056 J-0.027131
G03 X9.902762 Y23.655436 I-0.521058 J-0.739721
G03 X7.112592 Y23.408279 I1.189708 J-29.303437
G03 X3.978387 Y22.843963 I5.144148 J-37.556385
G02 X3.060993 Y22.653488 I-6.625473 J29.606101
G01 X3.055853 Y22.667235 
G01 X3.126066 Y22.708025 
G01 X3.055910 Y22.714025 
G01 X3.042966 Y22.731085 
G01 X3.064550 Y22.759745 
G02 X3.391639 Y22.882462 I0.731270 J-1.451856
G02 X5.179071 Y23.302537 I11.167717 J-43.506122
G02 X7.582083 Y23.713092 I6.184735 J-28.961938
G02 X9.977250 Y23.920305 I3.677838 J-28.565624
G01 X10.617528 Y23.948845 
G01 X10.618213 Y24.218274 
G02 X10.816826 Y26.544010 I14.134236 J-0.035686
G02 X11.469171 Y29.240361 I19.688308 J-3.336226
G01 X11.604827 Y29.668487 
G01 X11.375376 Y30.123423 
G02 X11.160213 Y30.584722 I7.404395 J3.734441
G02 X10.819401 Y31.417680 I23.819373 J10.232112
G02 X9.305852 Y36.609760 I28.881724 J11.235992
G02 X9.434244 Y38.383738 I3.287509 J0.653701
G02 X9.533254 Y38.556876 I0.528808 J-0.187523
G02 X9.606991 Y38.589600 I0.070316 J-0.059005
G02 X9.660544 Y38.576141 I-0.004963 J-0.133022
G01 X9.660617 Y38.563355 
G03 X9.626037 Y38.531176 I0.038066 J-0.075577
G03 X9.537584 Y38.357399 I1.237809 J-0.739448
G03 X9.490023 Y38.167782 I0.573589 J-0.244643
G03 X9.460726 Y37.489809 I7.484643 J-0.663056
G03 X9.524242 Y36.566072 I6.949467 J0.013792
G03 X9.776332 Y35.171746 I16.125579 J2.195514
G03 X10.617198 Y32.199917 I28.258676 J6.390786
G03 X11.500470 Y30.122718 I14.644632 J5.000839
G02 X11.704626 Y29.709716 I-12.834395 J-6.601280
G02 X11.711939 Y29.677159 I-0.068402 J-0.032465
G02 X11.706979 Y29.643613 I-0.116837 J0.000136
G02 X11.570880 Y29.208620 I-20.214220 J6.085753
G03 X10.807134 Y25.900067 I18.549748 J-6.024449
G03 X10.745668 Y23.340309 I10.982127 J-1.544325
G02 X10.769944 Y22.651753 I-6.079750 J-0.559057
G02 X10.729918 Y22.597778 I-0.058067 J0.001232
G01 X10.723180 Y22.584277 
G01 X10.738618 Y22.572318 
G01 X10.782228 Y22.537277 
G02 X10.925711 Y21.952086 I-5.495749 J-1.657687
G02 X11.027232 Y21.339333 I-12.852014 J-2.444112
G02 X11.019321 Y21.289909 I-0.084080 J-0.011887
G01 X11.016919 Y21.255567 
G01 X11.034941 Y21.242499 
G02 X11.140085 Y21.164507 I-0.000209 J-0.110152
G02 X11.165313 Y20.815423 I-0.753042 J-0.229876
G03 X11.170431 Y20.730424 I0.199801 J-0.030623
G01 X11.194013 Y20.712491 
G01 X11.225277 Y20.693492 
G02 X11.347456 Y20.418184 I-2.123669 J-1.107227
G03 X13.056332 Y17.731929 I7.100482 J2.630328
G03 X15.852494 Y15.849573 I6.043511 J5.959417
G02 X16.195199 Y15.693581 I-2.084951 J-5.034951
G02 X16.244789 Y15.654379 I-0.068435 J-0.137537
G02 X16.280092 Y15.534004 I-0.121060 J-0.100868
G02 X15.264082 Y7.793172 I-605.644391 J75.555764
G03 X14.853631 Y4.659150 I234.430537 J-32.296346
G03 X14.644814 Y2.806287 I81.730140 J-10.149169
G02 X14.555033 Y1.923656 I-933.447156 J94.504115
G02 X14.535447 Y1.736048 I-43.084575 J4.403136
G02 X14.496799 Y1.569263 I-0.702267 J0.074862
G01 X14.467187 Y1.548574 
G01 X14.441654 Y1.569002 
G02 X14.434627 Y1.692098 I0.363574 J0.082502
G01 X14.434652 Y1.692104 
M300 S50

(End cutting path id: path1538)


(Start cutting path id: path1538)
(Change tool to Default tool)

M300 S50
G00 X28.892879 Y2.062104

M300 S30
G03 X28.377217 Y3.761817 I-16.260215 J-4.004973 F400.000000
G03 X26.808312 Y7.815368 I-94.282702 J-34.161223
G02 X25.373941 Y11.853183 I39.927136 J16.457166
G02 X24.606844 Y15.147151 I25.767297 J7.736979
G02 X24.527714 Y15.758462 I8.176136 J1.369120
G02 X24.545624 Y15.813978 I0.073953 J0.006789
G02 X24.594687 Y15.853830 I0.138630 J-0.120544
G02 X24.974041 Y16.053205 I4.115238 J-7.369550
G03 X26.488047 Y16.988910 I-4.149106 J8.406124
G03 X27.746914 Y18.155240 I-5.265034 J6.945300
G03 X29.333901 Y21.253520 I-5.234434 J4.636737
G03 X29.510467 Y25.974724 I-12.564952 J2.833814
G03 X29.276755 Y27.284265 I-22.268253 J-3.298557
G03 X28.937236 Y28.715748 I-26.952678 J-5.636631
G01 X28.731140 Y29.491749 
G01 X29.022229 Y30.220745 
G03 X30.224111 Y33.707960 I-35.695974 J14.253476
G03 X30.893435 Y36.633691 I-24.429937 J7.128303
G03 X30.982119 Y38.188331 I-7.064273 J1.182829
G03 X30.796425 Y38.499950 I-0.388177 J-0.020177
G01 X30.791402 Y38.527647 
G02 X30.835385 Y38.549729 I0.045356 J-0.035498
G02 X30.923625 Y38.512371 I0.002777 J-0.116335
G02 X31.023687 Y38.345965 I-0.350946 J-0.324314
G02 X31.067060 Y38.134987 I-0.760675 J-0.266327
G02 X31.077627 Y37.562339 I-5.684687 J-0.391322
G02 X30.998696 Y36.710414 I-7.062916 J0.224760
G02 X30.734774 Y35.338407 I-18.624034 J2.871171
G02 X30.017886 Y32.697769 I-35.111867 J8.114644
G02 X29.118424 Y30.169384 I-33.084840 J10.345602
G01 X28.845118 Y29.486112 
G01 X29.062155 Y28.646587 
G02 X29.430801 Y27.052111 I-30.741396 J-7.947323
G02 X29.616819 Y25.930379 I-15.017509 J-3.066660
G01 X29.676129 Y25.466774 
G01 X31.277454 Y25.478264 
G02 X34.453743 Y25.320925 I0.201435 J-28.073008
G02 X36.708069 Y24.899551 I-1.547105 J-14.517849
G02 X37.508637 Y24.635980 I-2.008907 J-7.449431
G01 X37.514868 Y24.584115 
G02 X37.449098 Y24.568427 I-0.052658 J0.075048
G02 X36.709874 Y24.700440 I1.617413 J11.192583
G03 X34.854270 Y25.022843 I-5.178587 J-24.304368
G03 X32.878452 Y25.217428 I-3.692547 J-27.365628
G03 X31.193743 Y25.276130 I-1.914101 J-30.729185
G03 X30.073793 Y25.238328 I-0.101373 J-13.605850
G01 X29.696347 Y25.209988 
G01 X29.716057 Y25.051403 
G02 X29.730836 Y24.892408 I-2.559134 J-0.318058
G02 X29.758847 Y24.359153 I-28.843763 J-1.782494
G01 X29.781927 Y23.825488 
G01 X30.101425 Y23.772238 
G02 X33.892456 Y22.791869 I-3.665696 J-21.995059
G02 X36.588325 Y21.470465 I-4.383575 J-12.353876
G02 X36.984345 Y21.179649 I-2.110781 J-3.289411
G01 X36.982702 Y21.140770 
G02 X36.924036 Y21.135019 I-0.034424 J0.049053
G02 X36.408454 Y21.394782 I2.325331 J5.256901
G03 X34.252374 Y22.433408 I-8.700520 J-15.304172
G03 X31.998935 Y23.160563 I-6.406474 J-15.998269
G03 X30.728447 Y23.449061 I-7.812595 J-31.463396
G03 X29.996518 Y23.573139 I-2.124249 J-10.309969
G01 X29.782813 Y23.601659 
G01 X29.759333 Y23.258415 
G03 X29.842210 Y22.797299 I0.959231 J-0.065601
G03 X30.077472 Y22.553515 I0.458245 J0.206815
G02 X33.447645 Y20.505735 I-10.126219 J-20.462575
G02 X36.304421 Y17.989720 I-12.576486 J-17.159654
G02 X37.777861 Y16.180735 I-11.200912 J-10.627836
G02 X37.768261 Y15.885907 I-0.202606 J-0.140974
G02 X37.728492 Y15.850432 I-0.123460 J0.098376
G01 X37.716481 Y15.853517 
G03 X36.626719 Y17.342600 I-6.591103 J-3.680290
G03 X34.236221 Y19.557276 I-17.157583 J-16.122239
G03 X31.920448 Y21.240272 I-18.136837 J-22.521234
G03 X29.957220 Y22.354240 I-9.836332 J-15.048346
G01 X29.705789 Y22.476719 
G01 X29.688939 Y22.382629 
G03 X29.672989 Y22.288382 I4.628508 J-0.831790
G03 X29.626479 Y21.989610 I48.876772 J-7.761660
G03 X29.618205 Y21.704211 I1.155534 J-0.176320
G03 X29.661149 Y21.619702 I0.128285 J0.012024
G02 X30.021798 Y21.252670 I-2.430571 J-2.749007
G02 X30.361581 Y20.798928 I-3.387304 J-2.890661
G02 X30.772898 Y20.069014 I-5.323481 J-3.480707
G02 X30.761199 Y19.965810 I-0.088133 J-0.042274
G01 X30.728930 Y19.965659 
G02 X30.439844 Y20.361319 I3.706342 J3.011444
G03 X29.643971 Y21.401415 I-7.462144 J-4.885429
G03 X29.520972 Y21.395059 I-0.058956 J-0.052405
G03 X29.503225 Y21.359042 I0.098790 J-0.071060
G03 X29.418125 Y21.053046 I7.295850 J-2.193860
G02 X28.748308 Y19.372586 I-6.818612 J1.744118
G02 X27.642445 Y17.864828 I-6.569066 J3.658648
G02 X26.458341 Y16.820244 I-6.351683 J6.006628
G02 X24.983655 Y15.916298 I-6.200854 J8.461125
G03 X24.649775 Y15.704916 I0.918783 J-1.820596
G03 X24.622759 Y15.635365 I0.044658 J-0.057370
G03 X25.486479 Y11.931279 I30.878480 J5.247508
G03 X27.026988 Y7.573967 I44.316579 J13.216963
G02 X28.419452 Y3.969756 I-84.534612 J-34.730492
G02 X28.934518 Y2.308044 I-17.419508 J-6.310054
G02 X29.097038 Y1.552962 I-8.988400 J-2.329652
G01 X29.069939 Y1.521022 
G01 X29.041965 Y1.541454 
G02 X28.892891 Y2.062100 I6.888689 J2.254075
G01 X28.892879 Y2.062104 
M300 S50

(End cutting path id: path1538)


(Start cutting path id: path1538)
(Change tool to Default tool)

M300 S50
G00 X37.165913 Y16.839407

M300 S30
G01 X37.160838 Y16.854003 F400.000000
G03 X37.104613 Y16.916777 I-0.551452 J-0.437348
G01 X37.092277 Y16.916052 
G01 X37.091343 Y16.900137 
G03 X37.151002 Y16.832343 I0.232493 J0.144448
G01 X37.165913 Y16.839417 
G01 X37.165913 Y16.839407 
M300 S50

(End cutting path id: path1538)


(Start cutting path id: path1538)
(Change tool to Default tool)

M300 S50
G00 X36.990765 Y17.057197

M300 S30
G01 X36.986626 Y17.069108 F400.000000
G03 X36.859407 Y17.222980 I-3.780407 J-2.996039
G01 X36.728034 Y17.375351 
G01 X36.848732 Y17.209588 
G03 X36.978449 Y17.052356 I1.364152 J0.993300
G01 X36.990765 Y17.057197 
G01 X36.990765 Y17.057197 
M300 S50

(End cutting path id: path1538)


(Start cutting path id: path1538)
(Change tool to Default tool)

M300 S50
G00 X36.535343 Y17.591023

M300 S30
G01 X36.530269 Y17.605617 F400.000000
G03 X36.474043 Y17.668393 I-0.550210 J-0.436238
G01 X36.461707 Y17.667668 
G01 X36.460773 Y17.651753 
G03 X36.520432 Y17.583959 I0.232493 J0.144448
G01 X36.535343 Y17.591033 
G01 X36.535343 Y17.591023 
M300 S50

(End cutting path id: path1538)


(Start cutting path id: path1538)
(Change tool to Default tool)

M300 S50
G00 X36.960619 Y21.166410

M300 S30
G01 X36.954264 Y21.179712 F400.000000
G03 X36.906229 Y21.210150 I-0.157649 J-0.195664
G01 X36.878742 Y21.209737 
G01 X36.873199 Y21.192860 
G03 X36.930535 Y21.144099 I0.084637 J0.041431
G01 X36.960629 Y21.166400 
G01 X36.960619 Y21.166410 
M300 S50

(End cutting path id: path1538)


(Start cutting path id: path1538)
(Change tool to Default tool)

M300 S50
G00 X37.464683 Y24.620426

M300 S30
G03 X37.420841 Y24.631006 I-0.044035 J-0.086351 F400.000000
G03 X37.376983 Y24.620592 I-0.000193 J-0.096749
G01 X37.376962 Y24.608819 
G03 X37.420803 Y24.598242 I0.044021 J0.086317
G03 X37.464665 Y24.608657 I0.000183 J0.096795
G01 X37.464683 Y24.620422 
G01 X37.464683 Y24.620426 
M300 S50

(End cutting path id: path1538)


(Start cutting path id: path1538)
(Change tool to Default tool)

M300 S50
G00 X37.306136 Y24.662306

M300 S30
G01 X37.281839 Y24.674869 F400.000000
G03 X37.238896 Y24.665906 I-0.004589 J-0.085371
G01 X37.235762 Y24.651759 
G01 X37.260056 Y24.639196 
G03 X37.302989 Y24.648141 I0.004616 J0.085347
G01 X37.306126 Y24.662296 
G01 X37.306136 Y24.662306 
M300 S50

(End cutting path id: path1538)


(Start cutting path id: path1538)
(Change tool to Default tool)

M300 S50
G00 X35.009598 Y25.154800

M300 S30
G03 X34.965755 Y25.165380 I-0.044036 J-0.086352 F400.000000
G03 X34.921898 Y25.154967 I-0.000193 J-0.096754
G01 X34.921878 Y25.143195 
G03 X34.965728 Y25.132617 I0.044031 J0.086350
G03 X35.009590 Y25.143032 I0.000185 J0.096789
G01 X35.009608 Y25.154797 
G01 X35.009598 Y25.154800 
M300 S50

(End cutting path id: path1538)


(Start cutting path id: path1538)
(Change tool to Default tool)

M300 S50
G00 X34.694583 Y25.199260

M300 S30
G03 X34.650549 Y25.210269 I-0.045769 J-0.089502 F400.000000
G03 X34.589340 Y25.201060 I-0.003222 J-0.186616
G01 X34.588467 Y25.190002 
G03 X34.632500 Y25.178990 I0.045788 J0.089543
G03 X34.693717 Y25.188169 I0.003234 J0.187165
G01 X34.694590 Y25.199220 
G01 X34.694583 Y25.199260 
M300 S50

(End cutting path id: path1538)


(Start cutting path id: path1538)
(Change tool to Default tool)

M300 S50
G00 X34.361103 Y25.245410

M300 S30
G03 X34.299717 Y25.255577 I-0.063051 J-0.190287 F400.000000
G03 X34.220777 Y25.246610 I-0.002723 J-0.327979
G01 X34.220353 Y25.236573 
G03 X34.281737 Y25.226410 I0.063019 J0.190177
G03 X34.360675 Y25.235408 I0.002699 J0.327063
G01 X34.361107 Y25.245460 
G01 X34.361103 Y25.245410 
M300 S50

(End cutting path id: path1538)


(Start cutting path id: path1538)
(Change tool to Default tool)

M300 S50
G00 X33.957790 Y25.291060

M300 S30
G03 X33.879101 Y25.300763 I-0.080490 J-0.328821 F400.000000
G03 X33.782382 Y25.291994 I-0.002703 J-0.507946
G01 X33.782125 Y25.282499 
G03 X33.860812 Y25.272794 I0.080475 J0.328634
G03 X33.957535 Y25.281563 I0.002602 J0.509127
G01 X33.957792 Y25.291054 
G01 X33.957790 Y25.291060 
M300 S50

(End cutting path id: path1538)


(Start cutting path id: path1538)
(Change tool to Default tool)

M300 S50
G00 X33.379141 Y25.336770

M300 S30
G03 X33.283147 Y25.346142 I-0.098073 J-0.508208 F400.000000
G03 X33.168651 Y25.337620 I-0.002947 J-0.733769
G01 X33.168478 Y25.328502 
G03 X33.264481 Y25.319130 I0.098060 J0.508100
G03 X33.378977 Y25.327660 I0.003065 J0.731547
G01 X33.379146 Y25.336770 
G01 X33.379141 Y25.336770 
M300 S50

(End cutting path id: path1538)


(Start cutting path id: path1538)
(Change tool to Default tool)

M300 S50
G00 X31.922676 Y25.385150

M300 S30
G03 X31.422764 Y25.392871 I-0.532898 J-18.314648 F400.000000
G03 X30.922847 Y25.387050 I-0.033474 J-18.593366
G01 X30.922834 Y25.380279 
G03 X31.422745 Y25.372540 I0.534707 J18.390533
G03 X31.922662 Y25.378367 I0.033741 J18.554119
G01 X31.922676 Y25.385150 
G01 X31.922676 Y25.385150 
M300 S50

(End cutting path id: path1538)


(Start cutting path id: path1538)
(Change tool to Default tool)

M300 S50
G00 X22.829399 Y25.165665

M300 S30
G02 X23.548973 Y25.347983 I1.146742 J-3.014798 F400.000000
G02 X24.562499 Y25.397225 I0.798214 J-5.974204
G02 X25.554820 Y25.272958 I-0.201362 J-5.632100
G02 X26.221464 Y25.037681 I-0.596444 J-2.752085
G03 X26.420896 Y24.959683 I0.521077 J1.038376
G01 X26.440650 Y24.974531 
G03 X26.320143 Y25.298363 I-0.493767 J0.000593
G03 X25.588174 Y25.958923 I-3.039183 J-2.631900
G03 X24.515302 Y26.343476 I-1.239193 J-1.768359
G03 X23.437316 Y26.125085 I-0.154901 J-2.005090
G03 X22.769804 Y25.648011 I1.315296 J-2.545858
G03 X22.297644 Y25.032776 I1.771550 J-1.848365
G01 X22.197079 Y24.849797 
G01 X22.365047 Y24.951361 
G02 X22.537807 Y25.043091 I0.908404 J-1.502298
G02 X22.829399 Y25.165661 I1.923910 J-4.168814
G01 X22.829399 Y25.165665 
M300 S50

(End cutting path id: path1538)


(Start cutting path id: path1538)
(Change tool to Default tool)

M300 S50
G00 X22.044912 Y24.741903

M300 S30
G02 X22.257654 Y25.190449 I1.528210 J-0.450096 F400.000000
G02 X22.732755 Y25.748806 I2.869097 J-1.959979
G02 X24.479715 Y26.404323 I1.646292 J-1.731794
G02 X26.120337 Y25.605960 I-0.096257 J-2.282713
G02 X26.679279 Y24.799204 I-3.690207 J-3.153675
G02 X26.620670 Y24.700095 I-0.058481 J-0.032301
G02 X26.592407 Y24.707084 I0.000114 J0.061100
G02 X26.324641 Y24.855341 I3.135713 J5.979340
G03 X25.770385 Y25.109084 I-1.554591 J-2.663521
G03 X25.087431 Y25.279582 I-1.333898 J-3.890027
G03 X24.099147 Y25.340443 I-0.805433 J-5.024396
G03 X23.304584 Y25.215462 I0.120642 J-3.355163
G03 X22.636720 Y24.977895 I1.472721 J-5.197752
G03 X22.276965 Y24.771978 I0.731818 J-1.695775
G02 X22.084857 Y24.695116 I-0.245488 J0.335062
G01 X22.044912 Y24.741908 
G01 X22.044912 Y24.741903 
M300 S50

(End cutting path id: path1538)


(Start cutting path id: path1538)
(Change tool to Default tool)

M300 S50
G00 X19.965712 Y21.051466

M300 S30
G02 X19.743322 Y21.415257 I2.390785 J1.711386 F400.000000
G02 X19.503055 Y21.948624 I4.918744 J2.536560
G02 X19.568915 Y22.167064 I0.172730 J0.067070
G02 X20.010359 Y22.306793 I0.440178 J-0.623460
G02 X20.716467 Y22.244847 I-0.006899 J-4.134025
G02 X20.803334 Y22.167935 I-0.019100 J-0.109083
G02 X20.786700 Y21.882474 I-0.395781 J-0.120152
G02 X20.333103 Y21.089431 I-3.870324 J1.687465
G01 X20.285529 Y21.087856 
G02 X20.280773 Y21.152301 I0.042711 J0.035550
G03 X20.748265 Y22.033651 I-7.210603 J4.389355
G03 X20.734755 Y22.145948 I-0.098687 J0.045089
G01 X20.706983 Y22.160569 
G03 X20.097894 Y22.188268 I-0.967174 J-14.557060
G01 X19.482501 Y22.203378 
G01 X19.614447 Y21.902259 
G03 X19.754357 Y21.605143 I5.548949 J2.431451
G03 X19.918126 Y21.300252 I6.007717 J3.030568
G02 X20.003962 Y21.067862 I-0.655675 J-0.374229
G01 X19.965716 Y21.051460 
G01 X19.965712 Y21.051466 
M300 S50

(End cutting path id: path1538)


(Start cutting path id: path1538)
(Change tool to Default tool)

M300 S50
G00 X18.610858 Y19.522853

M300 S30
G02 X17.918937 Y19.982242 I0.356621 J1.287908 F400.000000
G02 X17.388727 Y21.069537 I2.224382 J1.757624
G02 X17.408961 Y21.333032 I0.413957 J0.100737
G01 X17.497253 Y21.332069 
G03 X17.875881 Y20.665368 I2.451447 J0.951342
G03 X18.358286 Y20.229029 I1.491925 J1.164597
G03 X18.641536 Y20.101376 I0.597218 J0.947092
G03 X18.944778 Y20.057695 I0.305312 J1.045112
G03 X19.248666 Y20.094733 I0.002371 J1.245715
G03 X19.436071 Y20.180255 I-0.136515 J0.547241
G03 X19.604008 Y20.311936 I-1.151993 J1.642109
G03 X19.727988 Y20.435353 I-0.887051 J1.015073
G01 X19.844349 Y20.567291 
G01 X19.673488 Y20.803237 
G02 X19.297371 Y21.433742 I3.349288 J2.425394
G02 X19.031043 Y22.136671 I3.905398 J1.881609
G02 X18.997442 Y22.551515 I1.035957 J0.292693
G02 X19.093843 Y22.686539 I0.169946 J-0.019409
G02 X19.531607 Y22.787178 I0.445537 J-0.935591
G02 X20.901199 Y22.700099 I0.072555 J-9.672941
G02 X21.115406 Y22.652282 I-0.173173 J-1.279479
G02 X21.206006 Y22.604229 I-0.084567 J-0.268879
G02 X21.257380 Y22.524810 I-0.091766 J-0.115687
G02 X21.271526 Y22.345652 I-0.516792 J-0.130942
G02 X21.060351 Y21.529544 I-2.592024 J0.235333
G02 X20.563390 Y20.742162 I-2.904637 J1.282759
G03 X20.485095 Y20.630285 I0.521067 J-0.447997
G03 X20.471460 Y20.578233 I0.093061 J-0.052188
G03 X20.544226 Y20.407490 I0.236040 J-0.000283
G03 X20.971253 Y20.099512 I1.313833 J1.371659
G03 X21.289589 Y20.025897 I0.298367 J0.565137
G03 X21.623905 Y20.119912 I-0.022561 J0.721648
G03 X21.951175 Y20.403147 I-0.548336 J0.964279
G03 X22.486422 Y21.228832 I-4.525800 J3.520161
G02 X22.705282 Y21.485220 I0.689862 J-0.367279
G01 X22.774231 Y21.446189 
G02 X22.403764 Y20.220254 I-3.420845 J0.364808
G02 X21.809534 Y19.596287 I-1.380845 J0.720097
G02 X21.600792 Y19.514789 I-0.361324 J0.617385
G02 X21.276285 Y19.479866 I-0.323689 J1.482618
G02 X20.953844 Y19.520542 I0.000791 J1.304606
G02 X20.709361 Y19.624869 I0.216120 J0.845091
G02 X20.489100 Y19.784632 I1.009202 J1.623072
G02 X20.303779 Y19.965631 I1.114540 J1.326527
G01 X20.131105 Y20.161569 
G01 X19.993854 Y19.984910 
G02 X19.507071 Y19.589386 I-1.095865 J0.851400
G02 X18.930506 Y19.465499 I-0.538448 J1.102323
G02 X18.805135 Y19.478643 I0.027287 J0.864742
G02 X18.610856 Y19.522849 I0.379363 J2.116272
G01 X18.610858 Y19.522853 
M300 S50

(End cutting path id: path1538)


(Start cutting path id: path1538)
(Change tool to Default tool)

M300 S50
G00 X21.786845 Y19.721738

M300 S30
G03 X22.198028 Y20.117279 I-0.676205 J1.114438 F400.000000
G03 X22.561793 Y20.893907 I-2.456813 J1.624254
G03 X22.640368 Y21.187874 I-4.740538 J1.424588
G03 X22.639843 Y21.226567 I-0.077970 J0.018293
G01 X22.624413 Y21.229521 
G03 X22.445200 Y20.962134 I2.934085 J-2.160286
G02 X21.502720 Y20.050994 I-2.211602 J1.344654
G02 X20.851421 Y20.065465 I-0.313433 J0.557109
G02 X20.408825 Y20.428715 I1.164189 J1.869749
G02 X20.375487 Y20.573084 I0.107595 J0.100880
G02 X20.398311 Y20.626318 I0.265468 J-0.082309
G02 X20.622844 Y21.015744 I14.442377 J-8.067661
G03 X21.006533 Y21.761889 I-5.853281 J3.481645
G03 X21.189178 Y22.306992 I-2.928174 J1.284281
G03 X21.071595 Y22.499128 I-0.155422 J0.036932
G03 X19.870170 Y22.628569 I-1.088878 J-4.466246
G03 X19.136932 Y22.555486 I0.120586 J-4.924633
G03 X19.057895 Y22.485624 I0.017500 J-0.099438
G03 X19.074156 Y22.152932 I0.469439 J-0.143799
G03 X19.705135 Y20.932833 I7.706161 J3.212067
G02 X19.856713 Y20.656105 I-2.286142 J-1.432112
G02 X19.875068 Y20.574290 I-0.172133 J-0.081584
G02 X19.812429 Y20.394367 I-0.290725 J0.000348
G02 X19.518063 Y20.122593 I-1.008674 J0.797218
G02 X19.286023 Y20.007926 I-0.554233 J0.829433
G02 X19.030271 Y19.956124 I-0.327494 J0.959632
G02 X18.336508 Y20.130794 I-0.081074 J1.143084
G02 X17.625998 Y20.844573 I1.214188 J1.919143
G03 X17.498384 Y21.032655 I-2.629184 J-1.646572
G01 X17.490053 Y21.029933 
G03 X17.495219 Y20.999244 I0.093066 J-0.000112
G03 X17.602828 Y20.705724 I8.877682 J3.088201
G03 X17.932773 Y20.129280 I2.048799 J0.790041
G03 X18.354991 Y19.759603 I1.227066 J0.975515
G03 X18.604870 Y19.658378 I0.450384 J0.752762
G03 X18.961792 Y19.617134 I0.356108 J1.516733
G03 X19.320257 Y19.653905 I-0.000945 J1.774884
G03 X19.532123 Y19.735073 I-0.142460 J0.688941
G03 X19.719762 Y19.869865 I-0.612481 J1.050610
G03 X19.921822 Y20.075540 I-1.246137 J1.426328
G02 X20.113051 Y20.290710 I4.198333 J-3.538647
G01 X20.130428 Y20.298222 
G01 X20.148061 Y20.290896 
G02 X20.351726 Y20.076832 I-4.232707 J-4.230996
G03 X21.116796 Y19.619502 I1.131786 J1.024762
G03 X21.786847 Y19.721738 I0.212059 J0.857042
G01 X21.786845 Y19.721738 
M300 S50

(End cutting path id: path1538)


(Start cutting path id: path1538)
(Change tool to Default tool)

M300 S50
G00 X13.984041 Y25.032506

M300 S30
G02 X15.668745 Y25.448661 I1.801897 J-3.676406 F400.000000
G02 X17.440191 Y25.131476 I0.126036 J-4.401365
G02 X17.713875 Y25.010306 I-1.654550 J-4.106762
G02 X17.858904 Y24.928899 I-0.595203 J-1.230263
G01 X17.999259 Y24.838469 
G01 X17.843702 Y25.075738 
G03 X16.788302 Y26.086142 I-2.716262 J-1.780823
G03 X15.713836 Y26.343071 I-0.949540 J-1.595787
G03 X14.937104 Y26.132680 I0.138142 J-2.048988
G03 X14.186820 Y25.583242 I1.221804 J-2.455424
G03 X13.652833 Y24.922129 I3.440279 J-3.324951
G01 X13.709208 Y24.870678 
G02 X13.797990 Y24.932334 I0.455492 J-0.561145
G02 X13.984041 Y25.032513 I1.403106 J-2.382961
G01 X13.984041 Y25.032506 
M300 S50

(End cutting path id: path1538)


(Start cutting path id: path1538)
(Change tool to Default tool)

M300 S50
G00 X13.510974 Y24.684302

M300 S30
G02 X13.512574 Y24.800299 I0.115264 J0.056419 F400.000000
G02 X13.870101 Y25.369445 I3.815194 J-1.999763
G02 X14.554815 Y26.041629 I2.484163 J-1.845639
G02 X15.282363 Y26.378766 I1.256720 J-1.758427
G02 X16.002286 Y26.449498 I0.594896 J-2.355845
G02 X16.636887 Y26.308976 I-0.100938 J-1.959038
G02 X17.360067 Y25.841791 I-0.858208 J-2.121780
G02 X18.000922 Y25.005291 I-2.368975 J-2.478642
G02 X17.991134 Y24.829509 I-0.146626 J-0.079998
G02 X17.857928 Y24.801007 I-0.081922 J0.057343
G03 X17.340322 Y25.056361 I-1.847412 J-3.092456
G03 X16.775919 Y25.230799 I-1.393108 J-3.507173
G03 X15.815147 Y25.344569 I-1.027808 J-4.566025
G03 X14.969237 Y25.256689 I-0.051805 J-3.616531
G03 X14.282854 Y25.046635 I1.043073 J-4.634864
G03 X13.773948 Y24.789506 I1.091242 J-2.791940
G02 X13.543348 Y24.671841 I-0.758222 J1.201162
G01 X13.510974 Y24.684304 
G01 X13.510974 Y24.684302 
M300 S50

(End cutting path id: path1538)


(Start cutting path id: path1538)
(Change tool to Default tool)

M300 S50
G00 X10.013100 Y23.792637

M300 S30
G03 X9.882397 Y23.801538 I-0.133873 J-1.001735 F400.000000
G03 X9.732447 Y23.793480 I-0.004147 J-1.322066
G01 X9.732352 Y23.784883 
G03 X9.863055 Y23.775980 I0.133707 J0.999010
G03 X10.013000 Y23.784045 I0.004029 J1.323089
G01 X10.013100 Y23.792650 
G01 X10.013100 Y23.792637 
M300 S50

(End cutting path id: path1538)


(Start cutting path id: path1538)
(Change tool to Default tool)

M300 S50
G00 X9.152617 Y23.749189

M300 S30
G03 X9.073688 Y23.758766 I-0.079585 J-0.325854 F400.000000
G03 X8.994749 Y23.749489 I-0.000655 J-0.334909
G01 X8.994731 Y23.739788 
G03 X9.073660 Y23.730209 I0.079585 J0.325787
G03 X9.152602 Y23.739495 I0.000636 J0.334787
G01 X9.152617 Y23.749189 
G01 X9.152617 Y23.749189 
M300 S50

(End cutting path id: path1538)


(Start cutting path id: path1538)
(Change tool to Default tool)

M300 S50
G00 X8.591921 Y23.703919

M300 S30
G03 X8.547893 Y23.714927 I-0.045763 J-0.089479 F400.000000
G03 X8.486678 Y23.705719 I-0.003222 J-0.186655
G01 X8.485804 Y23.694661 
G03 X8.529836 Y23.683649 I0.045786 J0.089537
G03 X8.591049 Y23.692828 I0.003233 J0.187141
G01 X8.591921 Y23.703879 
G01 X8.591921 Y23.703919 
M300 S50

(End cutting path id: path1538)


(Start cutting path id: path1538)
(Change tool to Default tool)

M300 S50
G00 X8.135138 Y23.660929

M300 S30
G03 X8.091293 Y23.671508 I-0.044038 J-0.086371 F400.000000
G03 X8.047434 Y23.661095 I-0.000193 J-0.096761
G01 X8.047413 Y23.649324 
G03 X8.091259 Y23.638745 I0.044027 J0.086326
G03 X8.135120 Y23.649160 I0.000183 J0.096799
G01 X8.135138 Y23.660925 
G01 X8.135138 Y23.660929 
M300 S50

(End cutting path id: path1538)


(Start cutting path id: path1538)
(Change tool to Default tool)

M300 S50
G00 X7.749186 Y23.617519

M300 S30
G03 X7.705341 Y23.628098 I-0.044039 J-0.086372 F400.000000
G03 X7.661482 Y23.617686 I-0.000193 J-0.096767
G01 X7.661461 Y23.605915 
G03 X7.705307 Y23.595336 I0.044027 J0.086326
G03 X7.749168 Y23.605750 I0.000185 J0.096793
G01 X7.749186 Y23.617516 
G01 X7.749186 Y23.617519 
M300 S50

(End cutting path id: path1538)


(Start cutting path id: path1538)
(Change tool to Default tool)

M300 S50
G00 X7.415123 Y23.571449

M300 S30
G01 X7.390828 Y23.584011 F400.000000
G03 X7.347887 Y23.575049 I-0.004589 J-0.085365
G01 X7.344753 Y23.560903 
G01 X7.369050 Y23.548339 
G03 X7.411985 Y23.557284 I0.004617 J0.085357
G01 X7.415123 Y23.571439 
G01 X7.415123 Y23.571449 
M300 S50

(End cutting path id: path1538)


(Start cutting path id: path1538)
(Change tool to Default tool)

M300 S50
G00 X7.099334 Y23.527909

M300 S30
G01 X7.075038 Y23.540469 F400.000000
G03 X7.032098 Y23.531509 I-0.004575 J-0.085447
G01 X7.028965 Y23.517363 
G01 X7.053261 Y23.504799 
G03 X7.096197 Y23.513744 I0.004617 J0.085357
G01 X7.099334 Y23.527899 
G01 X7.099334 Y23.527909 
M300 S50

(End cutting path id: path1538)


(Start cutting path id: path1538)
(Change tool to Default tool)

M300 S50
G00 X3.414851 Y22.784499

M300 S30
G01 X3.390556 Y22.797061 F400.000000
G03 X3.347615 Y22.788099 I-0.004589 J-0.085365
G01 X3.344482 Y22.773953 
G01 X3.368778 Y22.761389 
G03 X3.411714 Y22.770334 I0.004616 J0.085356
G01 X3.414851 Y22.784489 
G01 X3.414851 Y22.784499 
M300 S50

(End cutting path id: path1538)


(Start cutting path id: path1538)
(Change tool to Default tool)

M300 S50
G00 X3.239389 Y22.740689

M300 S30
G01 X3.215094 Y22.753251 F400.000000
G03 X3.172153 Y22.744289 I-0.004589 J-0.085365
G01 X3.169020 Y22.730143 
G01 X3.193316 Y22.717579 
G03 X3.236252 Y22.726524 I0.004616 J0.085356
G01 X3.239389 Y22.740679 
G01 X3.239389 Y22.740689 
M300 S50

(End cutting path id: path1538)


(Start cutting path id: path1538)
(Change tool to Default tool)

M300 S50
G00 X7.874372 Y18.313062

M300 S30
G03 X7.943258 Y18.416451 I-0.903650 J0.676731 F400.000000
G01 X7.939358 Y18.423294 
G01 X7.924995 Y18.416952 
G03 X7.839290 Y18.313129 I1.054601 J-0.957842
G03 X7.770403 Y18.209740 I0.903650 J-0.676731
G01 X7.774304 Y18.202897 
G01 X7.788667 Y18.209239 
G03 X7.874372 Y18.313062 I-1.054601 J0.957842
G01 X7.874372 Y18.313062 
M300 S50

(End cutting path id: path1538)


(Start cutting path id: path1538)
(Change tool to Default tool)

M300 S50
G00 X8.190531 Y18.665598

M300 S30
G03 X8.259418 Y18.768987 I-0.903650 J0.676731 F400.000000
G01 X8.255517 Y18.775830 
G01 X8.241154 Y18.769488 
G03 X8.155450 Y18.665665 I1.054612 J-0.957852
G03 X8.086563 Y18.562276 I0.903650 J-0.676731
G01 X8.090464 Y18.555433 
G01 X8.104827 Y18.561775 
G03 X8.190531 Y18.665598 I-1.054612 J0.957852
G01 X8.190531 Y18.665598 
M300 S50

(End cutting path id: path1538)


(Start cutting path id: path1538)
(Change tool to Default tool)

M300 S50
G00 X8.453989 Y18.952021

M300 S30
G03 X8.504203 Y19.033352 I-0.539987 J0.389561 F400.000000
G01 X8.500051 Y19.040221 
G01 X8.485723 Y19.033953 
G03 X8.418907 Y18.952091 I0.652744 J-0.600971
G03 X8.368692 Y18.870760 I0.539987 J-0.389561
G01 X8.372845 Y18.863891 
G01 X8.387173 Y18.870159 
G03 X8.453989 Y18.952021 I-0.652744 J0.600971
G01 X8.453989 Y18.952021 
M300 S50

(End cutting path id: path1538)


(Start cutting path id: path1538)
(Change tool to Default tool)

M300 S50
G00 X8.651665 Y19.161320

M300 S30
G01 X8.650778 Y19.177247 F400.000000
G01 X8.638440 Y19.178010 
G03 X8.580775 Y19.099635 I0.215192 J-0.218732
G01 X8.590180 Y19.084190 
G01 X8.600629 Y19.089211 
G03 X8.651665 Y19.161320 I-0.605291 J0.482519
G01 X8.651665 Y19.161320 
M300 S50

(End cutting path id: path1538)


(Start cutting path id: path1538)
(Change tool to Default tool)

M300 S50
G00 X8.827286 Y19.337555

M300 S30
G01 X8.826398 Y19.353482 F400.000000
G01 X8.814060 Y19.354245 
G03 X8.756394 Y19.275870 I0.215192 J-0.218732
G01 X8.765800 Y19.260425 
G01 X8.776248 Y19.265446 
G03 X8.827286 Y19.337555 I-0.605375 J0.482587
G01 X8.827286 Y19.337555 
M300 S50

(End cutting path id: path1538)


(Start cutting path id: path1538)
(Change tool to Default tool)

M300 S50
G00 X9.002907 Y19.513790

M300 S30
G01 X9.002019 Y19.529717 F400.000000
G01 X8.989681 Y19.530480 
G03 X8.933286 Y19.467877 I0.490547 J-0.498600
G01 X8.928195 Y19.453350 
G01 X8.943089 Y19.446230 
G03 X9.002907 Y19.513790 I-0.171829 J0.212399
G01 X9.002907 Y19.513790 
M300 S50

(End cutting path id: path1538)


(Start cutting path id: path1538)
(Change tool to Default tool)

M300 S50
G00 X9.892605 Y19.170020

M300 S30
G03 X9.942819 Y19.251351 I-0.539987 J0.389561 F400.000000
G01 X9.938667 Y19.258220 
G01 X9.924339 Y19.251952 
G03 X9.857523 Y19.170090 I0.652744 J-0.600971
G03 X9.807308 Y19.088759 I0.539987 J-0.389561
G01 X9.811461 Y19.081890 
G01 X9.825789 Y19.088158 
G03 X9.892605 Y19.170020 I-0.652744 J0.600971
G01 X9.892605 Y19.170020 
M300 S50

(End cutting path id: path1538)


(Start cutting path id: path1538)
(Change tool to Default tool)

M300 S50
G00 X10.070552 Y19.445546

M300 S30
G01 X10.173762 Y19.588812 F400.000000
G01 X10.059591 Y19.459380 
G03 X9.949455 Y19.315137 I0.963105 J-0.849542
G01 X9.956364 Y19.302301 
G01 X9.965172 Y19.306534 
G03 X10.070552 Y19.445546 I-2.802782 J2.234132
G01 X10.070552 Y19.445546 
M300 S50

(End cutting path id: path1538)


(Start cutting path id: path1538)
(Change tool to Default tool)

M300 S50
G00 X10.384597 Y19.875335

M300 S30
G03 X10.543624 Y20.088922 I-4.087526 J3.209387 F400.000000
G01 X10.540093 Y20.095750 
G01 X10.525808 Y20.089237 
G03 X10.349516 Y19.875402 I4.395808 J-3.803640
G03 X10.190489 Y19.661815 I4.087526 J-3.209387
G01 X10.194020 Y19.654987 
G01 X10.208305 Y19.661499 
G03 X10.384597 Y19.875335 I-4.396202 J3.803950
G01 X10.384597 Y19.875335 
M300 S50

(End cutting path id: path1538)


(Start cutting path id: path1538)
(Change tool to Default tool)

M300 S50
G00 X10.773247 Y20.327053

M300 S30
G01 X10.876457 Y20.470319 F400.000000
G01 X10.762286 Y20.340886 
G03 X10.652150 Y20.196645 I0.963074 J-0.849524
G01 X10.659059 Y20.183808 
G01 X10.667813 Y20.188014 
G03 X10.773247 Y20.327053 I-2.787436 J2.223213
G01 X10.773247 Y20.327053 
M300 S50

(End cutting path id: path1538)


(Start cutting path id: path1538)
(Change tool to Default tool)

M300 S50
G00 X11.003838 Y20.569396

M300 S30
G01 X11.002949 Y20.585324 F400.000000
G01 X10.990608 Y20.586086 
G03 X10.932943 Y20.507709 I0.215134 J-0.218685
G01 X10.942348 Y20.492266 
G01 X10.952820 Y20.497301 
G03 X11.003838 Y20.569396 I-0.607562 J0.484038
G01 X11.003838 Y20.569396 
M300 S50

(End cutting path id: path1538)


(Start cutting path id: path1538)
(Change tool to Default tool)

M300 S50
G00 X7.154162 Y17.453660

M300 S30
G03 X7.313189 Y17.667246 I-4.087448 J3.209326 F400.000000
G01 X7.309658 Y17.674075 
G01 X7.295304 Y17.667528 
G03 X7.119080 Y17.453727 I4.419832 J-3.822536
G03 X6.960054 Y17.240141 I4.087440 J-3.209320
G01 X6.963585 Y17.233312 
G01 X6.977939 Y17.239858 
G03 X7.154162 Y17.453660 I-4.420186 J3.822811
G01 X7.154162 Y17.453660 
M300 S50

(End cutting path id: path1538)


(Start cutting path id: path1538)
(Change tool to Default tool)

M300 S50
G00 X6.398712 Y16.461898

M300 S30
G03 X6.504036 Y16.609374 I-1.905133 J1.471949 F400.000000
G01 X6.500366 Y16.616202 
G01 X6.485996 Y16.609754 
G03 X6.363630 Y16.461965 I2.129139 J-1.887419
G03 X6.258307 Y16.314489 I1.905133 J-1.471949
G01 X6.261977 Y16.307661 
G01 X6.276347 Y16.314109 
G03 X6.398712 Y16.461898 I-2.129139 J1.887419
G01 X6.398712 Y16.461898 
M300 S50

(End cutting path id: path1538)


(Start cutting path id: path1538)
(Change tool to Default tool)

M300 S50
G00 X16.192387 Y35.936237

M300 S30
G02 X14.894157 Y36.339307 I1.818752 J8.150174 F400.000000
G02 X11.984603 Y37.629202 I17.086262 J42.467057
G03 X10.319999 Y38.407153 I-26.973888 J-55.547001
G03 X9.950956 Y38.543010 I-1.159349 J-2.580092
G01 X9.810677 Y38.583829 
G01 X10.005275 Y38.587889 
G02 X10.282161 Y38.535180 I0.014190 J-0.679073
G02 X12.160078 Y37.684171 I-14.056717 J-33.516356
G03 X15.148771 Y36.370889 I17.970212 J36.838223
G03 X16.402976 Y36.018049 I2.386362 J6.077040
G01 X16.718645 Y35.962467 
G01 X17.104733 Y36.119144 
G02 X20.117747 Y36.722016 I3.090762 J-7.616303
G02 X23.375194 Y36.178460 I0.089808 J-9.494252
G01 X23.891947 Y35.995582 
G01 X24.755072 Y36.244382 
G03 X27.602381 Y37.222010 I-8.326452 J28.885678
G03 X29.755416 Y38.246409 I-7.009011 J17.505997
G02 X30.316784 Y38.519642 I2.790297 J-5.019472
G02 X30.478733 Y38.551021 I0.155606 J-0.369493
G01 X30.649230 Y38.548321 
G01 X30.456185 Y38.469794 
G03 X30.267337 Y38.382520 I0.841652 J-2.069172
G03 X29.666351 Y38.059118 I11.092521 J-21.333587
G02 X27.647762 Y37.099260 I-8.497244 J15.267295
G02 X24.922153 Y36.165006 I-10.765449 J26.964328
G02 X24.085337 Y35.925615 I-61.913205 J214.841690
G02 X23.974241 Y35.895829 I-1.066436 J3.755464
G02 X23.864129 Y35.895784 I-0.055145 J0.218493
G02 X23.360495 Y36.050202 I1.258011 J5.001525
G03 X20.468404 Y36.610235 I-3.211214 J-8.835564
G03 X17.809784 Y36.238733 I-0.265007 J-7.802324
G03 X17.283279 Y36.059607 I5.227835 J-16.229547
G03 X17.019458 Y35.955388 I1.497089 J-4.175788
G02 X16.702601 Y35.885971 I-0.336479 J0.778006
G02 X16.192387 Y35.936237 I-0.049019 J2.116964
G01 X16.192387 Y35.936237 
M300 S50

(End cutting path id: path1538)


(Footer)
M5
G00 X0.0000 Y0.0000
M2
(Using default footer. To add your own footer create file "footer" in the output dir.)
(end)
%
