%
(Header)
(Generated by gcodetools from Inkscape.)
(Using default header. To add your own header create file "header" in the output dir.)
M3
(Header end.)
G21 (All units in mm)

(Start cutting path id: path231)
(Change tool to Default tool)

M300 S50
G00 X20.341797 Y33.941406

M300 S30
G01 X20.341797 Y32.740234 F400.000000
G02 X20.290122 Y31.689403 I-10.710341 J0.000000
G01 X20.236328 Y31.673828 
G03 X19.791627 Y32.030533 I-0.974584 J-0.759453
G03 X19.208984 Y32.162109 I-0.583962 J-1.230072
G03 X18.121133 Y31.781302 I-0.001674 J-1.739450
G03 X17.431641 Y30.740234 I1.272365 J-1.591536
G03 X17.253916 Y29.453855 I4.602389 J-1.291330
G03 X17.429641 Y28.171875 I4.728386 J-0.004898
G03 X17.860569 Y27.310029 I2.454897 J0.688807
G03 X18.431594 Y26.863281 I1.148962 J0.880271
G03 X19.360819 Y26.745410 I0.666104 J1.529507
G03 X20.189406 Y27.142578 I-0.254607 J1.594071
G02 X20.290735 Y27.164954 I0.070285 J-0.077661
G02 X20.341750 Y27.095708 I-0.021489 J-0.069246
G03 X20.421519 Y26.993342 I0.105566 J0.000000
G03 X21.060500 Y26.914067 I0.638981 J2.535549
G01 X21.781250 Y26.914067 
G01 X21.781250 Y30.427734 
G01 X21.781250 Y33.941406 
G01 X21.060547 Y33.941406 
G01 X20.341797 Y33.941406 
M300 S50

(End cutting path id: path231)


(Start cutting path id: path231)
(Change tool to Default tool)

M300 S50
G00 X20.509766 Y33.771484

M300 S30
G01 X21.060547 Y33.771484 F400.000000
G01 X21.611328 Y33.771484 
G01 X21.611328 Y30.427734 
G01 X21.611328 Y27.083984 
G01 X21.060547 Y27.083984 
G01 X20.509766 Y27.083984 
G01 X20.509766 Y27.421875 
G03 X20.370111 Y27.623475 I-0.215338 J0.000000
G03 X20.171875 Y27.548828 I-0.056500 J-0.150502
G02 X20.036316 Y27.358522 I-0.809731 J0.433357
G02 X19.845703 Y27.197266 I-0.752179 J0.695826
G02 X18.606648 Y27.122822 I-0.684532 J1.044728
G02 X17.613281 Y28.302734 I0.856975 J1.729600
G02 X17.445875 Y29.454101 I3.875659 J1.151367
G02 X17.613281 Y30.605469 I4.043071 J-0.000000
G02 X18.246023 Y31.579400 I1.963977 J-0.583448
G02 X19.136719 Y31.908203 I0.890696 J-1.042003
G02 X19.563251 Y31.816657 I0.000000 J-1.039423
G02 X19.982422 Y31.527344 I-0.579638 J-1.288120
G03 X20.373528 Y31.169695 I4.197632 J4.197630
G03 X20.437500 Y31.146484 I0.063972 J0.076556
G01 X20.475229 Y31.182225 
G03 X20.509770 Y32.458984 I-23.579203 J1.276759
G01 X20.509766 Y33.771484 
M300 S50

(End cutting path id: path231)


(Start cutting path id: path231)
(Change tool to Default tool)

M300 S50
G00 X23.050781 Y33.458984

M300 S30
G01 X24.384766 Y33.410156 F400.000000
G02 X26.347320 Y33.012719 I-0.224334 J-6.152052
G02 X26.964844 Y32.429688 I-0.393411 J-1.035230
G02 X26.967727 Y31.296143 I-1.274325 J-0.570017
G02 X26.187500 Y30.669922 I-0.993107 J0.438177
G03 X26.066332 Y30.488331 I0.030286 J-0.151429
G03 X26.265630 Y30.277344 I0.267788 J0.053330
G02 X26.977080 Y29.776190 I-0.309725 J-1.195266
G02 X27.283208 Y28.781250 I-1.463753 J-0.994939
G02 X26.997534 Y27.856306 I-1.640214 J0.000000
G02 X26.265630 Y27.292969 I-1.228333 J0.838764
G02 X25.878108 Y27.205651 I-0.559978 J1.581624
G02 X24.468755 Y27.107422 I-2.175413 J21.052570
G01 X23.050786 Y27.056642 
G01 X23.050786 Y30.257812 
G01 X23.050781 Y33.458984 
M300 S50

(End cutting path id: path231)


(Start cutting path id: path231)
(Change tool to Default tool)

M300 S50
G00 X24.228516 Y33.583984

M300 S30
G01 X22.839844 Y33.560547 F400.000000
G01 X22.816404 Y30.343750 
G03 X22.815622 Y27.129566 I241.401733 J-1.665840
G03 X22.837884 Y27.011719 I0.334399 J0.002145
G03 X22.918820 Y26.953088 I0.085475 J0.032812
G03 X24.511712 Y26.927729 I1.172725 J23.623484
G03 X26.118019 Y27.048377 I-0.250232 J14.085104
G03 X26.644524 Y27.210933 I-0.218063 J1.640218
G03 X27.241493 Y27.795425 I-0.619857 J1.230193
G03 X27.496087 Y28.818354 I-1.927714 J1.022930
G03 X27.295485 Y29.755097 I-2.287428 J-0.000000
G03 X26.833977 Y30.294917 I-1.150585 J-0.516479
G01 X26.519531 Y30.500000 
G01 X26.750000 Y30.650391 
G03 X27.115525 Y31.080634 I-0.548857 J0.836688
G03 X27.281250 Y31.847656 I-1.757209 J0.781083
G03 X27.136569 Y32.624874 I-2.079621 J0.014948
G03 X26.781250 Y33.119141 I-1.153628 J-0.454472
G03 X26.123439 Y33.428740 I-0.911718 J-1.083514
G03 X24.228516 Y33.583984 I-1.732666 J-9.506612
G01 X24.228516 Y33.583984 
M300 S50

(End cutting path id: path231)


(Start cutting path id: path231)
(Change tool to Default tool)

M300 S50
G00 X24.066406 Y32.585938

M300 S30
G01 X24.066406 Y31.740234 F400.000000
G01 X24.066406 Y30.892578 
G01 X24.824219 Y30.892578 
G03 X25.554199 Y30.964773 I-0.000000 J3.726588
G03 X25.806641 Y31.087891 I-0.108387 J0.542603
G03 X25.961427 Y31.315330 I-0.345200 J0.401319
G03 X26.033203 Y31.740234 I-1.221799 J0.424905
G03 X25.961429 Y32.165138 I-1.293597 J-0.000000
G03 X25.806641 Y32.392578 I-0.499973 J-0.173872
G03 X25.554190 Y32.515117 I-0.357972 J-0.416167
G03 X24.824219 Y32.585938 I-0.729971 J-3.726635
G01 X24.066406 Y32.585938 
M300 S50

(End cutting path id: path231)


(Start cutting path id: path231)
(Change tool to Default tool)

M300 S50
G00 X24.236328 Y32.435547

M300 S30
G01 X24.880859 Y32.402344 F400.000000
G02 X25.488917 Y32.300872 I-0.135590 J-2.685102
G02 X25.683594 Y32.171875 I-0.107576 J-0.373746
G02 X25.804040 Y31.960761 I-0.585082 J-0.473719
G02 X25.843750 Y31.740234 I-0.592478 J-0.220527
G02 X25.804190 Y31.518719 I-0.639972 J-0.000000
G02 X25.683594 Y31.306641 I-0.702683 J0.259247
G02 X25.488917 Y31.177644 I-0.302252 J0.244749
G02 X24.880859 Y31.076172 I-0.743655 J2.583666
G01 X24.236328 Y31.042969 
G01 X24.236328 Y31.740234 
G01 X24.236328 Y32.435547 
M300 S50

(End cutting path id: path231)


(Start cutting path id: path231)
(Change tool to Default tool)

M300 S50
G00 X24.066406 Y30.046875

M300 S30
G01 X24.066406 Y28.980469 F400.000000
G01 X24.066406 Y27.914062 
G01 X24.953125 Y27.943362 
G03 X25.810057 Y28.042065 I-0.171085 J5.254581
G03 X26.023438 Y28.156253 I-0.081504 J0.408771
G03 X26.267914 Y28.658675 I-0.606392 J0.605759
G03 X26.185547 Y29.488284 I-1.897744 J0.230477
G03 X25.854489 Y29.844257 I-0.553235 J-0.182583
G03 X24.832031 Y30.046878 I-1.022458 J-2.478436
G01 X24.066406 Y30.046875 
M300 S50

(End cutting path id: path231)


(Start cutting path id: path231)
(Change tool to Default tool)

M300 S50
G00 X24.236328 Y29.894531

M300 S30
G01 X24.921875 Y29.863281 F400.000000
G02 X25.568611 Y29.752984 I-0.120797 J-2.659556
G02 X25.810547 Y29.595703 I-0.148457 J-0.493080
G02 X25.955990 Y29.338225 I-0.575041 J-0.494645
G02 X26.013672 Y28.978516 I-1.092751 J-0.359709
G02 X25.875751 Y28.442943 I-1.108827 J0.000000
G02 X25.580078 Y28.193359 I-0.473789 J0.261352
G02 X25.306265 Y28.130509 I-0.422030 J1.210749
G02 X24.773438 Y28.099609 I-0.532827 J4.578465
G01 X24.236328 Y28.099609 
G01 X24.236328 Y28.996094 
G01 X24.236328 Y29.894531 
M300 S50

(End cutting path id: path231)


(Start cutting path id: path231)
(Change tool to Default tool)

M300 S50
G00 X28.234375 Y31.824219

M300 S30
G01 X28.759766 Y31.824219 F400.000000
G01 X29.285156 Y31.824219 
G01 X29.841797 Y30.236328 
G03 X30.433586 Y28.690713 I26.826781 J9.385411
G03 X30.513672 Y28.625000 I0.101810 J0.042420
G03 X30.592346 Y28.667188 I0.013800 J0.068717
G03 X31.164062 Y30.212891 I-22.494381 J9.198676
G01 X31.699219 Y31.824219 
G01 X32.232422 Y31.824219 
G01 X32.767578 Y31.824219 
G01 X31.732422 Y29.087891 
G02 X30.672394 Y26.360888 I-147.444948 J55.744600
G02 X30.496094 Y25.992188 I-2.876965 J1.149167
G02 X30.262057 Y25.666669 I-1.573216 J0.884196
G02 X30.017578 Y25.462891 I-0.838521 J0.757458
G02 X29.724272 Y25.340900 I-0.526012 J0.851107
G02 X29.105469 Y25.244141 I-0.915728 J3.829261
G01 X28.468750 Y25.195311 
G01 X28.468750 Y25.630858 
G01 X28.468750 Y26.066405 
G01 X28.898438 Y26.066405 
G03 X29.319159 Y26.097642 I-0.000000 J2.848903
G03 X29.490234 Y26.154295 I-0.077939 J0.521977
G03 X29.845089 Y26.512541 I-0.404193 J0.755238
G03 X29.994141 Y27.119139 I-1.159814 J0.606598
G03 X29.958459 Y27.324188 I-0.606998 J0.000000
G03 X29.113281 Y29.578123 I-79.979576 J-28.705207
G01 X28.234375 Y31.824219 
M300 S50

(End cutting path id: path231)


(Start cutting path id: path231)
(Change tool to Default tool)

M300 S50
G00 X28.761719 Y31.994141

M300 S30
G03 X28.074804 Y31.961130 I-0.000000 J-7.163508 F400.000000
G03 X28.011719 Y31.921875 I0.008015 J-0.083198
G03 X28.003843 Y31.846200 I0.074417 J-0.045993
G03 X28.890625 Y29.490234 I85.617256 J30.881335
G01 X29.816406 Y27.132812 
G01 X29.656250 Y26.769531 
G02 X29.314796 Y26.398921 I-0.715265 J0.316396
G02 X28.675781 Y26.236328 I-0.639015 J1.174408
G01 X28.300781 Y26.236328 
G01 X28.300781 Y25.644531 
G01 X28.300781 Y25.050781 
G01 X29.023438 Y25.050781 
G03 X30.079887 Y25.259446 I0.000000 J2.778674
G03 X30.625000 Y25.708984 I-0.455113 J1.107145
G03 X33.117796 Y30.584647 I-21.035739 J13.830093
G03 X32.990234 Y31.923828 I-1.419969 J0.540408
G03 X32.929486 Y31.961565 I-0.068322 J-0.042218
G03 X32.240234 Y31.994140 I-0.689252 J-7.275727
G01 X31.535156 Y31.994140 
G01 X31.039062 Y30.558593 
G02 X30.530258 Y29.190882 I-29.220164 J10.091735
G01 X30.490234 Y29.183593 
G02 X30.449538 Y29.250185 I0.151416 J0.138264
G02 X30.001953 Y30.490234 I57.764189 J21.550320
G03 X29.563329 Y31.736093 I-221.469062 J-77.271507
G03 X29.515625 Y31.865234 I-5.182206 J-1.840892
G03 X29.427665 Y31.937412 I-0.107421 J-0.041224
G03 X28.761719 Y31.994140 I-0.665946 J-3.880506
G01 X28.761719 Y31.994141 
M300 S50

(End cutting path id: path231)


(Start cutting path id: path231)
(Change tool to Default tool)

M300 S50
G00 X35.712891 Y32.142578

M300 S30
G03 X34.544427 Y31.729665 I0.193154 J-2.406309 F400.000000
G03 X33.771484 Y30.816406 I1.268913 J-1.857676
G03 X33.654766 Y30.413655 I1.263762 J-0.584530
G03 X33.591797 Y29.453125 I7.294533 J-0.960530
G03 X33.668863 Y28.497697 I5.960994 J-0.000000
G03 X33.830078 Y27.992188 I1.778893 J0.288855
G03 X34.330162 Y27.344709 I1.837361 J0.902236
G03 X35.101562 Y26.894531 I1.597310 J1.851058
G03 X36.207066 Y26.715221 I1.035091 J2.884121
G03 X37.677734 Y26.953121 I-0.124977 J5.437282
G01 X38.121094 Y27.089840 
G01 X38.121094 Y27.716793 
G03 X38.088844 Y28.325051 I-5.752194 J0.000000
G03 X38.048824 Y28.388668 I-0.084931 J-0.009032
G03 X37.973617 Y28.398923 I-0.049142 J-0.079493
G03 X37.621090 Y28.263668 I0.629771 J-2.168462
G02 X37.022013 Y28.060283 I-1.123536 J2.325420
G02 X36.478512 Y27.988277 I-0.765585 J3.691456
G02 X37.147931 Y27.960080 I0.120101 J-5.109050
G03 X37.804684 Y28.054687 I0.143711 J1.329233
G02 X37.888076 Y28.019884 I0.024426 J-0.058782
G02 X37.951168 Y27.697265 I-0.793313 J-0.322619
G01 X37.951168 Y27.279296 
G01 X37.591793 Y27.169921 
G02 X36.663085 Y26.989506 I-1.317288 J4.300364
G02 X35.708980 Y27.007811 I-0.390775 J4.506088
G02 X34.348878 Y27.780778 I0.255074 J2.031918
G02 X33.769527 Y29.496093 I2.163227 J1.686130
G02 X34.458467 Y31.249506 I2.647480 J-0.028178
G02 X35.974605 Y31.919921 I1.516138 J-1.379159
G02 X37.475368 Y31.273968 I-0.000000 J-2.066362
G02 X38.121090 Y29.652343 I-1.713363 J-1.621625
G01 X38.121090 Y29.199218 
G01 X36.470699 Y29.199218 
G01 X34.818355 Y29.199218 
G01 X34.818355 Y28.943358 
G03 X34.967209 Y28.334636 I1.319082 J-0.000000
G03 X35.343746 Y27.931640 I0.911229 J0.473998
G03 X35.675272 Y27.897272 I0.201869 J0.331106
G02 X36.224605 Y27.976560 I0.472711 J-1.332469
G02 X35.683814 Y28.068735 I0.129406 J2.391727
G02 X35.328121 Y28.279295 I0.232915 J0.799169
G02 X35.105292 Y28.547904 I1.330249 J1.330258
G02 X35.074215 Y28.648436 I0.147067 J0.100532
G03 X35.062214 Y28.760130 I-0.525755 J-0.000000
G03 X35.021485 Y28.896482 I-0.913455 J-0.198592
G02 X35.064762 Y28.965438 I0.047521 J0.018234
G02 X36.640626 Y29.031248 I1.575864 J-18.834708
G01 X38.310548 Y29.031248 
G01 X38.277348 Y29.859373 
G03 X38.173518 Y30.666317 I-4.634383 J-0.186159
G03 X38.007812 Y31.089844 I-1.419235 J-0.311098
G03 X37.118813 Y31.894054 I-1.720219 J-1.008115
G03 X35.712891 Y32.142578 I-1.179537 J-2.571769
G01 X35.712891 Y32.142578 
M300 S50

(End cutting path id: path231)


(Start cutting path id: path231)
(Change tool to Default tool)

M300 S50
G00 X35.945312 Y31.146484

M300 S30
G03 X35.431623 Y31.069739 I-0.000000 J-1.757539 F400.000000
G03 X35.156250 Y30.904297 I0.194021 J-0.634836
G03 X34.849702 Y30.426538 I0.940974 J-0.940990
G03 X34.851562 Y30.083984 I0.454630 J-0.168814
G03 X34.943332 Y30.016567 I0.098387 J0.037759
G03 X35.982422 Y30.011718 I0.561177 J8.919323
G03 X37.059177 Y30.079375 I-3.118880 J58.239187
G03 X37.089844 Y30.091796 I-0.003867 J0.053613
G01 X37.099807 Y30.119471 
G03 X37.023434 Y30.457031 I-4.200306 J-0.772903
G03 X36.674449 Y30.933258 I-0.789532 J-0.212594
G03 X35.945312 Y31.146484 I-0.729137 J-1.140048
G01 X35.945312 Y31.146484 
M300 S50

(End cutting path id: path231)


(Start cutting path id: path231)
(Change tool to Default tool)

M300 S50
G00 X36.212891 Y30.941406

M300 S30
G02 X36.696542 Y30.693754 I-0.176485 J-0.940766 F400.000000
G02 X36.851562 Y30.332031 I-0.344513 J-0.361723
G02 X36.797544 Y30.270321 I-0.062258 J0.000000
G02 X35.962891 Y30.214844 I-0.834653 J6.250937
G02 X35.302096 Y30.418471 I-0.000000 J1.173993
G02 X35.277344 Y30.681641 I0.096585 J0.141833
G02 X35.683878 Y30.918807 I0.653957 J-0.653957
G02 X36.212891 Y30.941406 I0.313173 J-1.127929
G01 X36.212891 Y30.941406 
M300 S50

(End cutting path id: path231)


(Start cutting path id: path231)
(Change tool to Default tool)

M300 S50
G00 X36.224609 Y27.976562

M300 S30
G03 X36.347951 Y27.978693 I0.046656 J0.870232 F400.000000
G02 X36.478516 Y27.988282 I0.389291 J-4.406850
G03 X36.347351 Y27.979744 I0.038450 J-1.602496
G02 X36.224609 Y27.976562 I-0.081193 J0.763013
G01 X36.224609 Y27.976562 
M300 S50

(End cutting path id: path231)


(Start cutting path id: path231)
(Change tool to Default tool)

M300 S50
G00 X34.400391 Y23.496094

M300 S30
G03 X33.424869 Y23.515000 I-0.624553 J-7.048782 F400.000000
G03 X32.466797 Y23.394531 I0.317603 J-6.395789
G03 X29.662365 Y21.435537 I0.856433 J-4.212906
G03 X28.300781 Y16.626953 I7.810232 J-4.808584
G03 X29.639099 Y11.840181 I9.229604 J0.000000
G03 X32.406250 Y9.859375 I3.698456 J2.243445
G03 X33.520602 Y9.837449 I0.612012 J2.776000
G02 X34.917969 Y10.070312 I9.997107 J-55.681699
G02 X33.484573 Y9.967517 I-1.297883 J8.052784
G02 X32.195312 Y10.148442 I0.088283 J5.313165
G02 X30.155206 Y11.400645 I1.091329 J4.065993
G02 X28.808594 Y13.917973 I4.451943 J4.000350
G02 X28.466808 Y16.628374 I10.619510 J2.715887
G02 X28.806594 Y19.332035 I10.883013 J0.005447
G02 X30.216632 Y21.890633 I5.650804 J-1.446313
G02 X32.412062 Y23.150395 I3.185202 J-3.008053
G02 X34.290313 Y23.289297 I1.386331 J-5.977733
G02 X36.025344 Y22.859379 I-0.442464 J-5.501678
G01 X36.427687 Y22.685551 
G01 X36.427687 Y21.457035 
G01 X36.427687 Y20.228520 
G01 X35.914015 Y20.560551 
G03 X34.886800 Y21.017626 I-1.974957 J-3.055647
G03 X33.773391 Y21.138676 I-0.943463 J-3.496860
G03 X32.725388 Y20.907691 I0.148827 J-3.168180
G03 X32.013625 Y20.421879 I0.772773 J-1.896498
G03 X31.571481 Y19.791263 I1.887840 J-1.793930
G03 X31.162062 Y18.714848 I5.180298 J-2.586419
G03 X30.885018 Y16.626958 I7.728964 J-2.087890
G03 X31.162062 Y14.539066 I8.006024 J0.000000
G03 X31.832756 Y13.072410 I4.737652 J1.279823
G03 X32.660109 Y12.322270 I1.944097 J1.312879
G03 X33.015669 Y12.205767 I0.498782 J0.921430
G03 X33.972609 Y12.140629 I0.948669 J6.875054
G03 X34.929247 Y12.215944 I-0.007761 J6.211778
G03 X35.412062 Y12.367192 I-0.266888 J1.698208
G03 X35.870482 Y12.605405 I-4.030543 J8.316641
G03 X36.152297 Y12.777348 I-1.973068 J3.550774
G01 X36.427687 Y12.960942 
G01 X36.427687 Y11.730469 
G01 X36.427687 Y10.500000 
G01 X35.949172 Y10.322266 
G02 X35.542827 Y10.187707 I-1.961750 J5.243305
G02 X35.169875 Y10.091797 I-1.793504 J6.201099
G02 X35.809135 Y10.116469 I0.402729 J-2.140769
G03 X36.300734 Y10.187497 I0.108032 J0.989034
G01 X36.597609 Y10.310544 
G01 X36.597609 Y11.796872 
G03 X36.552555 Y13.239286 I-23.111939 J0.000000
G01 X36.505809 Y13.283200 
G03 X36.422246 Y13.261464 I-0.000000 J-0.171496
G03 X36.039012 Y13.023435 I2.347138 J-4.206486
G02 X34.956123 Y12.477520 I-2.540621 J3.692654
G02 X33.972606 Y12.312497 I-0.987256 J2.870593
G02 X32.902727 Y12.515684 I-0.003407 J2.900364
G02 X32.162059 Y13.029294 I0.727572 J1.840078
G02 X31.537746 Y14.185908 I2.053546 J1.855257
G02 X31.224559 Y16.626950 I9.356379 J2.441042
G02 X31.537747 Y19.067992 I9.669565 J-0.000000
G02 X32.162059 Y20.224606 I2.677858 J-0.698643
G02 X33.821616 Y20.936692 I1.604551 J-1.449609
G02 X36.101512 Y20.124996 I-0.098870 J-3.885446
G03 X36.418202 Y19.910128 I1.875569 J2.423551
G03 X36.503856 Y19.886715 I0.085654 J0.144971
G01 X36.552163 Y19.932069 
G03 X36.597606 Y21.373043 I-22.823687 J1.440974
G01 X36.597606 Y22.859371 
G01 X36.138622 Y23.068355 
G03 X35.362628 Y23.337483 I-1.792765 J-3.915897
G03 X34.400341 Y23.496090 I-1.536790 J-6.325418
G01 X34.400391 Y23.496094 
M300 S50

(End cutting path id: path231)


(Start cutting path id: path231)
(Change tool to Default tool)

M300 S50
G00 X35.169922 Y10.091797

M300 S30
G02 X35.045668 Y10.080130 I-0.125102 J0.664831 F400.000000
G03 X34.917969 Y10.070317 I0.001066 J-0.849703
G02 X35.001707 Y10.067636 I0.034941 J-0.217700
G03 X35.082031 Y10.066417 I0.043049 J0.189691
G03 X35.122806 Y10.077836 I-0.049486 J0.255209
G02 X35.169921 Y10.091807 I0.128716 J-0.347652
G01 X35.169922 Y10.091797 
M300 S50

(End cutting path id: path231)


(Start cutting path id: path231)
(Change tool to Default tool)

M300 S50
G00 X15.345703 Y23.107422

M300 S30
G01 X16.798828 Y23.083982 F400.000000
G01 X18.251953 Y23.060542 
G01 X19.021484 Y20.205073 
G03 X19.837023 Y17.408711 I67.645277 J18.211145
G03 X19.919922 Y17.347651 I0.083200 J0.026153
G03 X20.002832 Y17.408244 I0.000269 J0.086651
G03 X20.818359 Y20.203120 I-64.457079 J20.324594
G01 X21.583984 Y23.060542 
G01 X23.037109 Y23.083982 
G01 X24.490234 Y23.107422 
G01 X24.490234 Y16.628906 
G01 X24.490234 Y10.150391 
G01 X23.474609 Y10.150391 
G01 X22.457031 Y10.150391 
G01 X22.457031 Y15.398438 
G03 X22.403093 Y20.594140 I-250.269571 J0.000000
G03 X22.347656 Y20.648438 I-0.055437 J-0.001151
G03 X22.278993 Y20.596414 I0.000000 J-0.071324
G03 X21.615234 Y18.044922 I65.046025 J-18.283505
G02 X20.987350 Y15.442231 I-753.669371 J180.441161
G02 X20.916016 Y15.166016 I-9.702439 J2.358398
G01 X20.841796 Y14.890625 
G01 X19.929687 Y14.890625 
G01 X19.019530 Y14.890625 
G01 X18.316405 Y17.769531 
G03 X17.570164 Y20.592515 I-74.706827 J-18.238240
G03 X17.496093 Y20.648438 I-0.074071 J-0.021093
G03 X17.436440 Y20.590093 I0.000000 J-0.059667
G03 X17.378905 Y15.398438 I234.203010 J-5.191655
G01 X17.378905 Y10.150391 
G01 X16.361327 Y10.150391 
G01 X15.345702 Y10.150391 
G01 X15.345702 Y16.628906 
G01 X15.345703 Y23.107422 
M300 S50

(End cutting path id: path231)


(Start cutting path id: path231)
(Change tool to Default tool)

M300 S50
G00 X15.175781 Y23.277344

M300 S30
G01 X15.175781 Y16.628906 F400.000000
G01 X15.177781 Y9.980469 
G01 X16.361375 Y9.980469 
G01 X17.546922 Y9.980469 
G01 X17.552822 Y14.912109 
G01 X17.558722 Y19.843750 
G01 X18.111456 Y17.599609 
G03 X18.664415 Y15.357098 I8235.126273 J2029.431315
G03 X18.744269 Y15.037109 I60.103075 J14.828913
G01 X18.826299 Y14.716797 
G01 X19.941533 Y14.740237 
G01 X21.056768 Y14.763677 
G01 X21.668096 Y17.261724 
G01 X22.277471 Y19.759771 
G01 X22.283371 Y14.869146 
G01 X22.289271 Y9.980474 
G01 X23.474818 Y9.980474 
G01 X24.660365 Y9.980474 
G01 X24.660365 Y16.626958 
G01 X24.660365 Y23.273443 
G01 X23.049037 Y23.273443 
G03 X21.498526 Y23.185135 I-0.000000 J-13.656088
G03 X21.367397 Y23.082036 I0.018043 J-0.157888
G03 X21.305475 Y22.889051 I2.293631 J-0.842366
G03 X20.633021 Y20.416021 I352.608813 J-97.207630
G02 X19.951880 Y17.961829 I-140.812456 J37.759748
G01 X19.922084 Y17.939458 
G01 X19.892233 Y17.962003 
G02 X19.156459 Y20.585943 I167.969739 J48.515169
G01 X18.435756 Y23.230474 
G01 X16.806850 Y23.253914 
G01 X15.175781 Y23.277344 
M300 S50

(End cutting path id: path231)


(Start cutting path id: path231)
(Change tool to Default tool)

M300 S50
G00 X14.501953 Y30.892578

M300 S30
G02 X15.445135 Y29.521439 I-0.585042 J-1.412408 F400.000000
G02 X14.578123 Y28.052734 I-1.604107 J-0.043319
G02 X14.127530 Y27.975414 I-0.347112 J0.671242
G02 X13.740232 Y28.167969 I0.093017 J0.672868
G02 X13.395638 Y28.810305 I0.892293 J0.892288
G02 X13.386717 Y29.917969 I2.854585 J0.576860
G02 X13.883629 Y30.790798 I1.505076 J-0.278995
G02 X14.501951 Y30.892578 I0.391087 J-0.446815
G01 X14.501953 Y30.892578 
M300 S50

(End cutting path id: path231)


(Start cutting path id: path231)
(Change tool to Default tool)

M300 S50
G00 X14.226562 Y31.146484

M300 S30
G03 X13.837623 Y31.078211 I0.000000 J-1.141992 F400.000000
G03 X13.570312 Y30.908203 I0.248386 J-0.685705
G03 X13.285230 Y30.426407 I0.796595 J-0.796590
G03 X13.146484 Y29.453125 I3.344331 J-0.973282
G03 X13.285390 Y28.481144 I3.470129 J0.000000
G03 X13.570312 Y28.000000 I1.081681 J0.315612
G03 X13.837598 Y27.829059 I0.522433 J0.522446
G03 X14.226562 Y27.759766 I0.388964 J1.057049
G03 X14.627126 Y27.813024 I0.000000 J1.532973
G03 X14.867188 Y27.933594 I-0.175733 J0.649172
G03 X15.335369 Y28.744814 I-0.778924 J0.990253
G03 X15.216797 Y30.365234 I-3.758312 J0.539538
G03 X14.828345 Y30.937876 I-1.096209 J-0.325540
G03 X14.226562 Y31.146484 I-0.601783 J-0.763695
G01 X14.226562 Y31.146484 
M300 S50

(End cutting path id: path231)


(Start cutting path id: path231)
(Change tool to Default tool)

M300 S50
G00 X14.246094 Y32.119141

M300 S30
G03 X12.980156 Y31.758913 I-0.001924 J-2.397780 F400.000000
G03 X12.134766 Y30.808594 I1.178295 J-1.899377
G03 X11.986600 Y30.326709 I1.633012 J-0.765828
G03 X11.917969 Y29.453125 I5.435756 J-0.866532
G03 X11.981622 Y28.577974 I6.162102 J0.008303
G03 X12.105469 Y28.158203 I1.519322 J0.220097
G03 X12.731610 Y27.281562 I2.588559 J1.186947
G03 X13.492188 Y26.837891 I1.318422 J1.386392
G03 X14.444066 Y26.733705 I0.751473 J2.465275
G03 X15.302734 Y26.978516 I-0.174823 J2.241473
G03 X15.891008 Y27.409601 I-1.087483 J2.100952
G03 X16.308594 Y27.988281 I-1.600805 J1.595178
G03 X16.579698 Y28.891475 I-2.419635 J1.218567
G03 X16.548828 Y30.052734 I-4.040889 J0.473619
G03 X16.288034 Y30.904676 I-3.460377 J-0.593391
G03 X15.908203 Y31.472656 I-1.893848 J-0.855499
G03 X15.221518 Y31.935857 I-1.365729 J-1.284064
G03 X14.246094 Y32.119141 I-0.977589 J-2.515459
G01 X14.246094 Y32.119141 
M300 S50

(End cutting path id: path231)


(Start cutting path id: path231)
(Change tool to Default tool)

M300 S50
G00 X13.417969 Y31.777344

M300 S30
G02 X14.279632 Y31.942822 I0.828789 J-1.989466 F400.000000
G02 X15.138672 Y31.750000 I-0.032898 J-2.156523
G02 X15.803341 Y31.244325 I-0.777366 J-1.711450
G02 X16.236328 Y30.437500 I-1.734833 J-1.450602
G02 X16.379262 Y29.454100 I-3.311484 J-0.983399
G02 X16.236328 Y28.470703 I-3.454406 J-0.000000
G02 X15.803341 Y27.663877 I-2.167818 J0.643776
G02 X15.138672 Y27.158203 I-1.442035 J1.205776
G02 X14.260264 Y26.961262 I-0.910929 J2.005552
G02 X13.398438 Y27.132813 I-0.030937 J2.095156
G02 X12.516680 Y27.936292 I0.727262 J1.683687
G02 X12.128906 Y29.453126 I2.772772 J1.516834
G02 X12.523523 Y30.977718 I3.142422 J0.000000
G02 X13.417969 Y31.777345 I1.596601 J-0.885858
G01 X13.417969 Y31.777344 
M300 S50

(End cutting path id: path231)


(Start cutting path id: path231)
(Change tool to Default tool)

M300 S50
G00 X9.083984 Y30.892578

M300 S30
G02 X10.026182 Y29.521436 I-0.584403 J-1.410872 F400.000000
G02 X9.158203 Y28.052734 I-1.605863 J-0.041793
G02 X8.708660 Y27.975726 I-0.345976 J0.669044
G02 X8.322266 Y28.167969 I0.093275 J0.671911
G02 X7.977671 Y28.810306 I0.892285 J0.892287
G02 X7.968750 Y29.917969 I2.854583 J0.576857
G02 X8.465662 Y30.790798 I1.505078 J-0.278996
G02 X9.083984 Y30.892578 I0.391087 J-0.446815
G01 X9.083984 Y30.892578 
M300 S50

(End cutting path id: path231)


(Start cutting path id: path231)
(Change tool to Default tool)

M300 S50
G00 X8.808594 Y31.146484

M300 S30
G03 X8.418507 Y31.078378 I0.000000 J-1.151191 F400.000000
G03 X8.150391 Y30.908203 I0.246713 J-0.685004
G03 X7.865308 Y30.426407 I0.796589 J-0.796588
G03 X7.726563 Y29.453125 I3.344341 J-0.973282
G03 X7.865468 Y28.481144 I3.470130 J-0.000000
G03 X8.150391 Y28.000000 I1.081680 J0.315611
G03 X8.418481 Y27.828892 I0.521507 J0.521518
G03 X8.808594 Y27.759766 I0.390113 J1.066237
G03 X9.209157 Y27.813025 I0.000000 J1.532969
G03 X9.449219 Y27.933594 I-0.175733 J0.649170
G03 X9.917398 Y28.744812 I-0.778934 J0.990257
G03 X9.798828 Y30.365234 I-3.758275 J0.539547
G03 X9.410377 Y30.937876 I-1.096210 J-0.325540
G03 X8.808594 Y31.146484 I-0.601783 J-0.763693
G01 X8.808594 Y31.146484 
M300 S50

(End cutting path id: path231)


(Start cutting path id: path231)
(Change tool to Default tool)

M300 S50
G00 X8.826172 Y32.119141

M300 S30
G03 X7.561355 Y31.758709 I-0.001920 J-2.392713 F400.000000
G03 X6.716797 Y30.808594 I1.180614 J-1.899869
G03 X6.568618 Y30.326709 I1.633214 J-0.765935
G03 X6.500000 Y29.453125 I5.432089 J-0.866167
G03 X6.563653 Y28.577974 I6.162235 J0.008309
G03 X6.687500 Y28.158203 I1.519286 J0.220089
G03 X7.312670 Y27.281675 I2.596054 J1.190384
G03 X8.072266 Y26.837891 I1.315358 J1.379446
G03 X9.025172 Y26.733515 I0.752610 J2.469012
G03 X9.884766 Y26.978516 I-0.174579 J2.242976
G03 X10.473039 Y27.409601 I-1.087485 J2.100953
G03 X10.890625 Y27.988281 I-1.600806 J1.595179
G03 X11.160835 Y28.891478 I-2.406593 J1.211999
G03 X11.128906 Y30.052734 I-4.067474 J0.469233
G03 X10.869164 Y30.904650 I-3.489602 J-0.598398
G03 X10.490234 Y31.472656 I-1.881793 J-0.844987
G03 X9.802731 Y31.936029 I-1.364710 J-1.283103
G03 X8.826172 Y32.119141 I-0.978731 J-2.524087
G01 X8.826172 Y32.119141 
M300 S50

(End cutting path id: path231)


(Start cutting path id: path231)
(Change tool to Default tool)

M300 S50
G00 X7.998047 Y31.777344

M300 S30
G02 X8.860689 Y31.943026 I0.829802 J-1.991897 F400.000000
G02 X9.720703 Y31.750000 I-0.032858 J-2.158782
G02 X10.385373 Y31.244325 I-0.777364 J-1.711450
G02 X10.818359 Y30.437500 I-1.734824 J-1.450595
G02 X10.961293 Y29.454101 I-3.311464 J-0.983399
G02 X10.818359 Y28.470703 I-3.454386 J0.000000
G02 X10.385373 Y27.663878 I-2.167808 J0.643769
G02 X9.720703 Y27.158203 I-1.442035 J1.205776
G02 X8.842296 Y26.961263 I-0.910929 J2.005549
G02 X7.980469 Y27.132813 I-0.030937 J2.095161
G02 X7.098712 Y27.936291 I0.727264 J1.683688
G02 X6.710938 Y29.453126 I2.772770 J1.516835
G02 X7.104574 Y30.977640 I3.148960 J-0.000000
G02 X7.998047 Y31.777345 I1.594044 J-0.881981
G01 X7.998047 Y31.777344 
M300 S50

(End cutting path id: path231)


(Start cutting path id: path231)
(Change tool to Default tool)

M300 S50
G00 X3.916016 Y33.724609

M300 S30
G03 X3.128708 Y33.656301 I-0.021485 J-4.323724 F400.000000
G03 X2.628906 Y33.492188 I0.335743 J-1.865609
G03 X1.557530 Y32.347110 I0.975467 J-1.986430
G03 X1.146484 Y29.882812 I5.185011 J-2.131291
G03 X1.358849 Y28.612564 I6.063313 J0.360813
G03 X1.720703 Y27.820312 I2.690108 J0.749918
G03 X2.228697 Y27.278600 I1.848500 J1.224397
G03 X2.941406 Y26.892578 I1.609202 J2.120115
G03 X4.784089 Y26.747761 I1.188044 J3.321167
G03 X5.689453 Y27.412109 I-0.241391 J1.278047
G03 X5.740457 Y27.598143 I-0.383085 J0.205036
G03 X5.759765 Y29.007812 I-23.438138 J1.026003
G01 X5.736328 Y30.427734 
G01 X4.656250 Y30.451172 
G01 X3.578125 Y30.474609 
G01 X3.578125 Y29.837891 
G01 X3.578125 Y29.199219 
G01 X4.000000 Y29.199219 
G01 X4.423828 Y29.199219 
G01 X4.423828 Y28.650391 
G02 X4.340497 Y28.166602 I-1.446020 J0.000000
G02 X4.210938 Y28.048828 I-0.174686 J0.062018
G02 X3.432906 Y28.186102 I-0.235543 J0.938477
G02 X2.802734 Y29.001953 I0.924498 J1.365392
G02 X2.590753 Y30.295675 I3.502887 J1.238190
G02 X2.841797 Y31.589844 I3.750347 J-0.056063
G02 X3.786628 Y32.400376 I1.225845 J-0.473001
G02 X5.050781 Y32.074219 I0.309466 J-1.413486
G03 X5.344791 Y31.849725 I1.785230 J2.033263
G03 X5.429688 Y31.824219 I0.084897 J0.128536
G03 X5.480066 Y31.868532 I0.000000 J0.050794
G03 X5.525391 Y32.576172 I-5.501435 J0.707640
G01 X5.525391 Y33.330078 
G01 X5.123047 Y33.525391 
G03 X4.706024 Y33.658094 I-0.662731 J-1.361038
G03 X3.916016 Y33.724609 I-0.814926 J-4.954212
G01 X3.916016 Y33.724609 
M300 S50

(End cutting path id: path231)


(Start cutting path id: path231)
(Change tool to Default tool)

M300 S50
G00 X3.066406 Y33.421875

M300 S30
G02 X4.054672 Y33.549832 I0.884773 J-2.953109 F400.000000
G02 X4.886719 Y33.359375 I-0.075297 J-2.241658
G01 X5.271484 Y33.189453 
G01 X5.271484 Y32.712891 
G01 X5.271484 Y32.236328 
G01 X4.996094 Y32.431641 
G03 X4.699424 Y32.560837 I-0.453132 J-0.635295
G03 X4.027344 Y32.628906 I-0.672080 J-3.283867
G03 X3.370831 Y32.534312 I0.000000 J-2.325505
G03 X3.027344 Y32.333984 I0.234417 J-0.796577
G03 X2.655144 Y31.704135 I0.963915 J-0.994508
G03 X2.462891 Y30.269531 I5.256408 J-1.434604
G03 X2.746617 Y28.547215 I5.369394 J-0.000000
G03 X3.242187 Y27.970703 I0.962207 J0.325862
G03 X4.098607 Y27.754361 I0.890562 J1.722113
G03 X4.576172 Y27.947263 I0.011605 J0.658871
G03 X4.635090 Y28.066495 I-0.146654 J0.146642
G03 X4.677734 Y28.708981 I-4.818599 J0.642486
G01 X4.677734 Y29.369141 
G01 X4.212891 Y29.369141 
G01 X3.746094 Y29.369141 
G01 X3.746094 Y29.833984 
G01 X3.746094 Y30.300781 
G01 X4.636719 Y30.300781 
G01 X5.529297 Y30.300781 
G01 X5.505860 Y28.886719 
G01 X5.482423 Y27.474609 
G01 X5.097657 Y27.275391 
G02 X3.958827 Y26.976968 I-1.240494 J2.411732
G02 X2.814453 Y27.189453 I-0.099484 J2.652058
G02 X2.244816 Y27.595178 I0.647584 J1.511954
G02 X1.679688 Y28.437500 I2.567227 J2.333136
G02 X1.507288 Y29.008028 I1.791640 J0.852701
G02 X1.417969 Y30.257812 I8.699034 J1.249784
G02 X1.502820 Y31.509988 I9.281756 J0.000001
G02 X1.664062 Y32.062500 I1.925607 J-0.262175
G02 X2.316585 Y32.982316 I2.791561 J-1.288991
G02 X3.066406 Y33.421875 I1.276412 J-1.318044
G01 X3.066406 Y33.421875 
M300 S50

(End cutting path id: path231)


(Start cutting path id: path231)
(Change tool to Default tool)

M300 S50
G00 X2.646484 Y23.277344

M300 S30
G01 X2.646484 Y16.628906 F400.000000
G01 X2.646484 Y9.980469 
G01 X3.832031 Y9.980469 
G01 X5.017578 Y9.980469 
G01 X5.021488 Y14.912109 
G01 X5.027348 Y19.843750 
G01 X5.580082 Y17.599609 
G03 X6.133034 Y15.357109 I8347.093240 J2057.023012
G03 X6.212895 Y15.037109 I59.771422 J14.746855
G01 X6.294926 Y14.716797 
G01 X7.410160 Y14.740237 
G01 X8.527348 Y14.763677 
G01 X9.136723 Y17.261724 
G01 X9.748051 Y19.759771 
G01 X9.751961 Y14.869146 
G01 X9.757821 Y9.980474 
G01 X10.943367 Y9.980474 
G01 X12.128914 Y9.980474 
G01 X12.128914 Y16.626958 
G01 X12.128914 Y23.273443 
G01 X10.517586 Y23.273443 
G03 X8.968876 Y23.185041 I0.000000 J-13.610131
G03 X8.837899 Y23.082036 I0.018068 J-0.157750
G03 X8.775978 Y22.889051 I2.293608 J-0.842358
G03 X8.103524 Y20.416021 I352.657222 J-97.220663
G02 X7.422374 Y17.961824 I-140.845718 J37.769408
G01 X7.392578 Y17.939453 
G01 X7.362690 Y17.961993 
G02 X6.625000 Y20.585938 I154.516160 J44.856013
G01 X5.906250 Y23.230469 
G01 X4.275391 Y23.253906 
G01 X2.646484 Y23.277344 
M300 S50

(End cutting path id: path231)


(Start cutting path id: path231)
(Change tool to Default tool)

M300 S50
G00 X2.814453 Y23.107422

M300 S30
G01 X4.269531 Y23.083982 F400.000000
G01 X5.722656 Y23.060542 
G01 X6.490234 Y20.205073 
G03 X7.307638 Y17.408697 I65.719988 J17.692834
G03 X7.390625 Y17.347651 I0.083288 J0.026293
G03 X7.473447 Y17.408258 I0.000268 J0.086527
G03 X8.287109 Y20.203120 I-66.360237 J20.835188
G01 X9.054688 Y23.060542 
G01 X10.505859 Y23.083982 
G01 X11.958984 Y23.107422 
G01 X11.958984 Y16.628906 
G01 X11.958984 Y10.150391 
G01 X10.943359 Y10.150391 
G01 X9.927734 Y10.150391 
G01 X9.927734 Y15.398438 
G03 X9.873792 Y20.594145 I-250.250302 J-0.000000
G03 X9.818359 Y20.648438 I-0.055432 J-0.001151
G03 X9.749615 Y20.596427 I0.000000 J-0.071436
G03 X9.083984 Y18.044922 I62.824587 J-17.752109
G02 X8.457864 Y15.442231 I-1197.407171 J286.679643
G02 X8.386719 Y15.166016 I-9.289542 J2.245440
G01 X8.310547 Y14.890625 
G01 X7.400391 Y14.890625 
G01 X6.488281 Y14.890625 
G01 X5.785156 Y17.769531 
G03 X5.038918 Y20.592513 I-74.708882 J-18.238727
G03 X4.964844 Y20.648438 I-0.074074 J-0.021093
G03 X4.905192 Y20.590094 I0.000000 J-0.059667
G03 X4.847656 Y15.398438 I234.202297 J-5.191656
G01 X4.847656 Y10.150391 
G01 X3.832031 Y10.150391 
G01 X2.814453 Y10.150391 
G01 X2.814453 Y16.628906 
G01 X2.814453 Y23.107422 
M300 S50

(End cutting path id: path231)


(Start cutting path id: path231)
(Change tool to Default tool)

M300 S50
G00 X19.511719 Y31.062500

M300 S30
G03 X18.888292 Y30.707349 I0.000000 J-0.724754 F400.000000
G03 X18.533203 Y29.412109 I2.184748 J-1.295240
G03 X18.684075 Y28.343057 I3.862995 J-0.000000
G03 X18.960938 Y27.931641 I0.776351 J0.223581
G03 X19.464374 Y27.735520 I0.574380 J0.730199
G03 X20.015625 Y27.851561 I0.076786 J1.002601
G03 X20.155212 Y27.972369 I-0.197871 J0.369677
G03 X20.345703 Y28.296874 I-1.449974 J1.069326
G03 X20.587026 Y29.412109 I-2.456275 J1.115235
G03 X20.345703 Y30.527343 I-2.697596 J-0.000000
G03 X20.008717 Y30.916788 I-0.827988 J-0.375937
G03 X19.511719 Y31.062500 I-0.496998 J-0.774729
G01 X19.511719 Y31.062500 
M300 S50

(End cutting path id: path231)


(Start cutting path id: path231)
(Change tool to Default tool)

M300 S50
G00 X19.785156 Y30.812500

M300 S30
G02 X20.519450 Y29.664158 I-0.658168 J-1.229798 F400.000000
G02 X19.941406 Y28.144531 I-1.981742 J-0.115927
G02 X19.203730 Y28.186350 I-0.350172 J0.350172
G02 X18.753906 Y29.636719 I1.637028 J1.302655
G02 X19.199961 Y30.706099 I1.812455 J-0.128285
G02 X19.785156 Y30.812500 I0.359576 J-0.315172
G01 X19.785156 Y30.812500 
M300 S50

(End cutting path id: path231)


(Footer)
M5
G00 X0.0000 Y0.0000
M2
(Using default footer. To add your own footer create file "footer" in the output dir.)
(end)
%
