%
(Header)
(Generated by gcodetools from Inkscape.)
(Using default header. To add your own header create file "header" in the output dir.)
M3
(Header end.)
G21 (All units in mm)

(Start cutting path id: path14177)
(Change tool to Default tool)

M300 S50
G00 X20.128906 Y37.050781

M300 S30
G01 X19.884766 Y36.917969 F400.000000
G03 X19.642704 Y36.782365 I4.645325 J-8.576048
G03 X19.480469 Y36.683594 I2.162628 J-3.734827
G02 X19.319941 Y36.584612 I-3.097442 J4.843723
G01 X19.310547 Y36.582031 G01 X19.301041 Y36.579461 G03 X18.876953 Y36.330078 I34.637768 J-59.388351
G02 X18.454622 Y36.080589 I-79.306707 J133.766939
G02 X17.513672 Y35.527344 I-571.009102 J970.085311
G03 X15.740843 Y34.485096 I1190.408748 J-2026.875651
G03 X14.220703 Y33.589844 I1377.515000 J-2340.759873
G02 X13.116575 Y32.939587 I-1013.677991 J1719.950022
G02 X12.697266 Y32.693359 I-129.955006 J220.824196
G03 X12.282057 Y32.439531 I6.583849 J-11.236295
G03 X12.109375 Y32.318359 I1.274889 J-2.000473
G01 X11.943359 Y32.191406 G01 X11.921879 Y31.935547 G03 X11.911238 Y31.679705 I3.268604 J-0.264096
G03 X11.910159 Y27.138672 I995.994691 J-2.507072
G01 X11.919959 Y22.597656 G01 X11.953159 Y22.597656 G02 X11.984603 Y22.589342 I-0.000003 J-0.063632
G02 X13.291050 Y21.835938 I-60.384002 J-106.218848
G02 X14.594873 Y21.073200 I-8083.363134 J-13819.513104
G03 X16.220737 Y20.123047 I958.207633 J1637.784629
G02 X18.140034 Y19.002592 I-14796.827850 J-25348.623039
G02 X18.775425 Y18.628906 I-58.254566 J-99.779204
G03 X19.780322 Y18.037151 I112.931955 J190.627888
G03 X19.959018 Y17.937500 I2.477369 J4.232413
G03 X20.038036 Y17.906984 I0.166902 J0.314606
G03 X20.121128 Y17.896480 I0.083818 J0.329156
G01 X20.207068 Y17.896480 G01 X20.972693 Y18.335934 G03 X21.737088 Y18.778276 I-82.487605 J143.425324
G03 X22.330115 Y19.124996 I-96.137116 J165.112806
G02 X22.923339 Y19.472608 I212.287108 J-361.602890
G02 X23.318396 Y19.703121 I112.528071 J-192.398527
G01 X24.214881 Y20.224605 G03 X24.716285 Y20.517440 I-108.955918 J187.134843
G03 X25.476599 Y20.962887 I-6643.878167 J11340.996866
G03 X26.236289 Y21.408071 I-3342.810034 J5707.482023
G02 X26.919959 Y21.808590 I1035.746467 J-1767.431282
G03 X27.603951 Y22.209529 I-451.048252 J770.260670
G03 X27.960975 Y22.419918 I-56.165909 J95.720132
G01 X28.316443 Y22.630855 G01 X28.355503 Y22.699215 G01 X28.394563 Y22.767575 G01 X28.396563 Y26.177731 G03 X28.393379 Y29.589585 I-1306.005613 J0.487270
G03 X28.386763 Y30.951169 I-259.857366 J-0.581911
G01 X28.376953 Y32.312500 G01 X28.324219 Y32.332031 G02 X28.274053 Y32.355319 I0.132672 J0.351477
G02 X28.089844 Y32.462891 I2.562496 J4.599607
G03 X27.906381 Y32.571950 I-4.458943 J-7.292156
G03 X27.240234 Y32.953125 I-46.747215 J-80.923350
G02 X25.966805 Y33.679522 I130.906426 J230.968384
G02 X22.832031 Y35.484375 I721.197989 J1256.243311
G02 X21.342517 Y36.345344 I948.858927 J1643.285770
G03 X21.236328 Y36.406250 I-8.061709 J-13.932525
G02 X21.130153 Y36.467018 I10.475659 J18.426622
G02 X20.628906 Y36.757812 I48.559046 J84.279179
G01 X20.128906 Y37.050781 M300 S50

(End cutting path id: path14177)


(Start cutting path id: path14177)
(Change tool to Default tool)

M300 S50
G00 X28.388672 Y22.505859

M300 S30
G03 X28.334389 Y22.491413 I0.000000 J-0.109214 F400.000000
G03 X26.525391 Y21.439453 I79.556939 J-138.891049
G02 X25.901891 Y21.072073 I-231.562722 J392.283920
G02 X25.203125 Y20.662109 I-189.565782 J322.306688
G03 X24.504041 Y20.252655 I598.765320 J-1023.108853
G03 X24.062500 Y19.992188 I46.555291 J-79.424354
G02 X23.622163 Y19.731736 I-80.912959 J136.294343
G02 X23.349609 Y19.572266 I-25.602679 J43.445442
G03 X21.599137 Y18.547748 I154.930062 J-266.718365
G03 X21.449219 Y18.451172 I1.147820 J-1.946437
G02 X21.371258 Y18.400661 I-0.723119 J1.030666
G02 X21.193359 Y18.298828 I-2.900024 J4.859962
G03 X20.556637 Y17.921378 I5.337888 J-9.730266
G03 X20.314453 Y17.738281 I1.037096 J-1.623498
G01 X20.187500 Y17.626953 G01 X20.187500 Y12.859375 G01 X20.187500 Y8.091797 G01 X20.214840 Y8.091797 G02 X20.261660 Y8.079194 I-0.000075 J-0.093545
G02 X22.072262 Y7.015625 I-87.680059 J-151.338052
G03 X22.316056 Y6.872218 I13.450669 J22.587463
G03 X23.044918 Y6.449219 I432.387831 J744.199649
G02 X25.018851 Y5.299320 I-270.125705 J-465.970759
G02 X27.041012 Y4.111328 I-379.074224 J-647.562815
G03 X27.940484 Y3.585588 I69.826730 J118.431959
G03 X28.146480 Y3.470703 I3.601741 J6.216043
G03 X28.415908 Y3.459425 I0.146373 J0.272891
G03 X30.158199 Y4.341797 I-6.456715 J14.910443
G01 X31.478512 Y5.113281 G03 X32.342152 Y5.618267 I-1236.732473 J2116.122729
G02 X34.470699 Y6.863281 I10642.473251 J-18193.661470
G01 X36.601558 Y8.109375 G01 X36.636718 Y8.216797 G01 X36.673828 Y8.322266 G01 X36.671828 Y12.902344 G03 X36.662619 Y17.481263 I-1268.614885 J-0.261932
G03 X36.652298 Y17.634766 I-1.215669 J-0.004639
G01 X36.630818 Y17.787109 G01 X36.570268 Y17.818359 G02 X36.510223 Y17.851808 I0.706139 J1.338222
G02 X36.220659 Y18.023438 I20.881707 J35.560476
G03 X35.930800 Y18.194070 I-12.196704 J-20.387534
G03 X35.415972 Y18.488281 I-25.674541 J-44.329244
G02 X34.900183 Y18.781010 I51.706194 J91.707064
G02 X33.683550 Y19.478516 I226.194915 J395.953155
G03 X32.467695 Y20.177027 I-546.585555 J-950.000276
G03 X32.240190 Y20.306641 I-21.980319 J-38.316505
G02 X32.012638 Y20.436626 I15.733947 J27.808099
G02 X30.222612 Y21.470703 I684.712457 J1187.329001
G03 X28.431160 Y22.494683 I-96.810500 J-167.290872
G03 X28.388628 Y22.505859 I-0.042532 J-0.075340
G01 X28.388672 Y22.505859 M300 S50

(End cutting path id: path14177)


(Start cutting path id: path14177)
(Change tool to Default tool)

M300 S50
G00 X11.867188 Y22.505859

M300 S30
G03 X11.825122 Y22.494823 I0.000000 J-0.085693 F400.000000
G03 X10.062500 Y21.488281 I86.728980 J-153.923336
G02 X6.875106 Y19.649045 I-741.688061 J1281.663009
G02 X4.869141 Y18.501953 I-216.387251 J376.077546
G03 X3.897819 Y17.947901 I174.248438 J-306.607500
G03 X3.820312 Y17.900391 I0.754271 J-1.317473
G02 X3.743527 Y17.851641 I-1.757584 J2.683489
G02 X3.683594 Y17.816411 I-0.906747 J1.473972
G01 X3.623047 Y17.781251 G01 X3.599610 Y15.972657 G03 X3.585279 Y14.162787 I198.638205 J-2.477787
G03 X3.583985 Y11.197267 I506.810932 J-1.704018
G01 X3.591795 Y8.230470 G01 X3.617186 Y8.179690 G03 X3.665347 Y8.126545 I0.116458 J0.057142
G03 X4.974608 Y7.339846 I29.992877 J48.432719
G03 X5.962211 Y6.764605 I1255.438648 J2154.267518
G02 X6.236326 Y6.603518 I-19.486964 J-33.473882
G03 X6.569709 Y6.407237 I29.888914 J50.384894
G03 X9.261717 Y4.835940 I1675.606355 J2867.624059
G03 X11.410897 Y3.586667 I470.464276 J806.887466
G03 X11.646482 Y3.455080 I4.275746 J7.378339
G01 X11.830076 Y3.357420 G01 X11.906246 Y3.371090 G03 X11.989821 Y3.401657 I-0.049996 J0.266231
G03 X13.378902 Y4.205074 I-45.292726 J79.912174
G02 X14.047969 Y4.599719 I1027.982176 J-1742.036090
G02 X14.214840 Y4.697262 I13.069481 J-22.167208
G03 X14.382024 Y4.794383 I-43.849995 J75.675801
G03 X15.082027 Y5.203121 I-181.387951 J311.448052
G03 X15.780667 Y5.612353 I-840.224078 J1435.227866
G02 X16.554684 Y6.064449 I152.740241 J-260.612279
G03 X17.329702 Y6.516167 I-405.605910 J696.793167
G03 X18.607418 Y7.263668 I-348.859850 J597.778004
G02 X19.884695 Y8.009265 I184.185976 J-314.060812
G02 X19.974605 Y8.058590 I1.048252 J-1.804159
G01 X20.066405 Y8.107420 G01 X20.066405 Y12.861326 G01 X20.066405 Y17.615232 G01 X19.976565 Y17.710932 G03 X19.836572 Y17.828185 I-0.576568 J-0.546191
G03 X19.169925 Y18.242182 I-8.208137 J-12.473568
G02 X18.372043 Y18.711069 I126.256721 J215.758119
G02 X17.179691 Y19.416010 I447.487628 J758.250974
G03 X16.753533 Y19.667803 I-118.741460 J-200.471654
G02 X16.373050 Y19.892572 I113.388662 J192.364571
G03 X15.993227 Y20.117182 I-207.235295 J-350.008331
G03 X15.857425 Y20.195306 I-3.478642 J-5.889789
G02 X15.721351 Y20.272941 I4.865074 J8.685322
G02 X15.294925 Y20.523432 I25.989882 J44.732294
G03 X14.868017 Y20.775149 I-40.404637 J-68.037691
G03 X14.472659 Y21.005853 I-82.302693 J-140.588329
G02 X14.078058 Y21.236815 I42.167562 J72.496503
G02 X13.439456 Y21.613275 I470.586372 J799.000212
G03 X12.270673 Y22.300462 I-221.270860 J-375.005098
G03 X12.083987 Y22.408197 I-8.318587 J-14.198997
G03 X11.909986 Y22.496652 I-1.036142 J-1.822849
G03 X11.867191 Y22.505857 I-0.042795 J-0.094873
G01 X11.867188 Y22.505859 M300 S50

(End cutting path id: path14177)


(Footer)
M5
G00 X0.0000 Y0.0000
M2
(Using default footer. To add your own footer create file "footer" in the output dir.)
(end)
%
