%
(Header)
(Generated by gcodetools from Inkscape.)
(Using default header. To add your own header create file "header" in the output dir.)
M3
(Header end.)
G21 (All units in mm)

(Start cutting path id: path189)
(Change tool to Default tool)

M300 S50
G00 X89.935547 Y131.843109

M300 S30
G03 X89.837907 Y131.776658   I-0.037061 J-0.050503 F400.000000
G03 X90.048828 Y131.261078   I2.063476 J0.543225
G03 X98.149142 Y122.647848   I21.998692 J12.573088
G03 X116.005860 Y114.233734   I38.729970 J59.038935
G02 X120.104341 Y112.963987   I-1925.246669 J-6221.547717
G02 X120.353520 Y112.884125   I-4.125013 J-13.299191
G03 X120.793098 Y112.868322   I0.246895 J0.746101
G03 X120.849610 Y113.009125   I-0.023008 J0.090976
G03 X120.663692 Y113.194672   I-0.494881 J-0.309952
G03 X120.458980 Y113.253266   I-0.204712 J-0.328307
G02 X120.227833 Y113.290575   I0.000000 J0.734684
G02 X115.941410 Y114.749359   I89.322355 J269.487590
G02 X104.072620 Y120.455790   I19.397854 J55.541686
G02 X92.554688 Y129.423188   I38.392021 J61.192244
G03 X90.393577 Y131.463647   I-169.815022 J-177.691495
G03 X89.935547 Y131.843109   I-3.452839 J-3.701586
G01 X89.935547 Y131.843109  
M300 S50

(End cutting path id: path189)


(Start cutting path id: path189)
(Change tool to Default tool)

M300 S50
G00 X88.123047 Y128.165375

M300 S30
G03 X88.171372 Y128.013761   I0.191615 J-0.022433 F400.000000
G03 X90.408203 Y125.661469   I45.348642 J40.883059
G03 X93.252187 Y122.923652   I79.258496 J79.485921
G03 X93.353516 Y122.925141   I0.049886 J0.053679
G03 X93.367339 Y123.279108   I-0.181833 J0.184355
G03 X90.476562 Y126.243500   I-26.705972 J-23.151096
G03 X88.197817 Y128.195969   I-32.694370 J-35.851902
G01 X88.123047 Y128.165375  
G01 X88.123047 Y128.165375  
M300 S50

(End cutting path id: path189)


(Start cutting path id: path189)
(Change tool to Default tool)

M300 S50
G00 X93.164062 Y127.913422

M300 S30
G01 X93.171724 Y127.920313   F400.000000
G02 X94.341797 Y126.876312   I-146.495805 J-165.363987
G03 X96.179999 Y125.282691   I45.647216 J50.795933
G03 X98.068359 Y123.759125   I44.340809 J53.025508
G02 X99.976477 Y122.258375   I-145.434116 J-186.874655
G02 X100.220700 Y122.048188   I-2.567636 J-3.230388
G02 X100.364219 Y121.866932   I-0.516268 J-0.556229
G01 X100.343750 Y121.833344  
G02 X99.528350 Y122.142084   I0.056153 J1.379433
G02 X94.611328 Y126.499359   I49.517539 J60.831667
G02 X93.225335 Y127.841984   I268.031924 J278.076313
G02 X93.164062 Y127.913422   I0.365871 J0.375806
G01 X93.164062 Y127.913422  
M300 S50

(End cutting path id: path189)


(Start cutting path id: path189)
(Change tool to Default tool)

M300 S50
G00 X94.828125 Y114.624360

M300 S30
G03 X93.878050 Y114.460041   I0.379740 J-5.024402 F400.000000
G03 X93.125000 Y114.198579   I1.568864 J-5.733736
G03 X92.047967 Y113.659979   I3.769727 J-8.884455
G01 X92.047136 Y113.590815  
G03 X92.182344 Y113.567811   I0.096265 J0.156956
G03 X93.558594 Y113.932954   I-3.258572 J15.057959
G02 X95.041039 Y114.199821   I1.782421 J-5.650420
G02 X98.867188 Y114.202485   I1.939717 J-38.262682
G02 X102.697967 Y113.886244   I-2.858926 J-57.991656
G02 X104.580080 Y113.538423   I-1.640350 J-14.142306
G03 X106.450584 Y113.113428   I8.923878 J34.947369
G03 X107.064450 Y113.044282   I0.714362 J3.582493
G01 X107.685550 Y113.028652  
G01 X106.986330 Y113.401699  
G03 X104.899534 Y114.088483   I-3.007891 J-5.625725
G03 X98.660156 Y114.616543   I-7.481298 J-51.271297
G03 X95.874078 Y114.660032   I-3.993465 J-166.571248
G03 X94.828125 Y114.624343   I-0.091719 J-12.656834
G01 X94.828125 Y114.624360  
M300 S50

(End cutting path id: path189)


(Start cutting path id: path189)
(Change tool to Default tool)

M300 S50
G00 X97.433594 Y108.782562

M300 S30
G03 X94.823381 Y108.667296   I-1.152812 J-3.506342 F400.000000
G03 X93.898438 Y107.263031   I0.603518 J-1.404265
G03 X94.067956 Y107.135834   I0.132480 J0.000000
G03 X96.097656 Y107.903656   I-3.878029 J13.318001
G03 X97.449675 Y108.661593   I-4.653825 J9.886406
G03 X97.433594 Y108.782562   I-0.037241 J0.056603
G01 X97.433594 Y108.782562  
M300 S50

(End cutting path id: path189)


(Start cutting path id: path189)
(Change tool to Default tool)

M300 S50
G00 X101.947270 Y109.806000

M300 S30
G03 X100.424163 Y109.561159   I-0.137805 J-4.002632 F400.000000
G03 X97.349609 Y108.112641   I6.757250 J-18.329821
G03 X96.692599 Y107.590675   I1.471561 J-2.526764
G03 X96.753906 Y107.479828   I0.048415 J-0.045600
G02 X101.097887 Y108.204228   I14.310674 J-72.429331
G02 X103.107420 Y108.345062   I2.079264 J-15.261424
G02 X106.928612 Y108.060694   I0.110349 J-24.332950
G02 X110.923830 Y107.139984   I-4.262998 J-27.626893
G03 X112.454968 Y106.721708   I7.058521 J22.826767
G03 X112.739740 Y106.690611   I0.266441 J1.120498
G01 X112.751255 Y106.740628  
G03 X111.783200 Y107.153654   I-3.646991 J-7.206875
G03 X107.381815 Y108.309514   I-9.297063 J-26.444252
G03 X103.048830 Y108.702482   I-4.469556 J-25.197789
G02 X99.731529 Y108.750817   I0.964818 J180.078385
G01 X99.718750 Y108.782562  
G02 X99.791101 Y108.829533   I0.144502 J-0.143373
G02 X101.125000 Y109.315766   I19.702573 J-51.977948
G03 X101.971485 Y109.711995   I-1.531017 J4.373101
G03 X101.947270 Y109.806000   I-0.025965 J0.043433
G01 X101.947270 Y109.806000  
M300 S50

(End cutting path id: path189)


(Start cutting path id: path189)
(Change tool to Default tool)

M300 S50
G00 X102.468750 Y106.329438

M300 S30
G03 X100.853871 Y106.234537   I0.078708 J-15.126505 F400.000000
G01 X100.853520 Y106.147797  
G03 X106.022320 Y105.836550   I5.168800 J42.762846
G03 X106.070310 Y106.147797   I0.000000 J0.159323
G03 X105.436902 Y106.261949   I-0.761390 J-2.410398
G03 X102.468750 Y106.329438   I-2.692475 J-53.111544
G01 X102.468750 Y106.329438  
M300 S50

(End cutting path id: path189)


(Start cutting path id: path189)
(Change tool to Default tool)

M300 S50
G00 X101.722660 Y100.477875

M300 S30
G01 X100.480470 Y100.151703   F400.000000
G02 X99.231374 Y99.877048   I-3.985112 J15.146086
G02 X98.617188 Y99.821625   I-0.630024 J3.550943
G01 X97.996094 Y99.819625  
G01 X98.623047 Y100.007125  
G02 X99.256682 Y100.157842   I1.619525 J-5.401396
G02 X100.486330 Y100.337203   I3.516538 J-19.803665
G01 X101.722660 Y100.477875  
M300 S50

(End cutting path id: path189)


(Start cutting path id: path189)
(Change tool to Default tool)

M300 S50
G00 X102.181640 Y98.763031

M300 S30
G02 X104.064908 Y98.520711   I-0.804483 J-13.691675 F400.000000
G02 X105.533200 Y98.063812   I-1.445369 J-7.232545
G02 X108.695797 Y96.228852   I-6.051651 J-14.073045
G02 X110.029300 Y94.679047   I-2.883242 J-3.829434
G02 X110.658552 Y92.324028   I-4.614123 J-2.494452
G02 X110.199220 Y88.304047   I-14.456303 J-0.384424
G02 X108.993521 Y85.114480   I-15.410842 J4.002835
G02 X107.714840 Y83.395844   I-5.616636 J2.843836
G02 X106.881704 Y82.740683   I-3.898445 J4.100153
G02 X105.449220 Y81.936859   I-7.273202 J11.283156
G02 X104.197116 Y81.500280   I-2.521809 J5.218725
G02 X104.144530 Y81.643891   I-0.016894 J0.075247
G03 X107.498230 Y84.648190   I-4.222353 J8.087433
G03 X109.542970 Y89.688812   I-11.063291 J7.422887
G03 X108.647063 Y94.988386   I-7.769568 J1.412049
G03 X104.855470 Y97.977875   I-5.548567 J-3.138094
G03 X101.243623 Y97.960503   I-1.776171 J-6.194522
G03 X97.126953 Y95.681000   I3.115253 J-10.482998
G02 X95.954277 Y94.806757   I-5.910650 J6.704706
G02 X95.755859 Y94.823578   I-0.087990 J0.140750
G01 X95.713777 Y94.809277  
G03 X95.732419 Y94.700531   I0.154806 J-0.029434
G02 X95.777845 Y94.404700   I-0.353031 J-0.205613
G02 X95.539059 Y93.843109   I-1.667994 J0.377664
G03 X95.224582 Y93.163773   I2.124811 J-1.396072
G03 X94.535153 Y90.429047   I34.850805 J-10.240208
G02 X94.266347 Y89.989102   I-0.755613 J0.159587
G02 X93.892575 Y89.907562   I-0.267705 J0.329694
G02 X93.667437 Y90.248791   I0.076118 J0.295108
G02 X94.292966 Y92.514984   I9.919726 J-1.518679
G02 X96.217930 Y96.349240   I25.317093 J-10.309953
G02 X97.332028 Y97.542328   I3.392857 J-2.051514
G02 X98.052380 Y97.978199   I3.553757 J-5.060011
G02 X99.076169 Y98.442719   I5.147466 J-9.984404
G02 X100.281662 Y98.730554   I1.613002 J-4.087180
G02 X102.181637 Y98.763031   I1.163850 J-12.495077
G01 X102.181640 Y98.763031  
M300 S50

(End cutting path id: path189)


(Start cutting path id: path189)
(Change tool to Default tool)

M300 S50
G00 X100.853520 Y98.528659

M300 S30
G03 X98.303068 Y97.805700   I-0.096988 J-4.518066 F400.000000
G03 X96.009766 Y95.395847   I3.857727 J-5.967270
G01 X96.063604 Y95.343374  
G03 X97.136719 Y96.087253   I-6.090313 J9.931821
G02 X99.410606 Y97.602687   I11.309503 J-14.506063
G02 X101.101560 Y98.323581   I4.093777 J-7.258879
G03 X101.122737 Y98.428525   I-0.017508 J0.058142
G03 X100.853520 Y98.528659   I-0.278598 J-0.337060
G01 X100.853520 Y98.528659  
M300 S50

(End cutting path id: path189)


(Start cutting path id: path189)
(Change tool to Default tool)

M300 S50
G00 X101.847660 Y97.348968

M300 S30
G02 X104.576654 Y97.267060   I1.218766 J-4.896373 F400.000000
G02 X107.113280 Y95.696624   I-1.801933 J-5.744394
G02 X108.315924 Y93.876487   I-4.338902 J-4.174290
G02 X108.980470 Y91.305999   I-8.245533 J-3.502857
G02 X109.037009 Y90.085134   I-10.487400 J-1.097420
G02 X108.990034 Y90.007209   I-0.089865 J0.001052
G01 X108.932941 Y90.031716  
G02 X108.707030 Y91.157561   I8.625136 J2.316300
G03 X106.463346 Y95.275836   I-6.507940 J-0.875270
G03 X101.740230 Y97.106780   I-4.974760 J-5.825562
G01 X100.978520 Y97.132170  
G01 X101.847660 Y97.348968  
M300 S50

(End cutting path id: path189)


(Start cutting path id: path189)
(Change tool to Default tool)

M300 S50
G00 X101.722660 Y96.124264

M300 S30
G01 X100.728520 Y95.755124   F400.000000
G03 X99.065452 Y94.626553   I1.461331 J-3.943064
G03 X97.601562 Y92.282467   I5.896128 J-5.311297
G03 X97.200433 Y90.799743   I5.999137 J-2.418599
G03 X97.011719 Y88.262936   I17.755116 J-2.596233
G03 X97.235872 Y85.752963   I13.694937 J-0.041968
G03 X97.697266 Y84.524655   I3.642058 J0.667268
G03 X100.274058 Y82.681674   I3.394299 J2.022910
G03 X104.484380 Y83.089108   I1.457775 J6.893640
G02 X104.573269 Y82.942426   I0.033849 J-0.079762
G02 X103.460940 Y82.247311   I-3.219561 J3.914434
G02 X102.198091 Y81.749209   I-5.318407 J11.633957
G02 X101.349610 Y81.540280   I-1.708386 J5.110575
G02 X99.899273 Y81.687778   I-0.449743 J2.781998
G02 X99.744141 Y82.149655   I0.111878 J0.294568
G03 X99.717237 Y82.238080   I-0.051891 J0.032517
G03 X99.535156 Y82.243405   I-0.097498 J-0.218149
G02 X98.421435 Y82.528193   I-0.354064 J0.935472
G02 X96.566406 Y85.710202   I7.792059 J6.674291
G02 X96.499565 Y86.156532   I1.074870 J0.389138
G03 X96.457031 Y86.669186   I-1.939640 J0.097162
G02 X96.270387 Y87.675604   I15.508614 J3.396644
G02 X96.132812 Y89.499264   I11.932489 J1.817195
G02 X96.345100 Y92.035631   I15.345862 J-0.007346
G02 X96.785156 Y93.376217   I4.635752 J-0.779196
G02 X98.336546 Y95.172844   I4.376935 J-2.211363
G02 X100.488280 Y95.987546   I2.657234 J-3.769242
G01 X101.722660 Y96.124264  
M300 S50

(End cutting path id: path189)


(Start cutting path id: path189)
(Change tool to Default tool)

M300 S50
G00 X102.099610 Y95.161374

M300 S30
G02 X103.447583 Y95.253943   I1.015068 J-4.920466 F400.000000
G02 X104.406250 Y95.007077   I-0.177614 J-2.674586
G02 X104.557704 Y94.760155   I-0.111539 J-0.238324
G02 X104.394550 Y94.647702   I-0.123105 J0.004025
G03 X101.895287 Y94.338008   I-0.932689 J-2.712610
G03 X98.919942 Y91.079343   I4.812523 J-7.381766
G03 X98.091494 Y87.903922   I6.314957 J-3.343313
G03 X98.773458 Y84.893796   I6.327749 J-0.148721
G02 X98.762966 Y84.643764   I-0.228206 J-0.115660
G02 X98.619161 Y84.643796   I-0.071892 J0.044372
G02 X97.660543 Y88.197496   I5.496138 J3.388739
G02 X98.826192 Y92.721921   I10.394634 J-0.265651
G02 X100.159993 Y94.290773   I4.080915 J-2.118089
G02 X102.099630 Y95.161374   I2.930624 J-3.933233
G01 X102.099610 Y95.161374  
M300 S50

(End cutting path id: path189)


(Start cutting path id: path189)
(Change tool to Default tool)

M300 S50
G00 X101.822270 Y94.870358

M300 S30
G03 X99.612767 Y93.964780   I-0.056367 J-3.010722 F400.000000
G03 X98.621094 Y91.594967   I2.489753 J-2.434258
G01 X98.683710 Y91.568938  
G03 X99.330078 Y92.329343   I-5.569066 J5.388801
G02 X100.644123 Y93.807346   I9.161595 J-6.822141
G02 X101.722660 Y94.591061   I3.560280 J-3.765613
G03 X101.884437 Y94.780340   I-0.167418 J0.306867
G03 X101.822260 Y94.870358   I-0.063443 J0.022662
G01 X101.822270 Y94.870358  
M300 S50

(End cutting path id: path189)


(Start cutting path id: path189)
(Change tool to Default tool)

M300 S50
G00 X102.343750 Y93.651608

M300 S30
G02 X104.478820 Y93.891542   I1.312396 J-2.058946 F400.000000
G02 X106.441410 Y92.184811   I-1.205099 J-3.367526
G02 X106.752291 Y91.400949   I-3.552116 J-1.862355
G02 X106.767580 Y91.016843   I-0.803560 J-0.224342
G02 X106.648079 Y90.968065   I-0.075737 J0.014777
G02 X106.384770 Y91.280514   I0.438345 J0.636578
G03 X105.021266 Y92.803097   I-3.163963 J-1.461579
G03 X102.853520 Y93.411374   I-2.185795 J-3.622834
G02 X102.351863 Y93.524636   I0.005037 J1.189908
G02 X102.343750 Y93.651608   I0.030930 J0.065722
G01 X102.343750 Y93.651608  
M300 S50

(End cutting path id: path189)


(Start cutting path id: path189)
(Change tool to Default tool)

M300 S50
G00 X102.546880 Y92.663422

M300 S30
G02 X102.626904 Y92.537462   I-0.001288 J-0.089218 F400.000000
G02 X102.380860 Y92.296234   I-0.433184 J0.195740
G02 X101.552928 Y92.050714   I-1.464283 J3.419075
G02 X101.261720 Y92.100922   I-0.075234 J0.433255
G03 X101.169253 Y92.108692   I-0.054716 J-0.097069
G01 X101.158200 Y92.063812  
G02 X101.181986 Y91.865538   I-0.126143 J-0.115697
G02 X100.582030 Y91.016938   I-4.073614 J2.243642
G03 X99.677132 Y89.526562   I3.603627 J-3.207879
G03 X99.363281 Y87.817719   I4.477034 J-1.705507
G03 X99.820349 Y85.891966   I4.299668 J0.003387
G03 X100.865230 Y84.825531   I2.187552 J1.098239
G03 X101.423690 Y84.652673   I0.739792 J1.401528
G03 X102.593750 Y84.626312   I0.727665 J6.317850
G02 X103.628236 Y84.613373   I0.438648 J-6.290476
G02 X103.671880 Y84.524750   I-0.005482 J-0.057758
G02 X103.511465 Y84.422335   I-0.188521 J0.118446
G02 X102.230470 Y84.341156   I-1.280995 J10.066418
G02 X101.012387 Y84.582662   I0.000000 J3.192577
G02 X100.136720 Y85.204438   I0.914349 J2.215209
G02 X99.350841 Y86.645305   I2.710911 J2.413338
G02 X99.185547 Y88.620453   I5.115242 J1.422569
G02 X100.003868 Y91.589513   I9.342182 J-0.977555
G02 X100.652340 Y91.786469   I0.412098 J-0.190805
G03 X100.743851 Y91.800347   I0.037485 J0.061476
G03 X100.751940 Y91.899750   I-0.062567 J0.055122
G02 X100.889545 Y92.337827   I0.255823 J0.160294
G02 X102.546870 Y92.663422   I1.598615 J-3.756378
G01 X102.546880 Y92.663422  
M300 S50

(End cutting path id: path189)


(Start cutting path id: path189)
(Change tool to Default tool)

M300 S50
G00 X102.886720 Y91.579442

M300 S30
G02 X103.796108 Y91.229409   I0.188008 J-0.867867 F400.000000
G02 X104.332030 Y89.563816   I-2.320288 J-1.665593
G02 X104.165124 Y88.997252   I-1.045059 J-0.000000
G02 X103.988280 Y89.030613   I-0.081633 J0.052668
G03 X103.704079 Y89.725640   I-1.967219 J-0.398789
G03 X102.966800 Y90.602879   I-3.928010 J-2.552867
G01 X102.101560 Y91.409520  
G01 X102.886720 Y91.579442  
M300 S50

(End cutting path id: path189)


(Start cutting path id: path189)
(Change tool to Default tool)

M300 S50
G00 X103.199220 Y91.391942

M300 S30
G03 X103.163579 Y91.232354   I0.105935 J-0.107432 F400.000000
G03 X103.503910 Y90.561863   I3.029003 J1.115856
G03 X103.884232 Y90.242381   I0.733876 J0.487515
G03 X104.042970 Y90.325535   I0.046067 J0.105149
G03 X103.792719 Y91.355468   I-1.244577 J0.242964
G03 X103.199220 Y91.391942   I-0.313100 J-0.247806
G01 X103.199220 Y91.391942  
M300 S50

(End cutting path id: path189)


(Start cutting path id: path189)
(Change tool to Default tool)

M300 S50
G00 X104.990230 Y91.663422

M300 S30
G02 X105.145283 Y91.467729   I-0.602144 J-0.636368 F400.000000
G02 X105.609380 Y90.563812   I-8.330714 J-4.848326
G02 X105.719301 Y89.905637   I-1.201861 J-0.538988
G03 X105.714840 Y89.261078   I3.839746 J-0.348872
G01 X105.664781 Y89.270062  
G03 X105.593750 Y89.139984   I0.096374 J-0.137059
G03 X105.645719 Y88.833876   I0.744199 J-0.031119
G01 X105.722660 Y88.817719  
G03 X105.747007 Y88.903619   I-0.063530 J0.064407
G02 X105.732660 Y89.052094   I0.506453 J0.123870
G02 X105.427928 Y87.274650   I-4.739356 J-0.102309
G02 X104.322510 Y85.968109   I-2.393424 J0.904092
G02 X103.931855 Y85.978356   I-0.187041 J0.321026
G02 X103.902580 Y86.243500   I0.094772 J0.144652
G03 X105.236679 Y88.654571   I-3.766872 J3.658922
G03 X105.082270 Y91.063812   I-3.918009 J0.958463
G02 X104.939771 Y91.637934   I2.220334 J0.855838
G01 X104.990470 Y91.663422  
G01 X104.990230 Y91.663422  
M300 S50

(End cutting path id: path189)


(Start cutting path id: path189)
(Change tool to Default tool)

M300 S50
G00 X104.953120 Y93.284421

M300 S30
G01 X105.425780 Y92.733639   F400.000000
G03 X105.981809 Y92.221669   I2.450615 J2.103587
G03 X106.070310 Y92.266843   I0.032722 J0.045174
G03 X106.040754 Y92.337479   I-0.099184 J-0.000000
G03 X105.511720 Y92.817624   I-6.085811 J-6.173953
G01 X104.953120 Y93.284421  
M300 S50

(End cutting path id: path189)


(Start cutting path id: path189)
(Change tool to Default tool)

M300 S50
G00 X104.455080 Y96.962202

M300 S30
G03 X104.394730 Y96.857473   I-0.013512 J-0.061966 F400.000000
G03 X104.990230 Y96.376264   I1.876853 J1.713548
G02 X106.221075 Y95.566827   I-6.973867 J-11.945134
G02 X106.976560 Y94.913374   I-3.796576 J-5.152834
G03 X107.277760 Y94.863284   I0.185209 J0.183065
G03 X107.333980 Y95.091108   I-0.068534 J0.137761
G03 X106.083117 Y96.282339   I-3.816705 J-2.755410
G03 X104.455080 Y96.962202   I-2.672740 J-4.111066
G01 X104.455080 Y96.962202  
M300 S50

(End cutting path id: path189)


(Start cutting path id: path189)
(Change tool to Default tool)

M300 S50
G00 X105.128910 Y99.268891

M300 S30
G02 X105.544424 Y99.222441   I0.060827 J-1.337573 F400.000000
G02 X106.974610 Y98.763031   I-4.659273 J-16.960602
G02 X108.803237 Y97.743735   I-2.347604 J-6.361561
G02 X109.830080 Y96.530609   I-2.405807 J-3.077526
G02 X109.742679 Y96.434499   I-0.060443 J-0.032829
G02 X109.050780 Y96.862641   I1.057089 J2.481456
G02 X108.294534 Y97.637882   I3.810605 J4.473715
G02 X108.250000 Y97.850922   I0.185040 J0.149855
G03 X108.210132 Y97.954970   I-0.090616 J0.024940
G03 X108.085940 Y97.956391   I-0.063232 J-0.098568
G02 X107.848087 Y97.926851   I-0.151661 J0.248802
G02 X106.650390 Y98.399750   I2.516596 J8.126843
G03 X105.442229 Y98.968030   I-24.010266 J-49.477315
G03 X105.076170 Y99.116547   I-1.945990 J-4.271019
G02 X105.036278 Y99.199723   I0.022071 J0.061740
G02 X105.128870 Y99.268891   I0.097268 J-0.033650
G01 X105.128910 Y99.268891  
M300 S50

(End cutting path id: path189)


(Start cutting path id: path189)
(Change tool to Default tool)

M300 S50
G00 X108.503910 Y95.979733

M300 S30
G01 X109.003910 Y95.122311   F400.000000
G02 X109.916953 Y90.612440   I-6.178555 J-3.598236
G02 X107.660160 Y84.661374   I-13.577219 J1.745372
G03 X106.602840 Y83.040301   I41.811086 J-28.425993
G03 X106.566410 Y82.913327   I0.203066 J-0.126974
G01 X106.615655 Y82.889514  
G03 X107.458980 Y83.620358   I-7.857647 J9.918962
G03 X110.929308 Y90.352762   I-7.882674 J8.323874
G03 X109.113280 Y95.419186   I-5.733141 J0.803675
G01 X108.503910 Y95.979733  
M300 S50

(End cutting path id: path189)


(Start cutting path id: path189)
(Change tool to Default tool)

M300 S50
G00 X110.314450 Y97.346968

M300 S30
G01 X111.015620 Y96.852827   F400.000000
G02 X111.626955 Y96.287537   I-1.790985 J-2.550077
G02 X112.023440 Y95.632124   I-2.023130 J-1.671503
G02 X112.235961 Y94.901783   I-3.056297 J-1.285439
G02 X112.201170 Y94.583296   I-0.577465 J-0.098063
G02 X112.109110 Y94.503651   I-0.124083 J0.050398
G01 X112.050780 Y94.546186  
G03 X111.971739 Y94.807265   I-0.611533 J-0.042637
G03 X111.171880 Y96.087202   I-16.312250 J-9.303964
G01 X110.314450 Y97.346968  
M300 S50

(End cutting path id: path189)


(Start cutting path id: path189)
(Change tool to Default tool)

M300 S50
G00 X111.169920 Y93.770749

M300 S30
G01 X111.224233 Y93.781516   F400.000000
G02 X111.537110 Y93.403561   I-4.740354 J-4.242619
G02 X111.903740 Y92.773238   I-2.303526 J-1.761644
G02 X112.103520 Y92.067624   I-2.711189 J-1.148705
G02 X112.089275 Y91.340636   I-2.116626 J-0.322160
G02 X111.748050 Y90.221921   I-5.436647 J1.046863
G01 X111.279300 Y89.120358  
G01 X111.417970 Y90.344967  
G03 X111.460734 Y91.566403   I-7.967354 J0.890413
G03 X111.318370 Y92.784421   I-8.170474 J-0.337649
G02 X111.160112 Y93.656351   I36.470598 J7.069833
G02 X111.169930 Y93.770749   I0.225936 J0.038230
G01 X111.169920 Y93.770749  
M300 S50

(End cutting path id: path189)


(Start cutting path id: path189)
(Change tool to Default tool)

M300 S50
G00 X112.333980 Y88.903656

M300 S30
G02 X112.420420 Y88.873818   I0.035354 J-0.037706 F400.000000
G02 X112.400380 Y88.231781   I-1.734696 J-0.267187
G02 X112.156577 Y87.428338   I-5.167598 J1.129381
G02 X111.738270 Y86.546234   I-6.615014 J2.596708
G02 X111.444820 Y86.125248   I-2.303805 J1.293107
G01 X111.400380 Y86.149750  
G03 X111.535344 Y86.612340   I-12.877707 J4.008150
G03 X111.818350 Y87.684906   I-66.614622 J18.150472
G02 X112.163871 Y88.666529   I5.704276 J-1.456223
G02 X112.333970 Y88.903656   I0.684331 J-0.311321
G01 X112.333980 Y88.903656  
M300 S50

(End cutting path id: path189)


(Start cutting path id: path189)
(Change tool to Default tool)

M300 S50
G00 X110.273440 Y85.472014

M300 S30
G01 X110.296571 Y85.424523   F400.000000
G02 X109.888670 Y84.513029   I-8.558685 J3.283065
G02 X108.294089 Y82.220795   I-9.396638 J4.835978
G02 X106.906250 Y81.249357   I-2.868061 J2.620354
G02 X106.717493 Y81.348591   I-0.052936 J0.128447
G02 X106.828150 Y81.612639   I0.244751 J0.052641
G03 X108.386674 Y82.894816   I-4.399917 J6.936533
G03 X109.650420 Y84.587248   I-6.516506 J6.183941
G02 X110.212375 Y85.451654   I8.445712 J-4.875732
G02 X110.273470 Y85.472014   I0.044814 J-0.032629
G01 X110.273440 Y85.472014  
M300 S50

(End cutting path id: path189)


(Start cutting path id: path189)
(Change tool to Default tool)

M300 S50
G00 X107.011720 Y86.950528

M300 S30
G01 X107.042249 Y86.934038   F400.000000
G02 X106.779300 Y86.364591   I-5.340536 J2.120621
G02 X106.159599 Y85.376543   I-7.069689 J3.745730
G02 X105.609380 Y84.770841   I-3.168083 J2.325121
G01 X105.540993 Y84.818620  
G02 X105.841800 Y85.356778   I2.180132 J-0.865450
G03 X106.687159 Y86.498583   I-136.122480 J101.664992
G03 X107.011720 Y86.950528   I-21.710440 J15.933687
G01 X107.011720 Y86.950528  
M300 S50

(End cutting path id: path189)


(Start cutting path id: path189)
(Change tool to Default tool)

M300 S50
G00 X105.525390 Y88.266938

M300 S30
G01 X105.441743 Y88.276879   F400.000000
G03 X105.033200 Y87.514984   I4.196530 J-2.740746
G03 X104.684622 Y86.590576   I10.017373 J-4.305303
G01 X104.716800 Y86.546234  
G03 X105.464892 Y87.021519   I0.000000 J0.826386
G03 X105.525390 Y88.266938   I-1.483483 J0.696241
G01 X105.525390 Y88.266938  
M300 S50

(End cutting path id: path189)


(Start cutting path id: path189)
(Change tool to Default tool)

M300 S50
G00 X102.779300 Y87.827484

M300 S30
G02 X102.981495 Y87.850823   I0.119699 J-0.149477 F400.000000
G02 X103.089840 Y87.679047   I-0.082000 J-0.171776
G02 X102.936246 Y87.440188   I-0.262525 J0.000000
G02 X102.281250 Y87.309906   I-0.603807 J1.324007
G02 X101.963036 Y87.388994   I0.027880 J0.791896
G01 X101.970700 Y87.460297  
G03 X102.446585 Y87.623734   I-0.638640 J2.634088
G03 X102.779300 Y87.827484   I-0.639808 J1.418309
G01 X102.779300 Y87.827484  
M300 S50

(End cutting path id: path189)


(Start cutting path id: path189)
(Change tool to Default tool)

M300 S50
G00 X102.109380 Y89.241547

M300 S30
G02 X102.231349 Y89.163424   I0.000000 J-0.134273 F400.000000
G02 X102.220700 Y88.997406   I-0.158912 J-0.073158
G02 X102.047168 Y88.786877   I-0.893076 J0.559349
G02 X101.957030 Y88.751312   I-0.090138 J0.096444
G02 X101.890544 Y88.794590   I0.000001 J0.072710
G02 X101.847660 Y88.997406   I0.458155 J0.202816
G02 X101.921532 Y89.167472   I0.232696 J-0.000000
G02 X102.109380 Y89.241547   I0.187848 J-0.201145
G01 X102.109380 Y89.241547  
M300 S50

(End cutting path id: path189)


(Start cutting path id: path189)
(Change tool to Default tool)

M300 S50
G00 X100.835940 Y90.089208

M300 S30
G02 X100.912073 Y90.039799   I0.026203 J-0.042985 F400.000000
G02 X100.707030 Y89.087255   I-5.754348 J0.740331
G03 X100.791212 Y87.348483   I2.464796 J-0.752092
G03 X101.820310 Y86.401708   I1.535610 J0.636456
G02 X102.266167 Y86.124429   I-0.327485 J-1.023688
G02 X102.232420 Y85.973974   I-0.066426 J-0.064113
G02 X101.802252 Y85.835232   I-1.605735 J4.242316
G02 X101.625000 Y85.811864   I-0.177252 J0.660575
G02 X100.878515 Y86.150061   I0.000000 J0.992937
G02 X100.203120 Y87.432958   I2.336415 J2.049264
G02 X100.189508 Y89.199933   I3.580641 J0.911125
G02 X100.835940 Y90.089208   I1.390310 J-0.331056
G01 X100.835940 Y90.089208  
M300 S50

(End cutting path id: path189)


(Start cutting path id: path189)
(Change tool to Default tool)

M300 S50
G00 X96.457031 Y86.669186

M300 S30
G01 X96.634766 Y88.874264   F400.000000
G02 X97.337698 Y92.337189   I14.713130 J-1.183780
G02 X98.525391 Y94.571530   I7.167864 J-2.377336
G03 X98.410969 Y94.763973   I-0.095361 J0.073538
G03 X97.867188 Y94.466061   I0.146222 J-0.912139
G03 X96.849866 Y92.606260   I3.520391 J-3.133816
G03 X96.419922 Y89.311764   I11.149510 J-3.130354
G01 X96.457031 Y86.669186  
M300 S50

(End cutting path id: path189)


(Start cutting path id: path189)
(Change tool to Default tool)

M300 S50
G00 X94.689453 Y85.530604

M300 S30
G01 X94.770727 Y85.537074   F400.000000
G02 X95.410156 Y84.411464   I-9.733757 J-6.273914
G02 X96.015232 Y83.140227   I-38.340246 J-19.028579
G01 X96.000000 Y83.116542  
G02 X94.759906 Y83.854172   I0.000000 J1.411230
G02 X94.689453 Y85.530604   I1.675509 J0.910111
G01 X94.689453 Y85.530604  
M300 S50

(End cutting path id: path189)


(Start cutting path id: path189)
(Change tool to Default tool)

M300 S50
G00 X93.587891 Y85.751309

M300 S30
G02 X93.780025 Y85.689325   I0.053505 J-0.162923 F400.000000
G02 X93.898438 Y85.325528   I-0.499637 J-0.363797
G03 X93.963881 Y84.815694   I2.018657 J-0.000000
G03 X94.166016 Y84.304044   I2.206420 J0.575927
G02 X94.053493 Y84.090080   I-0.127814 J-0.069353
G02 X93.667969 Y84.251314   I-0.045706 J0.432240
G02 X93.272898 Y85.291157   I1.424748 J1.136282
G02 X93.587889 Y85.751314   I0.458140 J0.024278
G01 X93.587891 Y85.751309  
M300 S50

(End cutting path id: path189)


(Start cutting path id: path189)
(Change tool to Default tool)

M300 S50
G00 X92.080078 Y90.022798

M300 S30
G01 X92.002485 Y90.038792   F400.000000
G03 X91.929688 Y89.874360   I0.172398 J-0.174654
G03 X91.983128 Y89.569857   I0.722442 J-0.030154
G01 X92.060547 Y89.554048  
G03 X92.133041 Y89.717725   I-0.171597 J0.173895
G03 X92.080077 Y90.022798   I-0.729252 J0.030528
G01 X92.080078 Y90.022798  
M300 S50

(End cutting path id: path189)


(Start cutting path id: path189)
(Change tool to Default tool)

M300 S50
G00 X93.031250 Y93.118500

M300 S30
G03 X92.534520 Y93.011462   I-0.213298 J-0.216254 F400.000000
G03 X92.177734 Y90.903656   I5.017423 J-1.933392
G03 X92.279644 Y90.875452   I0.055355 J0.001797
G03 X92.673828 Y91.673188   I-3.301986 J2.127860
G03 X93.069882 Y92.981569   I-12.496338 J4.496843
G03 X93.031250 Y93.118500   I-0.139611 J0.034528
G01 X93.031250 Y93.118500  
M300 S50

(End cutting path id: path189)


(Start cutting path id: path189)
(Change tool to Default tool)

M300 S50
G00 X94.578125 Y92.327484

M300 S30
G01 X94.523602 Y92.317596   F400.000000
G03 X94.103516 Y91.300141   I11.911914 J-5.513631
G03 X93.879721 Y90.371633   I3.976059 J-1.449560
G03 X93.978516 Y90.290375   I0.075146 J-0.009323
G03 X94.867534 Y91.207494   I-0.429243 J1.305540
G03 X94.578125 Y92.327484   I-1.080169 J0.318268
G01 X94.578125 Y92.327484  
M300 S50

(End cutting path id: path189)


(Start cutting path id: path189)
(Change tool to Default tool)

M300 S50
G00 X97.404297 Y98.698581

M300 S30
G01 X96.830078 Y98.263034   F400.000000
G02 X96.145945 Y97.965018   I-0.955342 J1.258845
G02 X96.035156 Y98.124362   I-0.018364 J0.105418
G03 X96.038712 Y98.215691   I-0.083953 J0.049002
G01 X95.986326 Y98.225925  
G03 X95.806056 Y98.002091   I0.610701 J-0.676351
G03 X95.761717 Y97.835300   I0.291540 J-0.166791
G02 X95.702296 Y97.671872   I-0.254452 J-0.000000
G02 X94.294920 Y96.085300   I-28.874112 J24.195416
G02 X93.147854 Y94.966700   I-13.220978 J12.409990
G01 X93.091795 Y95.011081  
G02 X95.139733 Y98.171618   I21.294419 J-11.554407
G02 X95.822264 Y98.583347   I0.863877 J-0.660479
G02 X96.010138 Y98.607207   I0.383732 J-2.269918
G02 X96.707029 Y98.657567   I2.279067 J-26.691143
G01 X97.404297 Y98.698581  
M300 S50

(End cutting path id: path189)


(Start cutting path id: path189)
(Change tool to Default tool)

M300 S50
G00 X92.656250 Y107.186859

M300 S30
G03 X92.975552 Y106.475528   I0.951992 J-0.000000 F400.000000
G03 X94.986328 Y105.112641   I6.165978 J6.932388
G02 X94.985151 Y104.889212   I-0.055813 J-0.111423
G02 X93.912109 Y104.589203   I-1.355220 J2.778234
G03 X92.142692 Y104.331422   I1.533420 J-16.726986
G03 X90.587891 Y103.921234   I2.635465 J-13.141429
G03 X87.053366 Y102.448716   I7.803247 J-23.708609
G03 X86.998047 Y102.091156   I0.101332 J-0.198737
G03 X87.106960 Y102.064862   I0.076307 J0.077361
G03 X88.943359 Y102.702484   I-9.914220 J31.517017
G02 X92.996055 Y103.860101   I8.789403 J-23.097943
G02 X95.097656 Y103.905609   I1.182405 J-6.054817
G02 X95.162576 Y103.695635   I-0.018180 J-0.120644
G02 X92.537109 Y101.522797   I-20.044199 J21.547044
G03 X89.542874 Y99.214110   I47.781353 J-65.065723
G03 X89.537109 Y99.097016   I0.049454 J-0.061124
G03 X89.676074 Y99.073284   I0.086484 J0.087686
G03 X90.687500 Y99.638031   I-3.577718 J7.595540
G02 X91.696121 Y100.188009   I3.974604 J-6.089288
G02 X91.853516 Y100.159516   I0.057839 J-0.129470
G02 X91.925371 Y99.493125   I-0.372018 J-0.377183
G02 X90.128906 Y97.511078   I-7.084268 J4.615803
G02 X89.004136 Y96.725949   I-6.482282 J8.088237
G02 X86.818359 Y95.513031   I-17.663490 J29.255114
G03 X85.402145 Y94.649825   I4.859523 J-9.566111
G03 X85.453125 Y94.528656   I0.039452 J-0.054710
G03 X86.701179 Y94.914568   I-0.873676 J5.036583
G03 X91.166016 Y97.136078   I-30.738061 J67.375512
G02 X92.798603 Y97.965740   I17.281827 J-31.985602
G02 X93.343750 Y98.175141   I1.607896 J-3.371635
G02 X93.492273 Y98.040756   I0.033358 J-0.112400
G02 X93.171875 Y97.270844   I-2.004966 J0.382742
G03 X91.842014 Y94.568017   I8.732404 J-5.975145
G03 X91.228516 Y91.298188   I12.301434 J-4.000512
G03 X91.226021 Y89.096362   I19.858614 J-1.123421
G03 X91.375000 Y88.602875   I1.087392 J0.059042
G03 X91.524233 Y88.599016   I0.075821 J0.044641
G03 X91.654297 Y89.024750   I-0.655335 J0.432943
G02 X92.087486 Y91.775801   I9.465146 J-0.080779
G02 X93.091797 Y93.612641   I5.115123 J-1.603767
G03 X94.021316 Y94.725841   I-484.350790 J405.376154
G03 X94.335938 Y95.106781   I-44.872776 J37.381284
G01 X94.384483 Y95.079291  
G02 X94.011719 Y94.202484   I-7.788187 J2.793416
G03 X92.596460 Y90.918409   I30.424121 J-15.058139
G03 X92.408203 Y89.866547   I2.844441 J-1.051862
G03 X92.523795 Y89.677544   I0.212314 J-0.000000
G03 X93.525391 Y89.294281   I2.275908 J4.447334
G02 X94.408744 Y88.818914   I-0.547700 J-2.076197
G02 X94.642578 Y88.296234   I-0.467247 J-0.522680
G02 X94.126007 Y86.993974   I-1.899765 J0.000000
G02 X92.453125 Y85.970062   I-2.713380 J2.554614
G03 X91.569803 Y85.442104   I0.567363 J-1.952169
G03 X91.367188 Y84.864594   I0.514018 J-0.504637
G02 X91.077989 Y84.418796   I-0.422042 J-0.042916
G02 X89.742188 Y84.329438   I-0.841637 J2.552492
G03 X88.503224 Y84.457408   I-1.398093 J-7.474256
G03 X87.783203 Y84.370458   I-0.053959 J-2.577837
G03 X87.772282 Y84.231211   I0.019133 J-0.071552
G03 X88.611328 Y84.003271   I1.160741 J2.614450
G02 X90.108191 Y83.752534   I-1.602743 J-14.161532
G02 X90.281250 Y83.630224   I-0.059742 J-0.268117
G02 X90.233818 Y83.516303   I-0.064083 J-0.040153
G02 X88.705078 Y83.274755   I-2.611337 J11.568541
G03 X84.227098 Y82.505844   I2.639947 J-28.798397
G03 X79.414062 Y80.915380   I8.860254 J-34.890547
G03 X77.569201 Y80.102557   I15.086172 J-36.741088
G01 X77.558594 Y80.040380  
G03 X77.653081 Y80.016738   I0.067264 J0.068193
G03 X80.167969 Y80.813817   I-20.001267 J67.472541
G02 X86.428104 Y82.615662   I22.951231 J-67.963563
G02 X88.681641 Y82.850927   I2.020888 J-8.446904
G01 X88.694707 Y82.763719  
G02 X86.197266 Y82.014989   I-12.557157 J37.345711
G03 X83.107557 Y81.149200   I27.251146 J-103.196079
G03 X82.099609 Y80.802099   I3.492112 J-11.777809
G01 X82.124294 Y80.719624  
G03 X86.185547 Y81.657567   I-20.978204 J100.096188
G02 X90.033327 Y82.561107   I28.962013 J-114.691736
G02 X90.640625 Y82.626317   I0.607298 J-2.795259
G02 X94.872118 Y82.075541   I-0.000000 J-16.530215
G02 X95.035156 Y81.462255   I-0.093524 J-0.353177
G02 X94.885981 Y81.377078   I-0.234858 J0.238101
G02 X89.720703 Y80.054052   I-81.884808 J308.945269
G03 X80.674835 Y77.560583   I42.402005 J-171.482170
G03 X80.671875 Y77.298193   I0.040084 J-0.131664
G03 X80.986058 Y77.286196   I0.177956 J0.540403
G03 X84.771484 Y78.309911   I-21.023809 J85.251073
G02 X95.123489 Y81.014215   I48.885414 J-165.966361
G02 X96.550781 Y81.001317   I0.686548 J-3.005198
G02 X96.577600 Y80.747196   I-0.032658 J-0.131923
G02 X94.892578 Y80.194677   I-2.859541 J5.875099
G03 X85.081835 Y77.860283   I17.153548 J-93.874072
G03 X78.248047 Y75.290380   I14.097078 J-47.857443
G01 X78.277326 Y75.211273  
G03 X82.099609 Y76.382177   I-25.655286 J90.572943
G02 X88.664160 Y78.335349   I36.600707 J-111.005640
G02 X94.978516 Y79.806005   I26.822073 J-100.871415
G01 X97.923828 Y80.395849  
G01 X99.617188 Y79.733739  
G01 X101.312500 Y79.069677  
G01 X98.064453 Y78.497411  
G03 X88.062749 Y76.297143   I20.994725 J-119.267600
G03 X80.113281 Y73.743505   I20.563537 J-77.664380
G03 X78.526101 Y73.017624   I4.686472 J-12.345409
G01 X78.554827 Y72.932835  
G03 X79.400088 Y73.121533   I-1.111884 J6.968101
G03 X82.720703 Y74.159521   I-22.015326 J76.259441
G02 X92.829952 Y77.209863   I52.950247 J-157.207429
G02 X95.099609 Y77.468114   I2.001388 J-7.486706
G01 X95.108260 Y77.406226  
G02 X92.412109 Y76.600927   I-19.415086 J60.085893
G03 X89.347287 Y75.686425   I19.241006 J-70.076401
G03 X89.083984 Y75.526708   I0.204463 J-0.633961
G01 X89.121365 Y75.455940  
G03 X91.066406 Y75.915380   I-4.984679 J25.449547
G02 X102.897390 Y78.694932   I40.863139 J-147.362654
G02 X103.089840 Y78.239599   I0.047967 J-0.248063
G02 X102.694743 Y78.048271   I-0.798709 J1.145750
G02 X102.216800 Y77.975927   I-0.490306 J1.624277
G03 X92.577516 Y76.578976   I0.269376 J-35.813879
G03 X84.236328 Y72.800146   I8.763608 J-30.439684
G01 X84.264499 Y72.737550  
G03 X88.216797 Y73.925146   I-33.932845 J120.098274
G02 X95.029636 Y75.904009   I41.819337 J-131.258779
G02 X101.783200 Y77.489599   I33.481574 J-127.433655
G01 X104.328120 Y78.016943  
G01 X105.869140 Y77.505224  
G03 X108.335292 Y77.053041   I2.835276 J8.512107
G03 X109.064450 Y77.374364   I0.037206 J0.903549
G03 X109.040932 Y77.542671   I-0.087442 J0.073578
G03 X108.734380 Y77.597021   I-0.214432 J-0.317771
G02 X106.690135 Y77.627958   I-0.963457 J3.891938
G02 X106.455080 Y78.235693   I0.109656 J0.391736
G02 X106.637137 Y78.388133   I0.325610 J-0.203938
G02 X107.019530 Y78.462255   I0.382393 J-0.949312
G03 X107.381346 Y78.572229   I-0.000000 J0.650177
G03 X107.751950 Y78.952489   I-0.715100 J1.067667
G02 X108.145117 Y79.297444   I0.782774 J-0.495641
G02 X108.867190 Y79.470067   I0.788243 J-1.700670
G03 X109.254673 Y79.543850   I-0.045677 J1.294229
G01 X109.251950 Y79.606786  
G02 X109.188999 Y79.796320   I0.029970 J0.115175
G02 X110.369140 Y81.003271   I6.648687 J-5.320561
G03 X113.232777 Y84.148350   I-10.157230 J12.124525
G03 X114.992190 Y87.706396   I-11.346364 J7.824675
G03 X115.553350 Y91.702300   I-11.005830 J3.582946
G03 X114.712890 Y95.552099   I-11.043354 J-0.394264
G02 X114.199103 Y97.002204   I13.235011 J5.505369
G02 X114.259770 Y97.083349   I0.060667 J0.017894
G02 X114.428438 Y97.038665   I-0.000000 J-0.340676
G02 X115.527340 Y96.362646   I-9.519597 J-16.705738
G02 X117.584807 Y94.535148   I-5.398970 J-8.150301
G02 X119.783200 Y91.343114   I-14.775502 J-12.529119
G02 X120.330865 Y89.785536   I-4.408526 J-2.425169
G02 X120.601560 Y86.669286   I-17.801862 J-3.116250
G02 X120.399620 Y83.535564   I-24.415588 J-0.000000
G02 X120.060550 Y82.487646   I-2.981350 J0.385845
G02 X118.957108 Y81.038296   I-5.235631 J2.841353
G02 X116.414060 Y78.975927   I-13.348350 J13.860404
G03 X115.415351 Y78.169549   I4.345867 J-6.404054
G01 X115.456700 Y78.084897  
G03 X115.853164 Y78.201626   I-0.216386 J1.466594
G03 X117.855470 Y79.188817   I-14.480515 J31.894851
G01 X120.232420 Y80.456396  
G01 X122.466800 Y80.378266  
G03 X124.307138 Y80.390985   I0.769092 J21.865698
G03 X124.622619 Y80.464773   I-0.044115 J0.899929
G01 X124.618092 Y80.553988  
G03 X123.462890 Y80.811859   I-2.013988 J-6.305753
G02 X122.428933 Y81.068743   I0.610653 J4.667164
G02 X122.378910 Y81.216156   I0.035091 J0.094102
G02 X122.586290 Y81.341635   I0.228165 J-0.142982
G02 X123.628910 Y81.311856   I0.381133 J-4.922791
G03 X124.545299 Y81.279745   I0.619279 J4.580982
G03 X124.593750 Y81.374356   I-0.003977 J0.061748
G02 X124.777021 Y81.762611   I0.216072 J0.135389
G02 X127.496090 Y81.751309   I1.317347 J-10.155602
G02 X128.523494 Y81.514362   I-0.808559 J-5.851796
G02 X129.792970 Y80.999356   I-3.071241 J-9.392649
G01 X131.035160 Y80.391935  
G01 X129.855470 Y81.460294  
G02 X128.789444 Y82.580311   I7.060346 J7.787325
G02 X128.683590 Y82.886075   I0.360995 J0.296180
G02 X128.767452 Y82.948586   I0.066347 J-0.001500
G02 X128.941410 Y82.815765   I-0.076903 J-0.281050
G03 X130.160520 Y81.577036   I3.099445 J1.831090
G03 X131.648440 Y81.157561   I1.487920 J2.429166
G03 X131.690010 Y81.254133   I0.000000 J0.057233
G03 X130.720700 Y82.138030   I-6.477103 J-6.129558
G02 X129.019410 Y83.963940   I4.992724 J6.357509
G02 X126.953120 Y87.704437   I19.597926 J13.267069
G03 X123.351282 Y94.591880   I-52.696918 J-23.172711
G03 X119.974610 Y99.102874   I-25.828081 J-15.814132
G02 X118.895175 Y100.425611   I12.346495 J11.177312
G02 X118.939450 Y100.513030   I0.044275 J0.032498
G02 X119.162765 Y100.452558   I-0.000000 J-0.442574
G02 X121.396480 Y99.077483   I-28.883199 J-49.420560
G02 X124.555852 Y96.645508   I-13.343238 J-20.602318
G02 X127.048830 Y93.944671   I-14.048876 J-15.468637
G03 X127.714305 Y93.492398   I1.023111 J0.789679
G03 X127.882810 Y93.704437   I0.040534 J0.140762
G03 X125.771752 Y96.511924   I-11.271237 J-6.277843
G03 X122.242190 Y99.389983   I-15.363279 J-15.237743
G03 X116.676451 Y102.645383   I-35.705786 J-54.660432
G03 X113.771480 Y103.798187   I-7.080270 J-13.605145
G03 X108.595900 Y104.905948   I-11.115478 J-39.288401
G03 X101.765620 Y105.563811   I-9.991512 J-67.950444
G02 X98.523362 Y105.837117   I1.968513 J42.721026
G02 X97.771484 Y106.054046   I0.301587 J2.456770
G03 X97.085192 Y106.090674   I-0.388171 J-0.825297
G03 X96.980469 Y105.780608   I0.067641 J-0.195563
G02 X97.154545 Y105.292690   I-0.894251 J-0.594055
G02 X97.041019 Y105.167327   I-0.113526 J-0.011279
G02 X95.578642 Y105.469887   I-0.000000 J3.685370
G02 X93.587894 Y106.659515   I3.533086 J8.172830
G03 X92.735014 Y107.232815   I-4.121417 J-5.210245
G03 X92.656253 Y107.186858   I-0.025972 J-0.045957
G01 X92.656250 Y107.186859  
M300 S50

(End cutting path id: path189)


(Start cutting path id: path189)
(Change tool to Default tool)

M300 S50
G00 X106.121090 Y122.556000

M300 S30
G01 X106.095823 Y122.498246   F400.000000
G03 X106.533200 Y122.065766   I2.565177 J2.156818
G03 X107.363486 Y121.637613   I1.411095 J1.717300
G03 X107.560550 Y121.788422   I0.040826 J0.150809
G03 X107.253532 Y122.300445   I-0.580467 J0.000000
G03 X106.121090 Y122.556000   I-1.030494 J-1.929560
G01 X106.121090 Y122.556000  
M300 S50

(End cutting path id: path189)


(Start cutting path id: path189)
(Change tool to Default tool)

M300 S50
G00 X101.205080 Y82.132170

M300 S30
G03 X100.363302 Y82.020886   I0.010269 J-3.317024 F400.000000
G03 X100.345700 Y81.903654   I0.016593 J-0.062429
G03 X100.725414 Y81.779237   I0.442751 J0.709611
G03 X101.462890 Y81.819674   I0.214345 J2.835984
G03 X101.522234 Y81.983280   I-0.018581 J0.099306
G03 X101.205080 Y82.132174   I-0.315901 J-0.260664
G01 X101.205080 Y82.132170  
M300 S50

(End cutting path id: path189)


(Start cutting path id: path189)
(Change tool to Default tool)

M300 S50
G00 X104.765620 Y79.604826

M300 S30
G02 X105.076178 Y79.664353   I0.310558 J-0.780348 F400.000000
G02 X105.386720 Y79.604826   I0.000000 J-0.839787
G01 X105.386889 Y79.540232  
G02 X105.076170 Y79.479826   I-0.310719 J0.768943
G02 X104.765452 Y79.540228   I0.000000 J0.829389
G01 X104.765620 Y79.604826  
G01 X104.765620 Y79.604826  
M300 S50

(End cutting path id: path189)


(Start cutting path id: path189)
(Change tool to Default tool)

M300 S50
G00 X108.125000 Y78.876310

M300 S30
G01 X108.121196 Y78.816162   F400.000000
G03 X108.429690 Y78.755217   I0.319042 J0.803700
G03 X108.865139 Y78.806496   I0.020722 J1.698528
G01 X108.869140 Y78.866545  
G03 X108.559913 Y78.928228   I-0.321319 J-0.804877
G03 X108.125000 Y78.876345   I-0.023096 J-1.655168
G01 X108.125000 Y78.876310  
M300 S50

(End cutting path id: path189)


(Start cutting path id: path189)
(Change tool to Default tool)

M300 S50
G00 X115.587890 Y77.235688

M300 S30
G01 X115.558568 Y77.304147   F400.000000
G03 X113.974610 Y77.100922   I1.471872 J-17.746356
G03 X95.258913 Y73.410478   I73.650527 J-422.813394
G03 X93.919922 Y72.682953   I0.591718 J-2.684994
G03 X93.967963 Y72.590836   I0.038157 J-0.038686
G03 X102.660160 Y74.298188   I-72.945121 J394.346412
G03 X115.164785 Y77.018108   I-141.912487 J682.536319
G03 X115.587890 Y77.235688   I-0.211636 J0.931722
G01 X115.587890 Y77.235688  
M300 S50

(End cutting path id: path189)


(Start cutting path id: path189)
(Change tool to Default tool)

M300 S50
G00 X121.207030 Y76.173188

M300 S30
G03 X121.123370 Y76.337275   I-0.072007 J0.066657 F400.000000
G03 X113.626950 Y75.266938   I19.730871 J-164.977875
G03 X100.235287 Y72.661812   I40.617926 J-244.519128
G03 X99.859375 Y72.192719   I0.104729 J-0.469093
G03 X99.940113 Y72.126080   I0.067870 J0.000000
G03 X103.041020 Y72.807953   I-11.709966 J60.644398
G02 X109.395637 Y74.196710   I28.893876 J-116.978384
G02 X116.691410 Y75.405609   I28.871488 J-151.621460
G03 X121.037179 Y76.081244   I-21.977693 J155.677426
G03 X121.207030 Y76.173188   I-0.050199 J0.295591
G01 X121.207030 Y76.173188  
M300 S50

(End cutting path id: path189)


(Start cutting path id: path189)
(Change tool to Default tool)

M300 S50
G00 X125.558590 Y76.040375

M300 S30
G03 X125.481558 Y76.210696   I-0.066331 J0.072581 F400.000000
G03 X120.687500 Y75.507172   I7.192179 J-65.695932
G03 X107.963910 Y72.710105   I34.737394 J-188.354834
G03 X105.375000 Y71.589203   I2.218847 J-8.675007
G03 X105.359374 Y71.512048   I0.029344 J-0.046102
G03 X105.449200 Y71.481781   I0.065177 J0.045006
G02 X111.854601 Y73.267654   I23.238151 J-70.968336
G02 X121.347640 Y75.159516   I35.597335 J-153.858157
G03 X125.285600 Y75.900616   I-16.596249 J99.020062
G03 X125.558570 Y76.040375   I-0.118764 J0.568418
G01 X125.558590 Y76.040375  
M300 S50

(End cutting path id: path189)


(Start cutting path id: path189)
(Change tool to Default tool)

M300 S50
G00 X126.376950 Y74.431000

M300 S30
G03 X109.018303 Y70.468477   I133.187657 J-623.458687 F400.000000
G03 X107.583980 Y69.864594   I1.152603 J-4.742948
G03 X107.570175 Y69.779421   I0.030395 J-0.048632
G03 X107.685550 Y69.741547   I0.087706 J0.072511
G02 X108.183625 Y69.860114   I5.231771 J-20.872085
G02 X112.031250 Y70.720062   I226.225217 J-1003.151579
G03 X121.754602 Y72.904444   I-357.668342 J1614.824179
G03 X125.755860 Y73.847016   I-62.083350 J272.510465
G03 X126.477880 Y74.238324   I-0.380597 J1.564026
G03 X126.376950 Y74.431000   I-0.077342 J0.082259
G01 X126.376950 Y74.431000  
M300 S50

(End cutting path id: path189)


(Start cutting path id: path189)
(Change tool to Default tool)

M300 S50
G00 X128.798830 Y74.056000

M300 S30
G01 X127.855470 Y73.944672   F400.000000
G03 X117.919732 Y71.929333   I7.159084 J-60.794244
G03 X114.662110 Y70.108734   I2.319310 J-7.974726
G01 X114.694768 Y70.044833  
G03 X117.144530 Y70.634125   I-9.531227 J45.009154
G02 X119.857179 Y71.362103   I288.161975 J-1068.353736
G02 X123.494140 Y72.329438   I504.346258 J-1888.907300
G03 X127.109859 Y73.352753   I-28.622367 J108.031989
G03 X127.964840 Y73.675141   I-1.940515 J6.441199
G01 X128.798830 Y74.056000  
M300 S50

(End cutting path id: path189)


(Start cutting path id: path189)
(Change tool to Default tool)

M300 S50
G00 X128.550780 Y73.063812

M300 S30
G03 X125.131206 Y72.549214   I-0.158158 J-10.568075 F400.000000
G03 X123.085940 Y71.290375   I1.571461 J-4.844108
G03 X123.086196 Y71.194575   I0.048191 J-0.047771
G03 X123.210940 Y71.165375   I0.085948 J0.086117
G02 X123.585785 Y71.282830   I3.003986 J-8.930038
G02 X125.941410 Y71.958344   I96.791716 J-333.083119
G03 X128.585096 Y72.888005   I-6.117453 J21.620032
G03 X128.550780 Y73.063812   I-0.035690 J0.084286
G01 X128.550780 Y73.063812  
M300 S50

(End cutting path id: path189)


(Start cutting path id: path189)
(Change tool to Default tool)

M300 S50
G00 X130.972660 Y72.188812

M300 S30
G03 X122.410151 Y69.907581   I29.728917 J-128.796449 F400.000000
G03 X121.244140 Y69.245453   I0.879932 J-2.907302
G01 X121.249202 Y69.193432  
G03 X121.398440 Y69.151703   I0.149238 J0.246004
G03 X124.382247 Y69.537411   I-0.000000 J11.734109
G03 X131.220700 Y71.733734   I-17.027096 J64.759653
G03 X131.329495 Y72.028398   I-0.074332 J0.194861
G03 X130.972660 Y72.188812   I-0.284072 J-0.154817
G01 X130.972660 Y72.188812  
M300 S50

(End cutting path id: path189)


(Start cutting path id: path189)
(Change tool to Default tool)

M300 S50
G00 X95.837891 Y77.649750

M300 S30
G02 X96.148727 Y77.702256   I0.279409 J-0.707777 F400.000000
G02 X96.314453 Y77.630220   I-0.010354 J-0.250473
G01 X96.298929 Y77.554000  
G02 X95.988281 Y77.501313   I-0.279788 J0.707507
G02 X95.822295 Y77.573414   I0.010182 J0.250551
G01 X95.837891 Y77.649751  
G01 X95.837891 Y77.649750  
M300 S50

(End cutting path id: path189)


(Start cutting path id: path189)
(Change tool to Default tool)

M300 S50
G00 X86.353516 Y85.739589

M300 S30
G03 X84.096076 Y86.535611   I-1.975245 J-2.002651 F400.000000
G03 X74.894531 Y84.585292   I4.362207 J-43.262216
G01 X74.150391 Y84.341151  
G01 X74.923828 Y84.450526  
G02 X78.616658 Y84.905738   I14.092401 J-99.115784
G02 X84.539062 Y85.454433   I26.442890 J-253.178207
G03 X86.330448 Y85.667807   I-1.921712 J23.760261
G01 X86.353516 Y85.739589  
G01 X86.353516 Y85.739589  
M300 S50

(End cutting path id: path189)


(Start cutting path id: path189)
(Change tool to Default tool)

M300 S50
G00 X59.121094 Y89.587250

M300 S30
G03 X59.006415 Y89.667897   I-0.085696 J0.000000 F400.000000
G03 X52.427405 Y87.240188   I139.463883 J-388.070811
G03 X45.879523 Y84.699264   I152.519399 J-402.745066
G03 X45.458984 Y84.413422   I0.432917 J-1.089195
G01 X45.507372 Y84.338637  
G03 X51.667969 Y86.559906   I-81.585531 J235.927797
G03 X59.015869 Y89.430939   I-104.091836 J277.242963
G03 X59.121094 Y89.587250   I-0.063488 J0.156311
G01 X59.121094 Y89.587250  
M300 S50

(End cutting path id: path189)


(Start cutting path id: path189)
(Change tool to Default tool)

M300 S50
G00 X58.554688 Y88.745453

M300 S30
G03 X58.077152 Y88.643447   I-0.037161 J-0.994815 F400.000000
G03 X54.400391 Y86.696625   I32.030316 J-64.937710
G03 X53.511599 Y86.123400   I4.567462 J-8.057552
G01 X53.531250 Y86.063812  
G03 X53.806746 Y86.130155   I-0.003946 J0.621573
G03 X56.258871 Y87.401494   I-51.599251 J102.523729
G03 X58.571455 Y88.677028   I-45.395001 J85.036732
G01 X58.554688 Y88.745453  
G01 X58.554688 Y88.745453  
M300 S50

(End cutting path id: path189)


(Start cutting path id: path189)
(Change tool to Default tool)

M300 S50
G00 X56.636719 Y80.284514

M300 S30
G03 X56.319183 Y80.511672   I-0.240020 J0.000000 F400.000000
G03 X55.652344 Y79.948576   I0.387346 J-1.135105
G03 X55.279579 Y78.606314   I2.729891 J-1.481021
G03 X55.560544 Y77.889982   I0.945800 J-0.042299
G03 X55.733341 Y77.741778   I1.149234 J1.165096
G03 X55.781247 Y77.725920   I0.047906 J0.064434
G03 X56.279152 Y78.084599   I0.000000 J0.524926
G03 X56.636716 Y80.284514   I-6.588705 J2.199915
G01 X56.636719 Y80.284514  
M300 S50

(End cutting path id: path189)


(Start cutting path id: path189)
(Change tool to Default tool)

M300 S50
G00 X50.109375 Y95.026608

M300 S30
G02 X50.176471 Y94.569051   I-0.269479 J-0.273214 F400.000000
G02 X48.375000 Y91.862546   I-16.562085 J9.071064
G02 X47.582732 Y91.104757   I-3.203130 J2.555820
G02 X47.277344 Y91.063717   I-0.190670 J0.262067
G03 X47.088089 Y91.062076   I-0.092515 J-0.244432
G03 X47.060547 Y90.977777   I0.021369 J-0.053631
G02 X47.030927 Y90.818401   I-0.101479 J-0.063581
G02 X46.414062 Y90.491449   I-1.346453 J1.794973
G02 X45.507167 Y90.380429   I-0.714701 J2.078612
G02 X44.037109 Y90.700433   I0.520173 J5.926246
G02 X41.155133 Y92.147277   I4.356237 J12.270946
G02 X40.744141 Y92.903558   I0.514526 J0.769427
G02 X40.862955 Y92.978547   I0.082286 J0.001245
G02 X41.546875 Y92.505121   I-1.272568 J-2.569088
G03 X42.388014 Y91.799387   I7.076347 J7.579916
G03 X42.957031 Y91.444574   I2.305447 J3.063591
G03 X45.993697 Y90.495117   I4.335305 J8.534843
G03 X46.310547 Y90.985590   I0.043725 J0.319334
G02 X46.331375 Y91.116649   I0.085537 J0.053591
G02 X46.724609 Y91.331293   I0.736432 J-0.881634
G03 X48.230356 Y92.238364   I-1.110087 J3.546070
G03 X49.554688 Y94.135980   I-4.537285 J4.577465
G02 X50.027193 Y95.016832   I7.158449 J-3.272762
G02 X50.109375 Y95.026605   I0.044997 J-0.027954
G01 X50.109375 Y95.026608  
M300 S50

(End cutting path id: path189)


(Start cutting path id: path189)
(Change tool to Default tool)

M300 S50
G00 X48.212891 Y94.557858

M300 S30
G02 X47.830169 Y94.154385   I-2.597291 J2.080457 F400.000000
G02 X47.193359 Y93.649655   I-4.670347 J5.238408
G02 X46.482062 Y93.289413   I-1.602395 J2.281574
G02 X45.431641 Y93.055905   I-1.616528 J4.792478
G02 X44.842398 Y93.026816   I-0.526148 J4.675345
G01 X44.837891 Y93.063705  
G03 X46.754595 Y93.730853   I-3.289844 J12.538558
G03 X47.761719 Y94.344955   I-1.769874 J4.035475
G02 X48.175525 Y94.605190   I1.281274 J-1.578267
G01 X48.212891 Y94.557846  
G01 X48.212891 Y94.557858  
M300 S50

(End cutting path id: path189)


(Start cutting path id: path189)
(Change tool to Default tool)

M300 S50
G00 X44.576172 Y94.725827

M300 S30
G03 X44.371882 Y94.723305   I-0.098934 J-0.261365 F400.000000
G03 X44.341797 Y94.630127   I0.024108 J-0.059230
G03 X44.526308 Y94.445893   I0.492153 J0.308380
G03 X44.728516 Y94.387939   I0.202208 J0.323788
G03 X44.806781 Y94.509138   I0.000000 J0.085870
G03 X44.576172 Y94.725830   I-0.377042 J-0.170202
G01 X44.576172 Y94.725827  
M300 S50

(End cutting path id: path189)


(Start cutting path id: path189)
(Change tool to Default tool)

M300 S50
G00 X43.830078 Y93.501217

M300 S30
G02 X44.178128 Y93.328767   I-0.701211 J-1.852683 F400.000000
G02 X44.216797 Y93.259030   I-0.043549 J-0.069737
G02 X44.019576 Y93.102439   I-0.160776 J0.000000
G02 X43.597656 Y93.403561   I0.154086 J0.662049
G02 X43.627208 Y93.497313   I0.054718 J0.034285
G02 X43.830078 Y93.501221   I0.106312 J-0.251216
G01 X43.830078 Y93.501217  
M300 S50

(End cutting path id: path189)


(Start cutting path id: path189)
(Change tool to Default tool)

M300 S50
G00 X40.986328 Y91.079443

M300 S30
G03 X40.816677 Y91.091299   I-0.096278 J-0.157943 F400.000000
G03 X40.738281 Y90.972021   I0.051542 J-0.119278
G03 X40.812438 Y90.786737   I0.268547 J0.000000
G03 X40.986328 Y90.712255   I0.173890 J0.165745
G03 X41.193206 Y90.754454   I0.000000 J0.528197
G03 X41.236328 Y90.819677   I-0.027764 J0.065223
G03 X41.200618 Y90.907984   I-0.127041 J-0.000000
G03 X40.986328 Y91.079443   I-0.776331 J-0.750620
G01 X40.986328 Y91.079443  
M300 S50

(End cutting path id: path189)


(Start cutting path id: path189)
(Change tool to Default tool)

M300 S50
G00 X40.525391 Y91.241551

M300 S30
G02 X40.714032 Y91.349822   I0.145214 J-0.034537 F400.000000
G02 X41.583984 Y90.919285   I-0.863017 J-2.838025
G02 X42.041996 Y90.386560   I-0.874886 J-1.215438
G02 X41.941406 Y90.222020   I-0.100590 J-0.051523
G02 X40.763781 Y90.601787   I-0.000000 J2.015739
G02 X40.525391 Y91.241551   I0.358351 J0.497826
G01 X40.525391 Y91.241551  
M300 S50

(End cutting path id: path189)


(Start cutting path id: path189)
(Change tool to Default tool)

M300 S50
G00 X36.888672 Y89.106781

M300 S30
G02 X36.390045 Y88.970629   I-5.807933 J20.289155 F400.000000
G02 X35.273438 Y88.686859   I-26.629649 J102.446293
G03 X34.179834 Y88.357198   I2.790379 J-11.235455
G03 X33.832031 Y88.173188   I0.458402 J-1.287141
G02 X33.485949 Y87.978350   I-0.992068 J1.357383
G02 X29.488281 Y86.366547   I-74.489105 J178.987795
G03 X25.483976 Y84.773400   I120.079247 J-307.642909
G03 X25.361328 Y84.692719   I0.141136 J-0.348110
G01 X25.405908 Y84.620113  
G03 X29.482422 Y86.071625   I-35.579720 J106.374344
G02 X33.392684 Y87.352760   I16.260515 J-43.022122
G02 X33.851562 Y87.290375   I0.157075 J-0.563466
G03 X34.828636 Y87.221664   I0.555851 J0.922854
G03 X35.273438 Y87.893891   I-0.285566 J0.672227
G02 X35.401978 Y88.162356   I0.344624 J0.000000
G02 X36.330078 Y88.745453   I2.949570 J-3.664587
G03 X36.906527 Y89.067519   I-2.174228 J4.568451
G01 X36.888672 Y89.106781  
G01 X36.888672 Y89.106781  
M300 S50

(End cutting path id: path189)


(Start cutting path id: path189)
(Change tool to Default tool)

M300 S50
G00 X34.031250 Y87.772794

M300 S30
G02 X34.566029 Y87.928740   I0.534779 J-0.838976 F400.000000
G02 X34.652344 Y87.772794   I0.000000 J-0.101860
G02 X34.456519 Y87.605637   I-0.363898 J0.228024
G02 X34.080078 Y87.530606   I-0.368295 J0.865949
G02 X33.967756 Y87.623242   I0.001022 J0.115653
G02 X34.031248 Y87.772794   I0.140616 J0.028556
G01 X34.031250 Y87.772794  
M300 S50

(End cutting path id: path189)


(Start cutting path id: path189)
(Change tool to Default tool)

M300 S50
G00 X32.474609 Y91.190771

M300 S30
G03 X31.893604 Y91.088178   I-0.077589 J-1.257075 F400.000000
G03 X23.349609 Y87.212255   I127.700057 J-292.854079
G03 X21.321527 Y86.189552   I18.280794 J-38.774159
G01 X21.340682 Y86.143278  
G03 X21.970762 Y86.365957   I-1.987500 J6.626475
G03 X25.539062 Y87.868505   I-69.645726 J170.385291
G03 X32.503170 Y91.044232   I-81.064898 J186.992349
G03 X32.474609 Y91.190771   I-0.033312 J0.069560
G01 X32.474609 Y91.190771  
M300 S50

(End cutting path id: path189)


(Start cutting path id: path189)
(Change tool to Default tool)

M300 S50
G00 X30.693359 Y95.366452

M300 S30
G02 X30.764020 Y95.330639   I0.000000 J-0.087616 F400.000000
G02 X31.050781 Y94.878171   I-3.191775 J-2.339958
G02 X31.169164 Y94.475528   I-0.880026 J-0.477466
G02 X31.087891 Y94.387936   I-0.081273 J-0.006091
G02 X30.924060 Y94.471344   I-0.000000 J0.202603
G02 X30.730469 Y94.878171   I0.991208 J0.721147
G02 X30.655077 Y95.325177   I2.387820 J0.632589
G01 X30.693359 Y95.366452  
G01 X30.693359 Y95.366452  
M300 S50

(End cutting path id: path189)


(Start cutting path id: path189)
(Change tool to Default tool)

M300 S50
G00 X42.158203 Y98.001315

M300 S30
G02 X42.209633 Y97.327487   I-4.388503 J-0.673828 F400.000000
G02 X42.158203 Y96.653659   I-4.439933 J-0.000000
G01 X42.106156 Y96.653655  
G02 X42.054688 Y97.327487   I4.385274 J0.673832
G02 X42.106154 Y98.001318   I4.436862 J-0.000000
G01 X42.158203 Y98.001315  
G01 X42.158203 Y98.001315  
M300 S50

(End cutting path id: path189)


(Start cutting path id: path189)
(Change tool to Default tool)

M300 S50
G00 X44.712891 Y97.940765

M300 S30
G03 X44.556438 Y97.738209   I0.186269 J-0.305572 F400.000000
G03 X44.468750 Y97.130218   I1.984677 J-0.596561
G03 X44.578406 Y96.829596   I0.474473 J0.002760
G03 X44.712891 Y96.837249   I0.064412 J0.053565
G03 X44.994943 Y97.782375   I-1.442483 J0.945126
G03 X44.712891 Y97.940765   I-0.185499 J0.000000
G01 X44.712891 Y97.940765  
M300 S50

(End cutting path id: path189)


(Start cutting path id: path189)
(Change tool to Default tool)

M300 S50
G00 X45.833984 Y99.503266

M300 S30
G03 X45.813140 Y99.423282   I0.037969 J-0.052603 F400.000000
G03 X46.066406 Y98.987641   I2.516538 J1.171583
G02 X46.419258 Y97.772928   I-1.569407 J-1.114489
G02 X45.937500 Y96.503266   I-2.218858 J0.115688
G03 X45.709543 Y95.995170   I0.874821 J-0.697672
G03 X45.826172 Y95.856781   I0.116629 J-0.020049
G03 X46.511061 Y96.295037   I-0.000000 J0.754286
G03 X46.949219 Y98.290375   I-4.324225 J1.995338
G03 X46.800789 Y98.935369   I-1.475609 J0.000000
G03 X46.468750 Y99.278656   I-0.690339 J-0.335497
G03 X45.931841 Y99.516847   I-2.013433 J-3.814279
G03 X45.833984 Y99.503266   I-0.036114 J-0.099119
G01 X45.833984 Y99.503266  
M300 S50

(End cutting path id: path189)


(Start cutting path id: path189)
(Change tool to Default tool)

M300 S50
G00 X45.693359 Y99.651703

M300 S30
G02 X47.038244 Y98.902747   I0.317023 J-1.012697 F400.000000
G02 X46.580078 Y96.194672   I-3.271188 J-0.839358
G01 X46.578078 Y96.194672  
G02 X45.731737 Y95.713797   I-0.899184 J0.597346
G02 X44.712844 Y96.102872   I-0.066397 J1.354776
G02 X44.108070 Y97.458481   I1.431641 J1.451402
G02 X44.613234 Y98.227872   I0.782436 J0.036805
G02 X45.131842 Y98.024636   I0.146968 J-0.388274
G02 X45.144484 Y97.159513   I-0.895240 J-0.445736
G03 X45.023309 Y96.605348   I1.192598 J-0.551107
G03 X45.146484 Y96.311856   I0.413536 J0.000963
G03 X45.377845 Y96.294653   I0.125804 J0.127551
G03 X45.810547 Y96.796231   I-0.859978 J1.179316
G03 X46.058854 Y97.930817   I-1.946248 J1.020406
G03 X45.703125 Y98.868497   I-1.638396 J-0.085244
G02 X45.512534 Y99.402255   I0.684157 J0.545200
G02 X45.693325 Y99.651700   I0.257827 J0.003373
G01 X45.693359 Y99.651703  
M300 S50

(End cutting path id: path189)


(Start cutting path id: path189)
(Change tool to Default tool)

M300 S50
G00 X45.458984 Y100.618500

M300 S30
G02 X45.420344 Y100.548740   I-0.082292 J0.000000 F400.000000
G02 X44.650391 Y100.112641   I-5.360794 J8.566994
G02 X44.207504 Y99.991403   I-0.513944 J1.007893
G02 X44.162109 Y100.081391   I-0.003443 J0.054707
G02 X45.164557 Y100.815302   I2.003336 J-1.684777
G02 X45.458984 Y100.618500   I0.081440 J-0.196802
G01 X45.458984 Y100.618500  
M300 S50

(End cutting path id: path189)


(Start cutting path id: path189)
(Change tool to Default tool)

M300 S50
G00 X44.349609 Y101.806000

M300 S30
G02 X45.325955 Y101.935633   I0.769855 J-2.056702 F400.000000
G02 X46.597656 Y101.589203   I-0.362482 J-3.837967
G02 X48.449992 Y99.403701   I-1.456731 J-3.112392
G02 X48.111328 Y96.186859   I-4.219804 J-1.181994
G02 X46.812075 Y94.517101   I-5.280748 J2.768637
G02 X45.832031 Y94.141938   I-0.980044 J1.092510
G03 X45.504407 Y94.110603   I0.000000 J-1.728410
G03 X45.146484 Y94.009125   I0.412593 J-2.137210
G02 X44.329411 Y94.164901   I-0.281558 J0.743913
G02 X43.576172 Y95.438812   I1.695600 J1.862218
G01 X43.412109 Y96.122406  
G01 X44.167969 Y95.378266  
G03 X46.195492 Y94.834995   I1.491816 J1.512496
G03 X47.683594 Y96.294281   I-0.528221 J2.027038
G03 X47.865561 Y97.215493   I-5.694458 J1.603402
G03 X47.941406 Y98.514984   I-11.294418 J1.311162
G03 X47.711626 Y99.729732   I-3.307806 J0.003407
G03 X47.097656 Y100.659516   I-2.502345 J-0.984785
G03 X45.395442 Y101.385417   I-1.772044 J-1.796614
G03 X43.630859 Y100.755216   I-0.071564 J-2.585163
G03 X42.886394 Y99.950461   I3.251555 J-3.754682
G03 X42.615234 Y99.378263   I1.325448 J-0.978468
G02 X42.410938 Y98.890536   I-1.743438 J0.443628
G02 X42.312500 Y98.878263   I-0.054063 J0.032714
G02 X42.274435 Y99.034411   I0.107402 J0.108896
G02 X42.722656 Y100.139981   I7.986587 J-2.594284
G02 X43.519741 Y101.266195   I3.895734 J-1.912052
G02 X44.349609 Y101.805997   I1.630266 J-1.598497
G01 X44.349609 Y101.806000  
M300 S50

(End cutting path id: path189)


(Start cutting path id: path189)
(Change tool to Default tool)

M300 S50
G00 X44.294922 Y103.337245

M300 S30
G03 X43.196572 Y102.969139   I0.476003 J-3.242972 F400.000000
G03 X42.097656 Y102.134120   I2.236389 J-4.083783
G03 X40.746401 Y99.776865   I3.906498 J-3.805250
G03 X40.646484 Y96.868495   I6.039914 J-1.663403
G03 X40.846805 Y96.158134   I4.839615 J0.981342
G03 X40.925781 Y96.102870   I0.078976 J0.028798
G03 X40.980329 Y96.159519   I0.000000 J0.054587
G03 X40.898441 Y96.845057   I-4.257639 J-0.160919
G02 X41.268367 Y100.108107   I5.227122 J1.059905
G02 X43.496097 Y102.571620   I4.967787 J-2.253307
G02 X44.334899 Y102.905485   I1.543235 J-2.656589
G02 X45.437503 Y103.028651   I1.061601 J-4.506697
G03 X46.030278 Y103.140297   I0.013706 J1.556698
G03 X46.033206 Y103.266933   I-0.025624 J0.063945
G03 X45.474705 Y103.399810   I-0.617776 J-1.356435
G03 X44.294925 Y103.337243   I-0.253614 J-6.372217
G01 X44.294922 Y103.337245  
M300 S50

(End cutting path id: path189)


(Start cutting path id: path189)
(Change tool to Default tool)

M300 S50
G00 X44.960938 Y103.698573

M300 S30
G02 X46.937897 Y103.273208   I0.000000 J-4.806818 F400.000000
G02 X47.363281 Y102.614589   I-0.297176 J-0.658619
G02 X47.239834 Y102.397593   I-0.252442 J-0.000000
G02 X46.970703 Y102.382167   I-0.149414 J0.251345
G03 X46.563996 Y102.507740   I-0.713882 J-1.590719
G03 X45.390625 Y102.663417   I-2.307752 J-12.894211
G03 X44.260979 Y102.564794   I-0.283940 J-3.266578
G03 X43.335938 Y102.114589   I0.695030 J-2.603537
G03 X41.304790 Y98.848221   I3.201403 J-4.255456
G03 X41.917969 Y94.614589   I6.473414 J-1.223642
G03 X42.717557 Y93.389821   I6.273665 J3.222368
G03 X43.445312 Y92.733729   I2.464970 J2.002539
G03 X45.144209 Y92.145734   I2.022436 J3.095123
G03 X46.779297 Y92.440761   I0.276408 J3.146581
G02 X46.861235 Y92.412285   I0.026551 J-0.055725
G02 X46.839847 Y92.317714   I-0.069213 J-0.034051
G02 X45.338792 Y91.816004   I-1.445981 J1.829857
G02 X43.328128 Y92.399744   I0.096546 J4.087236
G02 X41.126524 Y94.761458   I3.021626 J5.023809
G02 X40.244144 Y98.452478   I7.209751 J3.674553
G02 X40.718218 Y100.873448   I6.484590 J-0.012909
G02 X41.892581 Y102.524744   I4.059686 J-1.643916
G02 X43.344257 Y103.399673   I3.174839 J-3.625900
G02 X44.960941 Y103.698572   I1.616684 J-4.222710
G01 X44.960938 Y103.698573  
M300 S50

(End cutting path id: path189)


(Start cutting path id: path189)
(Change tool to Default tool)

M300 S50
G00 X46.537109 Y104.352870

M300 S30
G02 X46.675235 Y104.387529   I0.098465 J-0.099845 F400.000000
G02 X47.757812 Y103.993495   I-2.615577 J-8.870255
G02 X49.215495 Y102.963978   I-1.765427 J-4.046368
G02 X50.039062 Y101.554042   I-2.686917 J-2.514970
G02 X49.932830 Y101.474461   I-0.067100 J-0.021123
G02 X49.619141 Y101.835292   I0.507232 J0.757731
G03 X48.551007 Y103.214019   I-3.787558 J-1.831198
G03 X46.992188 Y104.059901   I-2.806594 J-3.312818
G02 X46.546224 Y104.265128   I0.506188 J1.687117
G02 X46.537109 Y104.352870   I0.030530 J0.047516
G01 X46.537109 Y104.352870  
M300 S50

(End cutting path id: path189)


(Start cutting path id: path189)
(Change tool to Default tool)

M300 S50
G00 X45.275391 Y105.589198

M300 S30
G01 X45.274375 Y105.536806   F400.000000
G03 X45.832031 Y105.483729   I0.566586 J2.996801
G03 X46.516499 Y105.533129   I0.012110 J4.598759
G01 X46.517578 Y105.585292  
G03 X45.960964 Y105.638784   I-0.567754 J-2.985131
G03 X45.275391 Y105.589192   I-0.016622 J-4.533808
G01 X45.275391 Y105.589198  
M300 S50

(End cutting path id: path189)


(Start cutting path id: path189)
(Change tool to Default tool)

M300 S50
G00 X45.523438 Y106.837250

M300 S30
G02 X47.826290 Y106.438197   I-0.141656 J-7.661628 F400.000000
G02 X49.857422 Y105.294281   I-1.986976 J-5.903259
G02 X51.697779 Y102.363149   I-3.670973 J-4.348193
G02 X51.798828 Y97.743500   I-9.823541 J-2.525807
G02 X51.237413 Y95.703133   I-17.099495 J3.607571
G02 X51.113281 Y95.735688   I-0.060882 J0.020792
G03 X51.104411 Y100.767918   I-13.402638 J2.492499
G03 X49.615234 Y103.634125   I-5.515992 J-1.045944
G03 X45.674082 Y105.170177   I-3.653181 J-3.549147
G03 X40.808594 Y103.136078   I0.447777 J-7.907147
G02 X40.041991 Y102.582204   I-2.897531 J3.202947
G02 X39.964844 Y102.657562   I-0.027691 J0.048820
G02 X41.300798 Y104.178674   I3.943224 J-2.116010
G02 X43.990234 Y105.542328   I5.775667 J-8.057012
G02 X45.279404 Y105.829327   I2.111142 J-6.444125
G02 X46.384766 Y105.835297   I0.578274 J-4.735476
G02 X49.398270 Y104.371426   I-0.552693 J-4.971481
G02 X51.320312 Y100.817719   I-5.187583 J-5.102359
G01 X51.626953 Y99.409516  
G01 X51.648433 Y100.561859  
G03 X51.393584 Y102.103294   I-4.317215 J0.078011
G03 X50.367183 Y104.120453   I-8.544751 J-3.078155
G03 X48.563559 Y105.778570   I-4.414325 J-2.991693
G03 X46.017573 Y106.561859   I-3.082617 J-5.490319
G03 X44.631021 Y106.463107   I-0.380215 J-4.444989
G03 X42.910151 Y105.843109   I1.748394 J-7.551080
G02 X41.699098 Y105.354507   I-3.629985 J7.252144
G02 X41.640620 Y105.446625   I-0.016851 J0.053923
G02 X43.245501 Y106.487976   I2.818011 J-2.585626
G02 X45.523433 Y106.837250   I2.152481 J-6.435418
G01 X45.523438 Y106.837250  
M300 S50

(End cutting path id: path189)


(Start cutting path id: path189)
(Change tool to Default tool)

M300 S50
G00 X48.017578 Y107.362641

M300 S30
G02 X49.332376 Y107.080819   I0.133628 J-2.584484 F400.000000
G02 X49.681641 Y106.509125   I-0.293255 J-0.571694
G02 X49.612882 Y106.461451   I-0.050907 J0.000000
G02 X48.687500 Y106.882172   I2.607244 J6.962722
G02 X48.002363 Y107.310894   I3.001924 J5.559165
G01 X48.017578 Y107.362641  
G01 X48.017578 Y107.362641  
M300 S50

(End cutting path id: path189)


(Start cutting path id: path189)
(Change tool to Default tool)

M300 S50
G00 X47.648438 Y108.274750

M300 S30
G02 X47.958000 Y108.326991   I0.278052 J-0.704336 F400.000000
G02 X48.123047 Y108.255220   I-0.010394 J-0.249561
G01 X48.107349 Y108.179675  
G02 X47.796875 Y108.128267   I-0.279072 J0.722179
G02 X47.633052 Y108.199418   I0.010050 J0.247314
G01 X47.648438 Y108.274751  
G01 X47.648438 Y108.274750  
M300 S50

(End cutting path id: path189)


(Start cutting path id: path189)
(Change tool to Default tool)

M300 S50
G00 X51.761719 Y105.604828

M300 S30
G01 X51.783129 Y105.608272   F400.000000
G02 X52.037109 Y105.304047   I-5.762027 J-5.068501
G02 X52.366659 Y104.811941   I-2.914360 J-2.308064
G02 X52.414062 Y104.630219   I-0.324617 J-0.181722
G02 X52.301735 Y104.584811   I-0.065342 J0.000000
G02 X51.953125 Y105.106781   I1.264070 J1.221636
G02 X51.761327 Y105.565838   I16.744149 J7.265430
G02 X51.761719 Y105.604828   I0.047330 J0.019021
G01 X51.761719 Y105.604828  
M300 S50

(End cutting path id: path189)


(Start cutting path id: path189)
(Change tool to Default tool)

M300 S50
G00 X47.703125 Y102.718104

M300 S30
G02 X48.468507 Y102.286087   I-0.000000 J-0.894003 F400.000000
G02 X49.443359 Y99.835292   I-6.895373 J-4.162050
G02 X49.645801 Y98.569555   I-11.295498 J-2.455663
G02 X49.630859 Y98.011073   I-2.145492 J-0.222038
G01 X49.545612 Y98.001843  
G02 X49.359375 Y98.706386   I2.989081 J1.167011
G03 X49.027500 Y99.899916   I-4.855165 J-0.707129
G03 X48.382812 Y101.032557   I-5.032301 J-2.114541
G02 X47.558937 Y102.504458   I5.359093 J3.966198
G02 X47.703125 Y102.718104   I0.144188 J0.058167
G01 X47.703125 Y102.718104  
M300 S50

(End cutting path id: path189)


(Start cutting path id: path189)
(Change tool to Default tool)

M300 S50
G00 X52.642578 Y96.960202

M300 S30
G02 X52.435768 Y95.431365   I-4.707021 J-0.141674 F400.000000
G02 X51.353516 Y92.778561   I-15.514870 J4.782365
G02 X50.655123 Y91.586570   I-11.317875 J5.830602
G02 X50.322266 Y91.218014   I-1.383475 J0.914883
G02 X50.170802 Y91.304376   I-0.059151 J0.072260
G02 X50.433594 Y91.946530   I1.461522 J-0.223256
G03 X51.221856 Y93.329738   I-6.025674 J4.350117
G03 X52.189453 Y95.979733   I-21.364843 J9.302632
G02 X52.565910 Y96.975881   I7.113717 J-2.119154
G01 X52.642578 Y96.960202  
G01 X52.642578 Y96.960202  
M300 S50

(End cutting path id: path189)


(Start cutting path id: path189)
(Change tool to Default tool)

M300 S50
G00 X40.632812 Y105.800141

M300 S30
G02 X40.553696 Y105.558069   I-0.741534 J0.108389 F400.000000
G02 X39.919922 Y104.507172   I-9.681137 J5.121938
G03 X39.190895 Y103.237554   I7.810404 J-5.328929
G03 X38.535156 Y101.593109   I12.440618 J-5.913783
G03 X38.092219 Y99.875629   I13.447563 J-4.383973
G03 X37.808594 Y97.815766   I19.336329 J-3.711902
G02 X37.539734 Y96.137807   I-11.316543 J0.952734
G02 X37.428280 Y96.067051   I-0.092111 J0.021934
G02 X37.322703 Y96.179823   I0.027442 J0.131498
G02 X37.199219 Y97.942719   I12.522084 J1.762896
G02 X37.341496 Y99.440260   I7.952334 J0.000000
G02 X37.603516 Y100.054047   I1.542964 J-0.295856
G03 X37.934093 Y100.644659   I-2.578530 J1.831073
G03 X38.005859 Y100.995453   I-0.823798 J0.351273
G02 X38.306966 Y102.319108   I3.066949 J-0.001598
G02 X40.023438 Y105.208344   I17.004116 J-8.147520
G02 X40.577675 Y105.829445   I3.273484 J-2.363246
G01 X40.632812 Y105.800141  
G01 X40.632812 Y105.800141  
M300 S50

(End cutting path id: path189)


(Start cutting path id: path189)
(Change tool to Default tool)

M300 S50
G00 X43.873047 Y115.165376

M300 S30
G03 X43.858107 Y115.052653   I0.005579 J-0.058091 F400.000000
G03 X45.173828 Y114.677095   I2.964370 J7.892798
G02 X50.796880 Y112.370041   I-3.105676 J-15.575702
G02 X54.828125 Y108.325532   I-7.702193 J-11.708200
G03 X55.784042 Y106.917189   I40.179791 J26.243559
G03 X55.845703 Y106.884126   I0.063819 J0.044991
G03 X55.979369 Y107.079825   I0.003819 J0.140890
G03 X55.091797 Y108.667329   I-7.605529 J-3.210373
G02 X54.689596 Y109.381260   I3.117996 J2.226814
G02 X54.537109 Y109.958345   I1.864798 J0.801438
G03 X54.294283 Y110.607318   I-1.407190 J-0.156613
G03 X52.808594 Y112.456392   I-13.631419 J-9.431140
G03 X51.937031 Y113.252122   I-5.255023 J-4.880646
G01 X51.871463 Y113.218449  
G03 X51.933134 Y113.029478   I0.359675 J0.012833
G03 X52.830074 Y111.854829   I10.761379 J7.287416
G01 X54.029293 Y110.458345  
G01 X52.455074 Y111.739595  
G03 X50.826105 Y112.937553   I-12.890207 J-15.821447
G03 X49.412105 Y113.753267   I-7.353575 J-11.113650
G03 X46.069071 Y114.995889   I-7.506304 J-15.076050
G03 X43.873043 Y115.165376   I-1.583626 J-6.207304
G01 X43.873047 Y115.165376  
M300 S50

(End cutting path id: path189)


(Start cutting path id: path189)
(Change tool to Default tool)

M300 S50
G00 X45.148438 Y118.071626

M300 S30
G01 X45.148268 Y118.007033   F400.000000
G03 X45.458984 Y117.946626   I0.310716 J0.768913
G03 X45.769700 Y118.007027   I0.000000 J0.829388
G01 X45.769531 Y118.071626  
G03 X45.458984 Y118.131154   I-0.310546 J-0.780273
G03 X45.148438 Y118.071626   I-0.000000 J-0.839800
G01 X45.148438 Y118.071626  
M300 S50

(End cutting path id: path189)


(Start cutting path id: path189)
(Change tool to Default tool)

M300 S50
G00 X47.943359 Y118.122406

M300 S30
G03 X47.894647 Y117.896288   I0.000215 J-0.118352 F400.000000
G03 X49.681641 Y117.333344   I3.208227 J7.066341
G02 X53.081374 Y116.293838   I-2.898270 J-15.558084
G02 X56.511719 Y114.370453   I-7.705820 J-17.763973
G03 X57.632571 Y113.739516   I3.703062 J5.267389
G03 X57.732422 Y113.835297   I0.030041 J0.068620
G03 X57.049631 Y114.771325   I-2.106440 J-0.819509
G03 X53.656250 Y117.141938   I-18.223998 J-22.472471
G03 X52.604318 Y117.594947   I-2.237786 J-3.748511
G03 X52.507812 Y117.466156   I-0.023426 J-0.082999
G01 X52.460690 Y117.394387  
G02 X50.970703 Y117.698578   I2.263640 J14.888966
G03 X49.297575 Y118.029623   I-3.761660 J-14.618135
G03 X47.943359 Y118.122406   I-1.334957 J-9.555279
G01 X47.943359 Y118.122406  
M300 S50

(End cutting path id: path189)


(Start cutting path id: path189)
(Change tool to Default tool)

M300 S50
G00 X52.333984 Y125.563812

M300 S30
G02 X51.898375 Y125.297485   I-2.229484 J3.157172 F400.000000
G02 X49.619141 Y124.161469   I-29.156550 J55.643482
G02 X46.804795 Y122.895861   I-33.837922 J71.483831
G02 X46.203125 Y122.704438   I-1.304592 J3.059233
G02 X46.162276 Y122.820396   I-0.013096 J0.060560
G02 X50.861328 Y125.038422   I49.711495 J-99.230800
G02 X52.311025 Y125.608634   I7.373629 J-16.618635
G01 X52.333984 Y125.563812  
G01 X52.333984 Y125.563812  
M300 S50

(End cutting path id: path189)


(Start cutting path id: path189)
(Change tool to Default tool)

M300 S50
G00 X61.728516 Y130.776703

M300 S30
G03 X61.012807 Y130.539798   I0.690770 J-3.286431 F400.000000
G03 X58.744141 Y129.401703   I16.190263 J-35.103709
G02 X56.478642 Y128.238518   I-25.907970 J47.672328
G02 X53.156250 Y126.696625   I-48.790699 J100.781292
G03 X49.806539 Y125.207053   I2746.357347 J-6180.461083
G03 X45.955078 Y123.491547   I2532.685930 J-5691.273397
G02 X40.718020 Y121.546286   I-17.860553 J40.062144
G02 X36.763672 Y120.729828   I-6.587745 J21.922144
G03 X33.166090 Y120.288799   I31.197023 J-269.375676
G03 X32.044922 Y120.118500   I3.295621 J-25.472536
G03 X32.040853 Y120.012127   I0.009360 J-0.053622
G03 X32.919922 Y119.895844   I0.930928 J3.656653
G03 X38.788461 Y120.316999   I0.474060 J34.492119
G03 X45.458984 Y121.882172   I-7.301157 J46.113336
G03 X49.510177 Y123.508562   I-8.399023 J26.779987
G03 X55.576172 Y126.889984   I-31.498106 J63.636702
G02 X58.937827 Y128.943857   I115.647025 J-185.506028
G02 X60.697266 Y129.954438   I28.838352 J-48.171177
G03 X61.776631 Y130.674581   I-3.682662 J6.688605
G03 X61.728516 Y130.776703   I-0.036182 J0.045348
G01 X61.728516 Y130.776703  
M300 S50

(End cutting path id: path189)


(Start cutting path id: path189)
(Change tool to Default tool)

M300 S50
G00 X63.951172 Y129.542328

M300 S30
G03 X63.673911 Y129.470191   I-0.007147 J-0.541430 F400.000000
G03 X62.136719 Y128.470062   I8.390292 J-14.577215
G02 X60.356307 Y127.302356   I-12.357869 J16.900994
G02 X58.089844 Y126.100922   I-15.364380 J26.245852
G03 X56.589494 Y125.243622   I5.041176 J-10.564021
G03 X56.636719 Y125.122406   I0.037261 J-0.055291
G03 X59.900097 Y126.174796   I-1.588548 J10.511891
G03 X63.138672 Y128.456391   I-6.486699 J12.646718
G03 X64.002346 Y129.440898   I-4.620402 J4.924406
G03 X63.951172 Y129.542328   I-0.052025 J0.037376
G01 X63.951172 Y129.542328  
M300 S50

(End cutting path id: path189)


(Start cutting path id: path189)
(Change tool to Default tool)

M300 S50
G00 X37.330078 Y116.302095

M300 S30
G03 X37.291645 Y116.226318   I0.010426 J-0.052923 F400.000000
G03 X37.638672 Y115.608735   I4.314926 J2.018316
G01 X38.015625 Y115.042329  
G01 X35.898438 Y114.893892  
G03 X33.795502 Y114.655500   I1.694309 J-24.340657
G03 X31.542969 Y114.206392   I4.410343 J-27.993791
G01 X29.304688 Y113.663422  
G01 X28.687500 Y114.235688  
G03 X28.411728 Y114.211306   I-0.126859 J-0.136909
G03 X28.410156 Y113.868500   I0.228217 J-0.172453
G02 X28.362082 Y113.504197   I-0.212207 J-0.157321
G02 X26.361328 Y112.245453   I-6.757992 J8.522271
G03 X24.001565 Y111.036671   I28.002834 J-57.574381
G03 X23.474609 Y110.688812   I1.677772 J-3.114642
G01 X23.507567 Y110.625509  
G03 X24.320312 Y110.938812   I-1.529953 J5.179708
G01 X25.664062 Y111.585297  
G01 X26.656250 Y111.034516  
G03 X27.672769 Y110.539080   I5.207661 J9.394354
G03 X28.628906 Y110.198578   I3.373995 J7.961577
G01 X29.609375 Y109.913422  
G01 X28.281250 Y108.612641  
G02 X25.330924 Y106.619785   I-6.923895 J7.070155
G02 X22.851562 Y106.231781   I-1.974978 J4.504577
G02 X21.435755 Y106.450762   I1.448459 J14.051319
G02 X20.250000 Y106.770844   I2.095030 J10.117482
G03 X19.053703 Y107.066337   I-2.418866 J-7.223395
G03 X18.990117 Y106.997992   I-0.009004 J-0.055375
G03 X19.091132 Y106.858116   I0.219609 J0.052183
G03 X20.396484 Y106.153656   I6.687567 J10.830312
G03 X23.345474 Y105.391130   I3.528309 J7.561647
G03 X25.748047 Y105.780609   I0.370301 J5.320824
G02 X26.178018 Y105.709333   I0.157528 J-0.382246
G02 X26.191406 Y105.391938   I-0.144628 J-0.165081
G02 X24.838358 Y104.411628   I-3.420378 J3.296977
G02 X22.664062 Y103.688812   I-3.867152 J8.001102
G03 X21.172032 Y103.260081   I1.679663 J-8.655986
G03 X21.136431 Y103.133227   I0.029578 J-0.076724
G03 X21.330935 Y103.029945   I0.210742 J0.162088
G03 X23.164062 Y103.038422   I0.852183 J13.926043
G03 X25.204147 Y103.231156   I-3.022853 J42.890344
G03 X25.771484 Y103.347016   I-0.409142 J3.450449
G02 X26.127160 Y103.239585   I0.095532 J-0.326210
G02 X26.328125 Y102.684906   I-0.655432 J-0.551213
G02 X25.867178 Y101.640467   I-1.428686 J0.006593
G02 X24.865234 Y101.337250   I-0.814588 J0.884699
G03 X24.685386 Y101.073061   I-0.027533 J-0.174568
G03 X25.339844 Y100.530609   I1.077557 J0.634032
G02 X27.799782 Y99.277915   I-3.723460 J-10.353488
G02 X27.656250 Y98.956391   I-0.100509 J-0.147931
G03 X27.129901 Y98.989886   I-0.355520 J-1.434378
G03 X26.671875 Y98.843109   I0.144010 J-1.237423
G03 X26.653576 Y98.648220   I0.057227 J-0.103677
G03 X27.335938 Y98.292328   I1.172545 J1.416051
G02 X27.871519 Y97.992656   I-0.343854 J-1.242982
G02 X27.830078 Y97.831391   I-0.064648 J-0.069344
G03 X27.757335 Y97.618165   I0.032880 J-0.130238
G03 X28.425781 Y97.073578   I1.545112 J1.213995
G02 X29.455085 Y96.307453   I-1.622017 J-3.253721
G02 X30.058594 Y95.335297   I-2.121272 J-1.990278
G01 X30.482422 Y94.202484  
G01 X26.238281 Y92.290375  
G03 X17.471226 Y88.236996   I195.945945 J-435.319364
G03 X17.451172 Y88.118500   I0.031456 J-0.066268
G03 X17.671188 Y88.076802   I0.141063 J0.143011
G03 X28.873047 Y92.999359   I-238.144015 J557.131621
G02 X30.716696 Y93.597540   I3.619980 J-8.016878
G02 X31.064453 Y93.452484   I0.067526 J-0.327496
G03 X31.166828 Y93.439729   I0.056571 J0.036835
G03 X31.214844 Y93.591156   I-0.108843 J0.117839
G02 X31.190703 Y94.066046   I1.456788 J0.312113
G02 X31.275394 Y94.141938   I0.084691 J-0.009309
G02 X32.801003 Y93.490578   I-0.000009 J-2.112334
G02 X32.771487 Y92.579438   I-0.460644 J-0.441126
G02 X31.898680 Y91.987948   I-2.437741 J2.657443
G02 X22.789065 Y87.770844   I-142.104872 J295.021458
G03 X19.979361 Y86.452342   I30.695712 J-69.064954
G01 X19.966800 Y86.374359  
G03 X20.251179 Y86.321089   I0.181686 J0.184214
G03 X29.773441 Y90.614594   I-134.125346 J310.173286
G02 X33.256422 Y91.647090   I5.137482 J-10.939651
G02 X34.361331 Y91.249359   I0.173115 J-1.252682
G02 X34.338024 Y90.828460   I-0.216972 J-0.199080
G02 X33.039065 Y90.095062   I-2.424218 J2.776632
G03 X23.174817 Y86.334433   I29.856007 J-93.130666
G03 X22.605472 Y85.458344   I0.389375 J-0.876089
G01 X22.651428 Y85.428073  
G03 X25.400394 Y86.659516   I-38.893575 J90.506657
G02 X28.344230 Y87.926095   I22.476419 J-48.186245
G02 X34.207034 Y90.138031   I74.762637 J-189.284931
G01 X35.498050 Y90.602875  
G01 X34.281253 Y92.009125  
G02 X31.268513 Y98.268814   I10.042003 J8.687988
G02 X32.029300 Y104.108734   I9.388807 J1.746401
G02 X35.899890 Y108.440428   I9.293865 J-4.409410
G02 X41.607425 Y110.050141   I5.648360 J-9.103890
G01 X42.849612 Y110.042341  
G01 X42.228519 Y109.626325  
G03 X38.759835 Y106.424489   I8.437949 J-12.620992
G03 X36.472659 Y102.350935   I11.666753 J-9.229390
G03 X35.548903 Y97.881518   I14.311970 J-5.288222
G03 X36.027347 Y94.042341   I10.929349 J-0.587370
G01 X36.339847 Y93.040388  
G01 X36.652347 Y93.774763  
G02 X38.521891 Y95.620195   I3.188625 J-1.360585
G02 X39.927737 Y95.122419   I0.425163 J-1.033354
G02 X40.221535 Y93.388852   I-2.367374 J-1.292893
G02 X39.355472 Y91.673201   I-3.173341 J0.525486
G02 X38.619470 Y91.048876   I-3.594846 J3.491889
G02 X38.324222 Y90.956404   I-0.295248 J0.425104
G03 X38.053566 Y90.864247   I-0.000000 J-0.443525
G03 X37.847659 Y90.589216   I0.390494 J-0.506944
G02 X37.653581 Y90.296891   I-0.766291 J0.298163
G02 X37.468753 Y90.222029   I-0.184828 J0.190730
G03 X36.560432 Y90.065049   I0.000000 J-2.706364
G03 X22.289065 Y84.813825   I247.459583 J-694.544759
G03 X20.963050 Y84.247558   I6.287812 J-16.559697
G01 X20.951175 Y84.177107  
G03 X21.060389 Y84.152028   I0.074933 J0.075974
G03 X29.421878 Y87.050154   I-215.723382 J635.902448
G02 X37.779029 Y89.960567   I288.554785 J-815.121135
G02 X37.841800 Y89.934919   I0.016702 J-0.048761
G03 X37.883995 Y89.855050   I1.903584 J0.954576
G03 X38.330081 Y89.057966   I133.848362 J74.384611
G02 X38.555997 Y88.392891   I-1.656837 J-0.933710
G02 X38.443362 Y88.263044   I-0.112635 J-0.016071
G03 X38.107262 Y88.204071   I-0.000000 J-0.987237
G03 X31.983849 Y85.954125   I234.739187 J-648.319751
G03 X25.872443 Y83.642635   I240.538651 J-645.200871
G03 X25.628909 Y83.485701   I0.253569 J-0.660924
G03 X25.599961 Y83.401906   I0.070193 J-0.071147
G01 X25.644539 Y83.362654  
G03 X26.450749 Y83.505764   I0.000000 J2.342447
G03 X37.384774 Y87.667341   I-163.431475 J445.840517
G02 X37.534296 Y87.608340   I0.043211 J-0.109456
G02 X37.509774 Y87.403669   I-0.174633 J-0.082882
G03 X37.488022 Y87.206628   I0.142271 J-0.115427
G03 X37.634774 Y87.151716   I0.102787 J0.051144
G02 X43.519242 Y89.002654   I13.403188 J-32.331799
G02 X44.613289 Y88.686872   I0.256287 J-1.165168
G01 X44.598008 Y88.614027  
G02 X38.349617 Y86.292341   I-128.212181 J335.490522
G03 X32.207044 Y83.997875   I101.122289 J-280.086526
G01 X32.208992 Y83.921247  
G03 X32.764906 Y83.923805   I0.274127 J0.833730
G03 X43.134774 Y87.626325   I-109.976050 J324.389477
G02 X46.160567 Y88.612570   I12.731926 J-33.926765
G02 X47.224617 Y88.763044   I1.104489 J-3.972852
G03 X48.309382 Y88.828405   I-0.106217 J10.797252
G03 X49.433602 Y89.009138   I-1.285323 J11.581992
G02 X50.901813 Y89.222091   I2.389333 J-11.305556
G02 X50.938732 Y89.097430   I0.005296 J-0.066229
G02 X50.101253 Y88.703192   I-3.929673 J7.261154
G02 X45.519539 Y86.889997   I-130.875579 J324.010681
G03 X38.855912 Y84.242295   I153.781107 J-396.739176
G01 X38.841805 Y84.171247  
G03 X39.792485 Y83.965958   I0.636946 J0.645742
G03 X55.146492 Y90.182966   I-90.850740 J246.440308
G03 X55.121437 Y90.346163   I-0.034578 J0.078213
G03 X54.378914 Y90.268906   I-0.194599 J-1.736546
G02 X52.400919 Y89.863749   I-2.713918 J8.218565
G02 X52.166024 Y90.079453   I-0.018408 J0.215704
G02 X52.180275 Y90.141407   I0.141791 J0.000000
G02 X52.919930 Y91.632187   I89.371628 J-43.413104
G03 X54.398537 Y95.624259   I-16.659567 J8.440330
G03 X54.910164 Y99.747421   I-17.277824 J4.237263
G01 X54.921884 Y101.614609  
G01 X55.671884 Y100.181015  
G03 X56.445219 Y98.895210   I11.181648 J5.849640
G03 X56.560556 Y98.884140   I0.062299 J0.042709
G03 X56.600938 Y99.040837   I-0.110477 J0.112022
G03 X56.039071 Y100.645859   I-16.702834 J-4.946271
G02 X55.014387 Y104.088229   I17.316150 J7.028163
G02 X55.298837 Y104.432968   I0.283867 J0.055498
G02 X55.474257 Y104.350788   I-0.000455 J-0.229284
G02 X56.232431 Y103.317734   I-7.753568 J-6.485207
G03 X56.955117 Y102.378960   I5.782299 J3.703769
G01 X57.031726 Y102.416898  
G03 X56.905180 Y102.827327   I-1.738610 J-0.311334
G03 X55.980478 Y104.723984   I-29.478451 J-13.198272
G03 X54.602536 Y106.878417   I-13.682401 J-7.233179
G03 X52.539071 Y109.233749   I-18.398226 J-14.036815
G03 X47.697664 Y112.722159   I-13.279221 J-13.325842
G03 X41.791025 Y114.628281   I-9.135896 J-18.205338
G02 X39.441651 Y115.190732   I2.529620 J15.754224
G02 X38.316415 Y115.743515   I1.318628 J4.105827
G03 X37.469208 Y116.278931   I-7.301091 J-10.614768
G03 X37.330087 Y116.302109   I-0.100385 J-0.173432
G01 X37.330078 Y116.302095  
M300 S50

(End cutting path id: path189)


(Start cutting path id: path189)
(Change tool to Default tool)

M300 S50
G00 X34.998047 Y114.475923

M300 S30
G01 X35.008948 Y114.437587   F400.000000
G02 X33.853516 Y113.741548   I-13.277022 J20.732955
G02 X31.997672 Y113.093771   I-2.718328 J4.805519
G02 X30.677734 Y113.239595   I-0.393296 J2.486721
G02 X30.646906 Y113.409653   I0.037452 J0.094612
G02 X31.197266 Y113.710298   I0.901327 J-0.995899
G02 X34.087593 Y114.391974   I11.849545 J-43.774085
G02 X34.998047 Y114.475923   I0.846305 J-4.199379
G01 X34.998047 Y114.475923  
M300 S50

(End cutting path id: path189)


(Start cutting path id: path189)
(Change tool to Default tool)

M300 S50
G00 X29.123047 Y113.089204

M300 S30
G01 X30.205078 Y112.505220   F400.000000
G01 X31.285156 Y111.923189  
G01 X30.751953 Y111.362642  
G02 X29.662757 Y110.859220   I-1.180726 J1.124607
G02 X27.449219 Y111.177095   I-0.317812 J5.652882
G03 X26.453158 Y111.522710   I-23.750082 J-66.839455
G03 X26.392578 Y111.534517   I-0.074058 J-0.218670
G01 X26.357281 Y111.563282  
G02 X26.332028 Y111.755220   I0.716799 J0.191938
G02 X26.423063 Y111.910068   I0.177213 J0.000000
G02 X27.726559 Y112.530610   I5.528959 J-9.934681
G01 X29.123047 Y113.089204  
M300 S50

(End cutting path id: path189)


(Start cutting path id: path189)
(Change tool to Default tool)

M300 S50
G00 X56.005859 Y63.651703

M300 S30
G03 X55.195031 Y62.968204   I0.378854 J-1.272118 F400.000000
G03 X53.662109 Y59.085297   I22.444286 J-11.104762
G03 X52.361691 Y53.527669   I43.610796 J-13.135359
G03 X51.744141 Y47.712250   I47.021548 J-7.933801
G01 X51.591797 Y44.282560  
G01 X50.744141 Y43.302090  
G03 X48.077381 Y37.500448   I8.678748 J-7.502956
G03 X48.958984 Y31.405610   I10.560606 J-1.583614
G03 X51.632615 Y26.912222   I23.594422 J10.996904
G03 X53.386719 Y25.427090   I4.035683 J2.988124
G03 X54.494372 Y25.210000   I0.933991 J1.831166
G03 X56.451172 Y25.686860   I-0.553021 J6.522641
G02 X59.034044 Y26.129978   I2.265817 J-5.457966
G02 X61.080078 Y25.436860   I-0.214966 J-4.000993
G02 X62.555225 Y23.723485   I-2.477722 J-3.624928
G02 X63.642578 Y20.138030   I-10.856394 J-5.250002
G03 X63.938508 Y18.790617   I8.798165 J1.226124
G03 X64.046875 Y18.802090   I0.053089 J0.016070
G03 X63.890056 Y21.253480   I-8.365557 J0.695555
G03 X62.974609 Y23.815770   I-10.075960 J-2.155230
G03 X60.020475 Y26.568092   I-5.304139 J-2.731527
G03 X56.457031 Y26.608730   I-1.830672 J-4.271960
G02 X54.229778 Y26.249734   I-1.907973 J4.748717
G02 X52.994141 Y26.825530   I0.116500 J1.863718
G02 X51.048561 Y29.161704   I16.527926 J15.742793
G02 X49.705078 Y31.356780   I13.271506 J9.631416
G01 X49.175781 Y32.397800  
G01 X49.695312 Y34.542330  
G02 X50.291081 Y36.662882   I29.905586 J-7.258001
G02 X50.943359 Y38.446620   I22.125069 J-7.079578
G03 X51.646362 Y40.211005   I-71.289836 J29.427014
G03 X51.667969 Y40.327480   I-0.303128 J0.116475
G01 X51.624540 Y40.349157  
G03 X50.955078 Y39.792330   I5.351483 J-7.114828
G02 X50.222780 Y39.160710   I-10.546340 J11.487052
G02 X49.650391 Y38.735690   I-5.343181 J6.597920
G03 X49.302737 Y38.205807   I0.464504 J-0.683747
G03 X49.060547 Y35.626310   I13.615642 J-2.579497
G02 X48.959229 Y33.468662   I-23.025066 J0.000000
G02 X48.855469 Y33.454440   I-0.053545 J0.005040
G02 X48.515624 Y35.341122   I4.787129 J1.836246
G02 X48.904299 Y38.409520   I13.342281 J-0.131253
G02 X49.424215 Y39.470999   I2.710424 J-0.669508
G02 X50.351564 Y40.239590   I2.266795 J-1.791271
G03 X52.470153 Y41.844668   I-3.722374 J7.114004
G03 X52.910158 Y42.952480   I-1.174583 J1.107812
G01 X52.844045 Y42.982750  
G03 X51.410158 Y41.659520   I19.189745 J-22.233031
G02 X49.908137 Y40.302239   I-16.272833 J16.498431
G02 X49.777346 Y40.307950   I-0.062235 J0.075233
G02 X49.715277 Y40.817516   I0.289850 J0.293869
G02 X51.865236 Y43.714200   I17.372492 J-10.647898
G03 X52.923226 Y45.209381   I-6.158625 J5.479751
G03 X53.757814 Y47.143890   I-9.503892 J5.247463
G03 X55.221822 Y54.650912   I-31.062558 J9.954037
G03 X54.519533 Y57.251312   I-4.040053 J0.303938
G01 X53.894533 Y58.161469  
G01 X54.535158 Y60.161469  
G02 X56.280774 Y62.393536   I3.894933 J-1.247458
G02 X57.843752 Y62.204438   I0.663059 J-1.073425
G01 X58.652346 Y61.382172  
G01 X57.115236 Y61.243500  
G03 X55.650584 Y60.285112   I0.165584 J-1.851422
G03 X55.224611 Y57.792328   I3.403414 J-1.864371
G02 X55.532576 Y55.232226   I-29.647290 J-4.864966
G02 X55.644533 Y52.335297   I-37.878589 J-2.914514
G03 X55.742733 Y49.441635   I43.289513 J0.020579
G03 X55.902346 Y48.516940   I4.528504 J0.305551
G03 X56.764339 Y46.894826   I4.163211 J1.172246
G03 X58.343752 Y45.632170   I4.003795 J3.389065
G01 X59.246096 Y45.161470  
G01 X58.353518 Y45.151470  
G03 X56.030991 Y44.632541   I0.069695 J-5.768766
G03 X55.203127 Y43.715930   I0.644403 J-1.414171
G03 X55.280934 Y43.635219   I0.059798 J-0.020213
G03 X56.054690 Y43.969830   I-1.014435 J3.407708
G02 X57.064806 Y44.320650   I1.403695 J-2.412034
G02 X60.300783 Y44.573350   I3.602901 J-25.291693
G02 X63.196463 Y44.380064   I0.257674 J-17.926876
G02 X63.324221 Y44.124130   I-0.025687 J-0.172676
G03 X63.473423 Y43.832521   I0.174512 J-0.094684
G03 X63.992190 Y44.038230   I0.073477 J0.571683
G03 X64.751835 Y45.476192   I-3.131780 J2.574086
G03 X65.585940 Y49.497220   I-24.810968 J7.243709
G03 X65.584626 Y53.144373   I-14.470703 J1.818363
G03 X64.847658 Y55.329248   I-5.768835 J-0.729125
G03 X59.931845 Y61.907625   I-30.482354 J-17.652596
G03 X56.988283 Y63.622216   I-4.400470 J-4.170594
G03 X56.430323 Y63.703384   I-0.690884 J-2.790888
G03 X56.005861 Y63.651516   I-0.059171 J-1.278491
G01 X56.005859 Y63.651703  
M300 S50

(End cutting path id: path189)


(Start cutting path id: path189)
(Change tool to Default tool)

M300 S50
G00 X55.095703 Y48.253270

M300 S30
G03 X54.719577 Y48.290031   I-0.240206 J-0.515126 F400.000000
G03 X54.373047 Y48.042330   I0.137615 J-0.558767
G03 X54.087724 Y46.989797   I1.520882 J-0.977224
G03 X54.451177 Y46.169280   I1.223031 J0.050994
G03 X55.400898 Y46.165222   I0.476935 J0.483546
G03 X55.730474 Y47.409520   I-0.868651 J0.895875
G03 X55.431830 Y47.987853   I-1.623499 J-0.472081
G03 X55.095708 Y48.253270   I-0.729695 J-0.578540
G01 X55.095703 Y48.253270  
M300 S50

(End cutting path id: path189)


(Start cutting path id: path189)
(Change tool to Default tool)

M300 S50
G00 X54.074219 Y46.112640

M300 S30
G03 X54.027446 Y46.033597   I0.026179 J-0.068852 F400.000000
G03 X54.152349 Y45.753270   I0.549231 J0.076728
G03 X54.513698 Y45.503157   I0.639950 J0.538479
G03 X55.115239 Y45.413420   I0.532180 J1.506359
G03 X55.290814 Y45.487306   I-0.011935 J0.273914
G01 X55.271489 Y45.559910  
G02 X54.798165 Y45.723716   I0.576997 J2.433006
G02 X54.537114 Y45.899750   I0.415603 J0.897902
G03 X54.204920 Y46.111434   I-0.729263 J-0.777930
G03 X54.074224 Y46.112640   I-0.066891 J-0.166713
G01 X54.074219 Y46.112640  
M300 S50

(End cutting path id: path189)


(Start cutting path id: path189)
(Change tool to Default tool)

M300 S50
G00 X52.910156 Y44.081390

M300 S30
G03 X52.680306 Y44.175056   I-0.134010 J0.000000 F400.000000
G03 X50.869141 Y41.993500   I12.526238 J-12.242103
G03 X50.516455 Y41.276138   I2.120283 J-1.487801
G03 X50.619141 Y41.190770   I0.068966 J-0.021486
G03 X52.426551 Y42.692300   I-2.661758 J5.042557
G03 X52.910156 Y44.081390   I-1.753185 J1.389090
G01 X52.910156 Y44.081390  
M300 S50

(End cutting path id: path189)


(Start cutting path id: path189)
(Change tool to Default tool)

M300 S50
G00 X55.109375 Y39.909520

M300 S30
G02 X55.451593 Y39.983540   I0.265932 J-0.401390 F400.000000
G02 X55.740234 Y39.792330   I-0.066378 J-0.413666
G02 X55.769702 Y39.580902   I-0.221161 J-0.138592
G02 X55.224609 Y38.018890   I-15.013526 J4.363130
G03 X54.667300 Y36.423578   I14.874781 J-6.091379
G03 X54.265625 Y34.729830   I16.505742 J-4.808870
G02 X54.005420 Y33.735795   I-6.851112 J1.262316
G01 X53.929688 Y33.747410  
G02 X54.181338 Y35.988705   I8.235935 J0.210056
G02 X55.144531 Y38.522800   I11.537197 J-2.935117
G03 X55.485521 Y39.570824   I-3.020036 J1.562097
G03 X55.332031 Y39.749360   I-0.153305 J0.023448
G03 X54.700807 Y39.312021   I0.000740 J-0.675269
G03 X53.597656 Y35.141940   I19.927405 J-7.502541
G02 X53.298397 Y33.764352   I-12.272600 J1.944729
G01 X53.216797 Y33.768890  
G02 X53.274152 Y35.592592   I4.743223 J0.763580
G02 X54.373047 Y38.886080   I17.036762 J-3.854363
G02 X54.793089 Y39.607863   I3.619538 J-1.623279
G02 X55.109375 Y39.909520   I1.003465 J-0.735487
G01 X55.109375 Y39.909520  
M300 S50

(End cutting path id: path189)


(Start cutting path id: path189)
(Change tool to Default tool)

M300 S50
G00 X58.087891 Y43.817720

M300 S30
G02 X58.317173 Y43.608184   I-0.421802 J-0.691764 F400.000000
G02 X58.375000 Y43.432950   I-0.236594 J-0.175234
G02 X58.316104 Y43.247357   I-0.321868 J-0.000000
G02 X57.505859 Y42.200530   I-12.264266 J8.655573
G02 X56.705037 Y41.360287   I-7.561653 J6.405143
G01 X56.636719 Y41.389980  
G02 X56.696995 Y41.583649   I0.341269 J0.000000
G02 X57.371094 Y42.454440   I8.202256 J-5.653235
G03 X58.007545 Y43.478583   I-2.895455 J2.509205
G03 X57.880859 Y43.669280   I-0.126686 J0.053268
G03 X57.677318 Y43.583789   I-0.000000 J-0.285044
G03 X56.886719 Y42.653660   I6.142275 J-6.021931
G02 X56.222700 Y41.886826   I-5.102781 J3.747703
G01 X56.140625 Y41.921230  
G02 X56.883274 Y43.681653   I2.457836 J-0.000000
G02 X58.087891 Y43.817720   I0.689986 J-0.708183
G01 X58.087891 Y43.817720  
M300 S50

(End cutting path id: path189)


(Start cutting path id: path189)
(Change tool to Default tool)

M300 S50
G00 X60.425781 Y44.337250

M300 S30
G03 X57.795145 Y44.163485   I-0.199907 J-16.973149 F400.000000
G03 X56.263672 Y43.733730   I0.879316 J-6.077176
G03 X54.838674 Y42.996286   I4.256997 J-9.971513
G03 X53.878906 Y42.266940   I3.221591 J-5.235553
G03 X53.187020 Y41.327467   I2.123170 J-2.288143
G03 X52.695312 Y39.798190   I5.354636 J-2.565362
G03 X52.430357 Y38.154021   I52.493266 J-9.302648
G03 X52.316406 Y37.177090   I17.359825 J-2.519984
G01 X52.290917 Y37.178012  
G02 X52.300776 Y38.157560   I18.977860 J0.298820
G02 X52.418981 Y40.110854   I39.848255 J-1.431231
G02 X52.519526 Y40.729830   I4.112090 J-0.350301
G01 X52.462171 Y40.763219  
G03 X52.259761 Y40.485690   I0.632013 J-0.673521
G03 X51.974683 Y39.595647   I3.181256 J-1.509621
G03 X51.681636 Y37.255220   I22.203314 J-3.968660
G02 X51.099732 Y34.418356   I-11.134376 J0.805795
G02 X50.646479 Y34.255220   I-0.292301 J0.100901
G03 X50.462792 Y34.325396   I-0.282330 J-0.463511
G01 X50.427729 Y34.296220  
G02 X50.419748 Y34.205008   I-0.525223 J-0.000000
G02 X50.166011 Y32.809900   I-130.224340 J22.964111
G01 X49.904292 Y31.415370  
G01 X51.208979 Y29.554040  
G03 X52.551615 Y27.724230   I42.815959 J30.009021
G03 X53.183589 Y26.983720   I7.463886 J5.729982
G03 X54.339236 Y26.472302   I1.189544 J1.126589
G03 X56.505854 Y26.915420   I0.103704 J5.011317
G02 X57.948040 Y27.389676   I2.940155 J-6.510909
G02 X58.833979 Y27.415420   I0.512832 J-2.391384
G03 X59.317819 Y27.423626   I0.218037 J1.412296
G01 X59.332026 Y27.509120  
G02 X58.625402 Y28.486320   I0.717478 J1.262900
G02 X58.339839 Y32.452480   I15.498355 J3.109241
G02 X58.515228 Y33.028182   I1.256358 J-0.068185
G02 X58.902339 Y33.395840   I0.847725 J-0.504954
G02 X59.398636 Y33.464973   I0.343645 J-0.650994
G02 X59.933589 Y33.177090   I-0.224180 J-1.057553
G02 X60.209613 Y32.634243   I-0.675929 J-0.685291
G02 X60.121089 Y31.927090   I-1.306753 J-0.195534
G02 X59.750094 Y31.259024   I-3.228182 J1.355651
G02 X59.587886 Y31.175140   I-0.162208 J0.114890
G03 X59.245461 Y30.811774   I0.000000 J-0.343029
G03 X59.679686 Y29.632170   I2.169362 J0.128843
G03 X60.065242 Y29.403561   I0.471259 J0.355361
G03 X61.232420 Y29.405610   I0.576691 J3.929517
G02 X62.473119 Y29.508058   I1.385627 J-9.216644
G02 X63.343748 Y29.436810   I0.069981 J-4.499867
G01 X63.346275 Y29.348866  
G02 X62.556639 Y29.247360   I-0.861253 J3.577759
G03 X60.814695 Y28.705322   I0.063842 J-3.275220
G03 X60.847654 Y28.118450   I0.187524 J-0.283830
G03 X62.077762 Y27.844315   I1.146563 J2.247939
G03 X64.066404 Y28.225870   I-0.215131 J6.494372
G02 X65.396970 Y28.631941   I4.739272 J-13.146135
G02 X65.576170 Y28.604780   I0.057193 J-0.227387
G03 X66.384491 Y28.624458   I0.388870 J0.637929
G03 X66.822264 Y29.450480   I-0.560412 J0.826022
G03 X66.738810 Y29.551127   I-0.102418 J-0.000000
G03 X66.353514 Y29.538380   I-0.164054 J-0.870664
G02 X65.929551 Y29.531817   I-0.225571 J0.874573
G02 X65.718748 Y29.680960   I0.073828 J0.327899
G02 X65.740374 Y29.790855   I0.069323 J0.043434
G02 X65.900389 Y29.811820   I0.099556 J-0.138722
G03 X66.247228 Y29.785249   I0.218679 J0.577500
G03 X67.466795 Y30.143850   I-1.716686 J8.091398
G02 X68.685795 Y30.603706   I105.974353 J-279.074677
G02 X69.154295 Y30.774710   I10.208408 J-27.240638
G03 X69.512048 Y30.966604   I-0.451961 J1.272033
G03 X69.517576 Y31.048150   I-0.032349 J0.043153
G03 X69.391784 Y31.084314   I-0.096077 J-0.097335
G03 X67.843748 Y30.675100   I4.413927 J-19.830355
G02 X66.326573 Y30.338145   I-2.878642 J9.377282
G02 X66.294920 Y30.458300   I-0.008684 J0.061959
G03 X66.637668 Y30.849314   I-0.208653 J0.528624
G03 X66.767576 Y32.354790   I-4.644621 J1.159128
G03 X66.061937 Y35.099052   I-7.924875 J-0.574889
G03 X63.726560 Y38.970020   I-18.391676 J-8.455848
G02 X62.399287 Y40.779311   I40.747891 J31.283614
G02 X62.349607 Y40.936820   I0.224848 J0.157509
G03 X62.292392 Y41.084812   I-0.220006 J0.000000
G03 X61.605467 Y41.755180   I-5.943793 J-5.403468
G02 X61.419888 Y42.850028   I0.571191 J0.659970
G02 X62.386717 Y43.114550   I0.616534 J-0.354292
G03 X63.050902 Y43.031316   I0.433216 J0.765314
G03 X63.089842 Y43.305960   I-0.039660 J0.145706
G02 X62.944755 Y43.509560   I0.165391 J0.271354
G02 X62.962889 Y43.886040   I0.708262 J0.154562
G03 X62.827287 Y44.111318   I-0.166122 J0.053457
