%
(Header)
(Generated by gcodetools from Inkscape.)
(Using default header. To add your own header create file "header" in the output dir.)
M3
(Header end.)
G21 (All units in mm)

(Start cutting path id: path244)
(Change tool to Default tool)

M300 S50
G00 X17.480469 Y35.023438

M300 S30
G03 X17.594200 Y34.801351 I0.273704 J-0.000000 F400.000000
G03 X18.843750 Y34.042969 I5.430705 J7.539311
G03 X20.588232 Y33.404951 I3.606791 J7.157856
G03 X22.968750 Y33.058594 I3.109125 J13.015213
G03 X23.546809 Y33.029058 I4.597211 J84.303064
G03 X23.724609 Y33.021485 I0.838232 J17.588354
G03 X24.510120 Y33.030394 I0.301709 J8.032077
G03 X27.320312 Y33.238282 I-6.229371 J103.305352
G02 X30.313057 Y33.429246 I5.518662 J-62.940856
G02 X31.746094 Y33.416016 I0.582234 J-14.552140
G02 X32.656036 Y33.351223 I-2.109431 J-36.046351
G02 X33.035156 Y33.306641 I-0.478844 J-5.706339
G03 X33.410393 Y33.258919 I1.185094 J7.819268
G01 X33.431641 Y33.265625 
G03 X33.396709 Y33.384575 I-0.044625 J0.051499
G03 X31.167969 Y33.591797 I-3.184115 J-22.157132
G02 X30.257630 Y33.637085 I2.772486 J64.901463
G02 X28.902344 Y33.720703 I7.862023 J138.453674
G03 X27.546320 Y33.804501 I-9.412989 J-141.307792
G03 X24.968750 Y33.945312 I-31.292498 J-549.151719
G02 X19.459209 Y34.289428 I14.199058 J271.615537
G02 X18.837891 Y34.390625 I0.256798 J3.534596
G02 X18.332548 Y34.569859 I0.735453 J2.875592
G02 X17.712891 Y34.908203 I2.156054 J4.685291
G03 X17.494621 Y35.032173 I-1.305838 J-2.045023
G01 X17.480469 Y35.023438 
G01 X17.480469 Y35.023438 
M300 S50

(End cutting path id: path244)


(Start cutting path id: path244)
(Change tool to Default tool)

M300 S50
G00 X11.205078 Y33.214844

M300 S30
G03 X11.053649 Y33.208250 I-0.072693 J-0.072687 F400.000000
G03 X10.412109 Y32.269531 I4.413755 J-3.705033
G02 X10.000445 Y31.607313 I-6.167400 J3.374863
G02 X8.330078 Y29.302734 I-75.105255 J52.678922
G02 X7.300414 Y27.983033 I-33.713890 J25.242880
G02 X6.234375 Y26.724609 I-31.399358 J25.518365
G03 X5.649427 Y26.054574 I60.603849 J-53.498164
G03 X5.550781 Y25.931641 I1.658492 J-1.431880
G02 X5.445812 Y25.815251 I-0.672515 J0.500997
G02 X4.701172 Y25.150391 I-23.291325 J25.336732
G03 X3.403369 Y23.983648 I31.907220 J-36.796511
G03 X3.121094 Y23.677734 I1.884203 J-2.021794
G01 X3.160202 Y23.636753 
G03 X4.011719 Y24.318359 I-6.131435 J8.532574
G02 X5.256955 Y25.395907 I40.181035 J-45.175724
G02 X6.767578 Y26.636719 I52.183553 J-61.990769
G03 X8.567679 Y28.215403 I-16.876089 J21.058665
G03 X9.199219 Y28.968750 I-3.132889 J3.267723
G03 X9.645798 Y29.778512 I-4.534872 J3.028981
G03 X10.103516 Y31.001953 I-9.770381 J4.352670
G02 X10.660144 Y32.423165 I9.562357 J-2.925561
G02 X11.091797 Y33.046875 I2.202543 J-1.063096
G03 X11.207407 Y33.190615 I-0.798820 J0.760858
G01 X11.205078 Y33.214844 
G01 X11.205078 Y33.214844 
M300 S50

(End cutting path id: path244)


(Start cutting path id: path244)
(Change tool to Default tool)

M300 S50
G00 X9.546875 Y21.175781

M300 S30
G03 X8.463500 Y20.963185 I1.544490 J-10.737314 F400.000000
G03 X8.023438 Y20.794922 I0.474618 J-1.900867
G01 X8.033959 Y20.758747 
G03 X8.488281 Y20.832032 I-0.232351 J2.885314
G02 X9.665232 Y21.033724 I2.031189 J-8.317935
G02 X11.115234 Y21.095704 I1.266053 J-12.626797
G03 X12.072394 Y21.102803 I0.316107 J21.909933
G01 X12.087891 Y21.125004 
G03 X11.828011 Y21.316099 I-0.265477 J-0.088777
G03 X9.546875 Y21.175784 I-0.280893 J-14.046145
G01 X9.546875 Y21.175781 
M300 S50

(End cutting path id: path244)


(Start cutting path id: path244)
(Change tool to Default tool)

M300 S50
G00 X11.791016 Y20.408203

M300 S30
G03 X10.571538 Y20.213165 I-0.018167 J-3.796342 F400.000000
G03 X9.371094 Y19.599609 I1.422422 J-4.264149
G02 X8.812042 Y19.221962 I-6.807587 J9.475040
G02 X8.617187 Y19.121094 I-0.672287 J1.060062
G03 X8.426094 Y19.026253 I0.575716 J-1.399941
G01 X8.412109 Y19.001953 
G01 X8.454587 Y18.966706 
G03 X8.945312 Y19.103516 I-0.593481 J3.077267
G02 X9.247611 Y19.173083 I0.423443 J-1.148446
G01 X9.277344 Y19.136716 
G02 X9.165768 Y18.889272 I-1.045222 J0.322427
G02 X8.869141 Y18.466794 I-3.437602 J2.098214
G03 X8.642784 Y18.164196 I4.331785 J-3.476323
G01 X8.644531 Y18.144528 
G03 X8.737952 Y18.126764 I0.059763 J0.059759
G03 X9.257812 Y18.410153 I-1.319288 J3.038676
G03 X9.454878 Y18.546982 I-3.639061 J5.451405
G03 X9.677734 Y18.714841 I-4.014371 J5.561517
G02 X10.494816 Y19.131032 I1.463279 J-1.862604
G02 X11.140625 Y19.128903 I0.319196 J-1.125638
G02 X11.486996 Y18.931973 I-0.239786 J-0.824821
G02 X12.162109 Y18.175778 I-3.808170 J-4.079305
G03 X13.016921 Y17.269079 I4.248529 J3.149104
G03 X13.521484 Y17.037106 I0.678287 J0.810615
G02 X13.616271 Y16.985509 I-0.027098 J-0.162645
G01 X13.609374 Y16.941406 
G01 X13.625666 Y16.900949 
G03 X14.634765 Y17.197266 I-3.058395 J12.281647
G02 X15.415281 Y17.454131 I14.290809 J-42.110114
G02 X15.679687 Y17.529297 I1.316724 J-4.129121
G03 X15.934309 Y17.619141 I-0.347928 J1.391773
G03 X16.117187 Y17.732422 I-0.373871 J0.807823
G02 X16.221354 Y17.787687 I0.197408 J-0.246285
G01 X16.236327 Y17.769532 
G03 X16.222100 Y17.702956 I0.108214 J-0.057934
G01 X16.242227 Y17.689452 
G03 X16.427312 Y17.852013 I-0.098653 J0.298967
G03 X16.615273 Y18.462890 I-1.932081 J0.928839
G03 X16.599472 Y19.198757 I-2.147159 J0.321998
G03 X16.447305 Y19.324218 I-0.152167 J-0.029548
G03 X16.412889 Y19.315166 I0.000000 J-0.069950
G03 X16.279336 Y19.228518 I0.641032 J-1.134292
G02 X15.801995 Y19.072306 I-0.473989 J0.640962
G02 X15.261758 Y19.232418 I0.004228 J1.005733
G02 X15.237543 Y19.281125 I0.028767 J0.044674
G02 X15.273478 Y19.386715 I0.222969 J-0.016971
G02 X15.462363 Y19.545705 I0.359779 J-0.235733
G02 X16.013712 Y19.707027 I0.923179 J-2.132310
G03 X16.545871 Y19.846295 I-0.462818 J2.854832
G01 X16.558634 Y19.906246 
G03 X16.410359 Y19.985568 I-0.212307 J-0.218615
G03 X15.013712 Y20.238277 I-4.561912 J-21.226554
G03 X13.925909 Y20.346843 I-1.701913 J-11.548739
G03 X11.791056 Y20.408199 I-2.350834 J-44.624544
G01 X11.791016 Y20.408203 
M300 S50

(End cutting path id: path244)


(Start cutting path id: path244)
(Change tool to Default tool)

M300 S50
G00 X10.792966 Y17.513676

M300 S30
G02 X10.798140 Y17.447801 I-0.053315 J-0.037328 F400.000000
G02 X10.744136 Y17.414066 I-0.054004 J0.026359
G03 X10.637537 Y17.386051 I0.000000 J-0.216818
G03 X10.468745 Y17.257816 I0.385169 J-0.682190
G03 X10.356497 Y17.086904 I0.356504 J-0.356452
G03 X10.339839 Y16.935551 I0.268036 J-0.106093
G03 X10.507181 Y16.631794 I0.505081 J0.080280
G03 X10.886714 Y16.455082 I0.490692 J0.557955
G03 X11.102615 Y16.441449 I0.186003 J1.229247
G03 X11.474604 Y16.468752 I-0.091166 J3.789786
G02 X11.843549 Y16.481704 I0.258365 J-2.098329
G02 X12.107417 Y16.435552 I-0.058120 J-1.109674
G03 X12.675976 Y16.296077 I1.588439 J5.246566
G03 X13.369136 Y16.197271 I1.430414 J7.554092
G03 X14.487747 Y16.191497 I0.590982 J6.133791
G03 X14.589839 Y16.302739 I-0.009560 J0.111242
G01 X14.573455 Y16.320240 
G03 X13.734370 Y16.359379 I-1.433993 J-21.728974
G02 X12.588739 Y16.476866 I0.210404 J7.696017
G02 X11.685542 Y16.724613 I0.911039 J5.091561
G03 X11.251988 Y16.871677 I-2.562241 J-6.841047
G03 X11.205073 Y16.871098 I-0.022548 J-0.074021
G01 X11.201869 Y16.851408 
G03 X11.417964 Y16.712895 I1.055135 J1.408303
G01 X11.679683 Y16.572270 
G01 X11.289057 Y16.570270 
G02 X10.673666 Y16.700825 I-0.004451 J1.494670
G02 X10.478511 Y16.933552 I0.142146 J0.317385
G02 X10.483977 Y17.044104 I0.184487 J0.046289
G02 X10.562491 Y17.167927 I0.315516 J-0.113259
G02 X10.807393 Y17.264427 I0.233453 J-0.233456
G02 X11.123038 Y17.148397 I-0.018673 J-0.538147
G03 X12.275114 Y16.665753 I1.437497 J1.814988
G03 X14.056632 Y16.785115 I0.581256 J4.679097
G03 X15.971411 Y17.345807 I-9.246153 J35.125730
G03 X16.167960 Y17.466756 I-0.149586 J0.463262
G01 X16.146483 Y17.505605 
G03 X15.080069 Y17.224568 I3.106526 J-13.951710
G02 X13.646088 Y16.850362 I-5.282833 J17.309480
G02 X12.968741 Y16.765584 I-0.809473 J3.719151
G01 X12.435538 Y16.748004 
G01 X12.744132 Y16.818314 
G03 X12.937473 Y16.900762 I-0.127665 J0.567290
G01 X12.923819 Y16.937455 
G02 X12.656204 Y16.916143 I-0.353711 J2.750676
G02 X12.197257 Y16.914015 I-0.269748 J8.684933
G02 X11.600772 Y17.043603 I0.034664 J1.597141
G02 X11.009757 Y17.425734 I0.832425 J1.935559
G03 X10.819105 Y17.546402 I-0.431702 J-0.471128
G01 X10.792960 Y17.513624 
G01 X10.792966 Y17.513676 
M300 S50

(End cutting path id: path244)


(Start cutting path id: path244)
(Change tool to Default tool)

M300 S50
G00 X11.583984 Y16.203118

M300 S30
G02 X11.823480 Y15.651126 I-2.321436 J-1.335168 F400.000000
G02 X11.978516 Y14.912102 I-4.017138 J-1.228508
G03 X12.041668 Y14.595733 I1.999230 J0.234590
G01 X12.068356 Y14.595696 
G03 X12.084694 Y15.263867 I-1.270504 J0.365351
G03 X11.699216 Y16.162102 I-2.743812 J-0.645676
G03 X11.608965 Y16.233073 I-0.150515 J-0.098533
G01 X11.583981 Y16.203122 
G01 X11.583984 Y16.203118 
M300 S50

(End cutting path id: path244)


(Start cutting path id: path244)
(Change tool to Default tool)

M300 S50
G00 X12.896484 Y15.937490

M300 S30
G01 X12.868855 Y15.967270 F400.000000
G03 X12.775391 Y15.886710 I0.077078 J-0.183921
G03 X12.438406 Y14.865385 I2.050802 J-1.242915
G03 X12.503906 Y12.972647 I7.436814 J-0.690146
G03 X12.826409 Y11.528291 I12.607063 J2.056783
G03 X13.259766 Y10.324210 I9.078646 J2.587444
G03 X13.449445 Y9.918209 I8.639938 J3.789159
G01 X13.462891 Y9.916007 
G01 X13.467773 Y9.935900 
G03 X13.279297 Y10.499991 I-15.407112 J-4.834355
G02 X12.549825 Y13.299065 I15.877733 J5.632520
G02 X12.542969 Y14.814444 I4.561974 J0.778343
G02 X12.688777 Y15.430010 I4.301692 J-0.693883
G02 X12.896484 Y15.937491 I3.144635 J-0.990821
G01 X12.896484 Y15.937490 
M300 S50

(End cutting path id: path244)


(Start cutting path id: path244)
(Change tool to Default tool)

M300 S50
G00 X14.759766 Y14.431635

M300 S30
G03 X14.782507 Y14.458405 I-2.643512 J2.268685 F400.000000
G02 X14.804686 Y14.484365 I1.662369 J-1.397802
G01 X14.802686 Y14.486365 
G03 X14.730367 Y14.422264 I0.495870 J-0.632289
G01 X14.724556 Y14.408235 
G01 X14.733647 Y14.406714 
G01 X14.759716 Y14.431675 
G01 X14.759766 Y14.431635 
M300 S50

(End cutting path id: path244)


(Start cutting path id: path244)
(Change tool to Default tool)

M300 S50
G00 X14.984375 Y13.785150

M300 S30
G02 X15.172257 Y14.054077 I8.179970 J-5.514731 F400.000000
G03 X15.429688 Y14.412103 I-58.465213 J42.309698
G02 X15.346594 Y14.308143 I-1.342626 J0.987959
G03 X15.273438 Y14.214838 I0.908992 J-0.788028
G03 X15.027300 Y13.852871 I9.692768 J-6.855756
G03 X14.984375 Y13.785150 I2.432219 J-1.589140
G01 X14.984375 Y13.785150 
M300 S50

(End cutting path id: path244)


(Start cutting path id: path244)
(Change tool to Default tool)

M300 S50
G00 X15.906250 Y14.033201

M300 S30
G03 X16.005602 Y14.161836 I-7.720259 J6.065477 F400.000000
G02 X16.095703 Y14.277342 I4.459801 J-3.385991
G01 X16.156253 Y14.369142 
G03 X16.099369 Y14.300708 I0.292976 J-0.301384
G02 X15.906253 Y14.033204 I-3.627899 J2.415595
G01 X15.906250 Y14.033201 
M300 S50

(End cutting path id: path244)


(Start cutting path id: path244)
(Change tool to Default tool)

M300 S50
G00 X16.298828 Y14.539060

M300 S30
G02 X16.310707 Y14.552946 I0.384881 J-0.317210 F400.000000
G03 X16.322268 Y14.566400 I-0.413201 J0.366778
G01 X16.322884 Y14.570421 
G01 X16.312468 Y14.576200 
G03 X16.240149 Y14.512099 I0.495870 J-0.632289
G01 X16.234338 Y14.498070 
G01 X16.249599 Y14.491668 
G02 X16.298788 Y14.539090 I2.562797 J-2.609079
G01 X16.298828 Y14.539060 
M300 S50

(End cutting path id: path244)


(Start cutting path id: path244)
(Change tool to Default tool)

M300 S50
G00 X16.466797 Y14.753904

M300 S30
G03 X16.481988 Y14.773213 I-0.186332 J0.162219 F400.000000
G02 X16.496097 Y14.791014 I0.173609 J-0.123115
G01 X16.490197 Y14.796914 
G03 X16.417878 Y14.732813 I0.495870 J-0.632289
G01 X16.412067 Y14.718784 
G01 X16.426169 Y14.713830 
G02 X16.466757 Y14.753944 I0.193073 J-0.154763
G01 X16.466797 Y14.753904 
M300 S50

(End cutting path id: path244)


(Start cutting path id: path244)
(Change tool to Default tool)

M300 S50
G00 X16.632812 Y14.968748

M300 S30
G03 X16.653390 Y14.996368 I-0.078526 J0.079980 F400.000000
G02 X16.669922 Y15.017578 I0.067892 J-0.035870
G01 X16.667922 Y15.019578 
G03 X16.595603 Y14.955477 I0.495870 J-0.632289
G01 X16.589792 Y14.941448 
G01 X16.601689 Y14.938394 
G02 X16.632762 Y14.968788 I0.065755 J-0.036142
G01 X16.632812 Y14.968748 
M300 S50

(End cutting path id: path244)


(Start cutting path id: path244)
(Change tool to Default tool)

M300 S50
G00 X16.890625 Y15.287103

M300 S30
G01 X16.907206 Y15.286104 F400.000000
G01 X16.908205 Y15.269523 
G02 X16.830081 Y15.199241 I-0.239952 J0.188163
G01 X16.812505 Y15.208973 
G01 X16.818296 Y15.222961 
G02 X16.890635 Y15.287103 I0.567202 J-0.566823
G01 X16.890625 Y15.287103 
M300 S50

(End cutting path id: path244)


(Start cutting path id: path244)
(Change tool to Default tool)

M300 S50
G00 X16.656250 Y15.910150

M300 S30
G02 X16.537095 Y15.806134 I-0.371541 J0.305361 F400.000000
G01 X16.501953 Y15.814450 
G01 X16.473530 Y15.824393 
G03 X16.441403 Y15.792970 I0.018192 J-0.050734
G03 X16.440747 Y15.753851 I0.053280 J-0.020459
G01 X16.457033 Y15.748050 
G01 X16.485753 Y15.726190 
G02 X16.419923 Y15.621097 I-0.218713 J0.063836
G02 X16.339307 Y15.571594 I-0.172999 J0.191337
G01 X16.308595 Y15.578127 
G01 X16.279699 Y15.583021 
G03 X16.222655 Y15.537107 I0.070492 J-0.145974
G03 X15.847821 Y15.018786 I6.365736 J-4.998204
G02 X15.429687 Y14.412107 I-18.186255 J12.086855
G02 X16.267605 Y15.530457 I64.904970 J-47.756639
G01 X16.308593 Y15.533201 
G01 X16.310323 Y15.512502 
G02 X15.861327 Y14.906248 I-16.302879 J11.604646
G03 X15.397891 Y14.297914 I57.205476 J-44.060523
G03 X15.121093 Y13.923826 I21.361553 J-16.095435
G02 X14.842298 Y13.554716 I-10.075663 J7.320475
G01 X14.826171 Y13.546873 
G01 X14.818617 Y13.563877 
G03 X14.984374 Y13.785154 I-1.119305 J1.011186
G02 X14.441692 Y13.055517 I-8.141488 J5.488767
G03 X14.412108 Y12.972654 I0.101258 J-0.082863
G03 X14.421241 Y12.933469 I0.088624 J0.000000
G01 X14.433598 Y12.925784 
G03 X14.722520 Y13.085944 I-0.000000 J0.340681
G03 X14.693363 Y13.341800 I-0.175413 J0.109600
G01 X14.691520 Y13.358451 
G01 X14.710943 Y13.369140 
G01 X14.748431 Y13.387081 
G03 X15.240239 Y14.025390 I-14.537722 J11.709729
G02 X15.729050 Y14.676464 I36.119408 J-26.608580
G02 X16.216802 Y15.304687 I44.411982 J-33.977968
G03 X16.667883 Y15.901172 I-14.816309 J11.673381
G01 X16.656255 Y15.910155 
G01 X16.656250 Y15.910150 
M300 S50

(End cutting path id: path244)


(Start cutting path id: path244)
(Change tool to Default tool)

M300 S50
G00 X15.714844 Y15.525385

M300 S30
G01 X15.476562 Y15.281244 F400.000000
G03 X15.253838 Y15.031531 I2.648339 J-2.586289
G01 X15.248047 Y15.001947 
G01 X15.242300 Y14.979870 
G01 X15.214847 Y14.968747 
G01 X15.176189 Y14.949181 
G02 X14.804691 Y14.484372 I-5.915255 J4.346887
G01 X14.817015 Y14.483912 
G01 X14.818361 Y14.468742 
G02 X14.774793 Y14.436701 I-0.079297 J0.062183
G02 X14.759771 Y14.431632 I-0.075985 J0.200391
G03 X14.613963 Y14.261165 I50.369635 J-43.231114
G03 X14.490239 Y14.111319 I4.709582 J-4.014568
G01 X14.689458 Y14.324210 
G01 X14.476567 Y14.058585 
G02 X14.239638 Y13.783030 I-3.953178 J3.159398
G01 X14.228521 Y13.791007 
G02 X14.280431 Y13.868308 I0.442591 J-0.241130
G02 X14.464849 Y14.082022 I3.895719 J-3.175277
G02 X14.169272 Y13.754818 I-2.665116 J2.110404
G01 X14.166021 Y13.728507 
G01 X14.168014 Y13.695107 
G02 X14.123051 Y13.636707 I-0.152132 J0.070620
G03 X14.068531 Y13.575356 I0.173606 J-0.209177
G03 X14.056641 Y13.535144 I0.062055 J-0.040212
G03 X14.375263 Y13.419727 I0.180215 J0.000000
G03 X14.871094 Y14.511707 I-1.733840 J1.445837
G02 X14.886169 Y14.543009 I0.059761 J-0.009500
G02 X15.000000 Y14.652332 I0.889055 J-0.811790
G03 X15.098445 Y14.759087 I-0.370730 J0.440639
G01 X15.099610 Y14.794910 
G01 X15.098087 Y14.822629 
G01 X15.119140 Y14.835930 
G01 X15.155738 Y14.851946 
G03 X15.439452 Y15.181633 I-4.540078 J4.193910
G01 X15.714844 Y15.525385 
M300 S50

(End cutting path id: path244)


(Start cutting path id: path244)
(Change tool to Default tool)

M300 S50
G00 X16.937500 Y12.925781

M300 S30
G01 X16.941865 Y12.917736 F400.000000
G02 X16.878910 Y12.835941 I-0.544588 J0.354028
G02 X16.796209 Y12.755077 I-0.703284 J0.636538
G01 X16.777348 Y12.748051 
G01 X16.773188 Y12.755882 
G02 X16.835938 Y12.835941 I0.596425 J-0.402857
G02 X16.918610 Y12.918515 I0.860274 J-0.778628
G01 X16.937500 Y12.925781 
G01 X16.937500 Y12.925781 
M300 S50

(End cutting path id: path244)


(Start cutting path id: path244)
(Change tool to Default tool)

M300 S50
G00 X16.667969 Y12.619141

M300 S30
G01 X16.684132 Y12.618699 F400.000000
G01 X16.685549 Y12.603511 
G02 X16.607340 Y12.531577 I-0.258965 J0.203073
G01 X16.589849 Y12.541011 
G01 X16.595640 Y12.555001 
G02 X16.667979 Y12.619141 I0.566057 J-0.565553
G01 X16.667969 Y12.619141 
M300 S50

(End cutting path id: path244)


(Start cutting path id: path244)
(Change tool to Default tool)

M300 S50
G00 X15.779297 Y12.353516

M300 S30
G03 X15.706960 Y12.289377 I0.494699 J-0.630797 F400.000000
G01 X15.701167 Y12.275386 
G01 X15.718744 Y12.265654 
G03 X15.796867 Y12.335936 I-0.161904 J0.258529
G01 X15.795868 Y12.352517 
G01 X15.779287 Y12.353516 
G01 X15.779297 Y12.353516 
M300 S50

(End cutting path id: path244)


(Start cutting path id: path244)
(Change tool to Default tool)

M300 S50
G00 X18.980469 Y13.685542

M300 S30
G01 X18.995210 Y13.684654 F400.000000
G01 X18.996099 Y13.669912 
G02 X18.919513 Y13.600018 I-0.246838 J0.193563
G01 X18.902349 Y13.609362 
G01 X18.908209 Y13.623035 
G02 X18.980479 Y13.685532 I0.685896 J-0.720128
G01 X18.980469 Y13.685542 
M300 S50

(End cutting path id: path244)


(Start cutting path id: path244)
(Change tool to Default tool)

M300 S50
G00 X19.246094 Y13.998042

M300 S30
G01 X19.262675 Y13.997043 F400.000000
G01 X19.263674 Y13.980462 
G02 X19.185550 Y13.910180 I-0.239952 J0.188163
G01 X19.167974 Y13.919912 
G01 X19.173765 Y13.933902 
G02 X19.246104 Y13.998042 I0.566057 J-0.565553
G01 X19.246094 Y13.998042 
M300 S50

(End cutting path id: path244)


(Start cutting path id: path244)
(Change tool to Default tool)

M300 S50
G00 X19.650391 Y14.435542

M300 S30
G01 X19.654397 Y14.427628 F400.000000
G02 X19.568361 Y14.324214 I-0.899770 J0.661077
G02 X19.460541 Y14.221849 I-0.949802 J0.892450
G01 X19.441408 Y14.214839 
G01 X19.437565 Y14.222576 
G02 X19.523438 Y14.324214 I1.006138 J-0.762979
G02 X19.631233 Y14.428336 I1.125611 J-1.057459
G01 X19.650391 Y14.435542 
G01 X19.650391 Y14.435542 
M300 S50

(End cutting path id: path244)


(Start cutting path id: path244)
(Change tool to Default tool)

M300 S50
G00 X20.146484 Y14.957026

M300 S30
G01 X20.141953 Y14.946086 F400.000000
G02 X19.935547 Y14.746089 I-6.396575 J6.395052
G01 X19.724609 Y14.546870 
G01 X19.921875 Y14.757807 
G02 X20.132830 Y14.963156 I2.377032 J-2.230893
G01 X20.146484 Y14.957026 
G01 X20.146484 Y14.957026 
M300 S50

(End cutting path id: path244)


(Start cutting path id: path244)
(Change tool to Default tool)

M300 S50
G00 X20.722656 Y15.626956

M300 S30
G02 X21.618245 Y16.537545 I19.740447 J-18.519553 F400.000000
G02 X22.679688 Y17.525394 I24.497121 J-25.257952
G02 X22.296811 Y17.199786 I-13.563966 J15.561687
G03 X21.796875 Y16.755862 I6.362342 J-7.668593
G03 X21.347824 Y16.298254 I6.280886 J-6.612573
G02 X20.722656 Y15.626956 I-37.492563 J34.289390
G01 X20.722656 Y15.626956 
M300 S50

(End cutting path id: path244)


(Start cutting path id: path244)
(Change tool to Default tool)

M300 S50
G00 X19.660156 Y15.876956

M300 S30
G02 X19.099989 Y16.903918 I-0.157730 J0.580220 F400.000000
G02 X19.849609 Y16.087894 I0.370837 J-0.411662
G03 X19.715846 Y15.946763 I1.119443 J-1.194953
G02 X19.574219 Y15.794925 I-1.545643 J1.299732
G02 X19.617441 Y15.836243 I7.180969 J-7.468609
G03 X19.660159 Y15.876955 I-14.904841 J15.682020
G01 X19.660156 Y15.876956 
M300 S50

(End cutting path id: path244)


(Start cutting path id: path244)
(Change tool to Default tool)

M300 S50
G00 X19.574216 Y15.794926

M300 S30
G02 X18.929257 Y15.199739 I-14.874023 J15.470827 F400.000000
G03 X18.441403 Y14.724613 I4.769999 J-5.385799
G03 X17.680557 Y13.863825 I15.309963 J-14.299050
G03 X17.181638 Y13.255863 I32.714638 J-27.355677
G02 X18.424890 Y14.636907 I25.041898 J-21.293243
G02 X19.574216 Y15.794926 I28.923344 J-27.556869
G01 X19.574216 Y15.794926 
M300 S50

(End cutting path id: path244)


(Start cutting path id: path244)
(Change tool to Default tool)

M300 S50
G00 X19.162109 Y16.480467

M300 S30
G01 X19.166115 Y16.472553 F400.000000
G02 X19.080079 Y16.369139 I-0.899770 J0.661077
G02 X18.972284 Y16.265016 I-1.125717 J1.057559
G01 X18.953126 Y16.257810 
G01 X18.949120 Y16.265725 
G02 X19.035156 Y16.369139 I0.899864 J-0.661152
G02 X19.142951 Y16.473261 I1.125611 J-1.057459
G01 X19.162109 Y16.480467 
G01 X19.162109 Y16.480467 
M300 S50

(End cutting path id: path244)


(Start cutting path id: path244)
(Change tool to Default tool)

M300 S50
G00 X18.712891 Y15.998040

M300 S30
G01 X18.729472 Y15.997041 F400.000000
G01 X18.730471 Y15.980460 
G02 X18.652347 Y15.910178 I-0.239952 J0.188163
G01 X18.634771 Y15.919910 
G01 X18.640562 Y15.933900 
G02 X18.712901 Y15.998040 I0.566057 J-0.565553
G01 X18.712891 Y15.998040 
M300 S50

(End cutting path id: path244)


(Start cutting path id: path244)
(Change tool to Default tool)

M300 S50
G00 X18.332031 Y16.919920

M300 S30
G03 X16.815072 Y15.901665 I1.278713 J-3.544064 F400.000000
G03 X17.011719 Y15.458982 I0.196647 J-0.177665
G01 X17.015832 Y15.449492 
G02 X16.904297 Y15.343748 I-0.947977 J0.888204
G03 X16.794091 Y15.223842 I0.410526 J-0.487913
G01 X16.792969 Y15.187498 
G01 X16.794039 Y15.160235 
G01 X16.771489 Y15.146478 
G01 X16.747740 Y15.130236 
G02 X16.669927 Y15.017572 I-0.275959 J0.107391
G01 X16.683640 Y15.017530 
G01 X16.685557 Y15.001942 
G02 X16.648394 Y14.975448 I-0.063564 J0.049849
G03 X16.632827 Y14.968742 I0.037557 J-0.108604
G03 X16.581679 Y14.905160 I0.250413 J-0.253807
G02 X16.496109 Y14.791008 I-0.750314 J0.473297
G01 X16.503138 Y14.792475 
G01 X16.507829 Y14.781208 
G02 X16.481355 Y14.761957 I-0.047089 J0.036928
G03 X16.466809 Y14.753868 I0.018476 J-0.050348
G03 X16.404399 Y14.673993 I0.717659 J-0.625064
G02 X16.322278 Y14.566368 I-1.327729 J0.927947
G01 X16.330078 Y14.558568 
G01 X16.311292 Y14.546056 
G01 X16.298828 Y14.539038 
G03 X16.207772 Y14.422761 I2.119073 J-1.753228
G02 X16.095703 Y14.277320 I-3.877793 J2.872121
G02 X16.073825 Y14.239466 I-1.067152 J0.591524
G02 X15.982422 Y14.103492 I-1.408285 J0.847954
G03 X15.718432 Y13.745767 I30.043463 J-22.447447
G03 X15.414062 Y13.324195 I46.695656 J-34.034336
G02 X15.054233 Y12.854485 I-7.319168 J5.234287
G01 X15.035156 Y12.861304 
G02 X15.065558 Y12.950455 I0.145915 J0.000000
G02 X15.906250 Y14.033179 I185.593538 J-143.238280
G02 X14.973190 Y12.874846 I-48.180714 J37.855534
G03 X14.763672 Y12.562476 I1.461034 J-1.206422
G01 X14.779209 Y12.550139 
G03 X14.876953 Y12.662086 I-0.369365 J0.421145
G02 X15.000555 Y12.819861 I1.046616 J-0.692624
G01 X15.021484 Y12.820289 
G01 X15.025300 Y12.795406 
G02 X14.906250 Y12.597633 I-1.683600 J0.878729
G03 X14.775588 Y12.395761 I3.512786 J-2.416874
G03 X14.767578 Y12.367165 I0.047038 J-0.028596
G01 X14.776439 Y12.364264 
G03 X15.197266 Y12.953102 I-23.868683 J17.503100
G02 X15.632589 Y13.565862 I32.768980 J-22.819062
G02 X16.021484 Y14.091774 I27.521611 J-19.944589
G03 X16.392781 Y14.601589 I-14.913454 J11.251526
G01 X16.386719 Y14.613258 
G01 X16.382927 Y14.622153 
G02 X16.476559 Y14.707008 I0.654801 J-0.628442
G03 X16.573396 Y14.802420 I-0.377434 J0.479919
G01 X16.572259 Y14.824196 
G01 X16.571135 Y14.845997 
G02 X16.662099 Y14.935524 I0.447276 J-0.363479
G03 X16.756397 Y15.025292 I-0.427475 J0.543457
G01 X16.755849 Y15.040993 
G01 X16.754888 Y15.057881 
G02 X16.953115 Y15.289039 I3.208623 J-2.550946
G03 X17.153126 Y15.519760 I-3.530519 J3.262645
G01 X17.152334 Y15.535133 
G01 X17.151472 Y15.550308 
G02 X17.296865 Y15.716774 I1.878639 J-1.494099
G03 X18.356542 Y16.884334 I-21.076211 J20.193429
G01 X18.332021 Y16.919899 
G01 X18.332031 Y16.919920 
M300 S50

(End cutting path id: path244)


(Start cutting path id: path244)
(Change tool to Default tool)

M300 S50
G00 X18.582031 Y17.191407

M300 S30
G01 X18.563158 Y17.184377 F400.000000
G03 X18.480469 Y17.103517 I0.620064 J-0.716802
G03 X18.417514 Y17.021722 I0.481633 J-0.435824
G01 X18.421879 Y17.013677 
G01 X18.440781 Y17.020948 
G03 X18.523442 Y17.103517 I-0.776909 J0.860437
G03 X18.586192 Y17.183576 I-0.533675 J0.482916
G01 X18.582032 Y17.191407 
G01 X18.582031 Y17.191407 
M300 S50

(End cutting path id: path244)


(Start cutting path id: path244)
(Change tool to Default tool)

M300 S50
G00 X19.791016 Y17.134767

M300 S30
G01 X19.786485 Y17.123827 F400.000000
G02 X19.580078 Y16.923829 I-6.393163 J6.391533
G01 X19.369141 Y16.724610 
G01 X19.566406 Y16.935548 
G02 X19.777362 Y17.140897 I2.377308 J-2.231187
G01 X19.791016 Y17.134767 
G01 X19.791016 Y17.134767 
M300 S50

(End cutting path id: path244)


(Start cutting path id: path244)
(Change tool to Default tool)

M300 S50
G00 X20.605466 Y16.771488

M300 S30
G03 X20.724344 Y16.885371 I-0.948875 J1.109480 F400.000000
G02 X20.810544 Y16.964848 I0.568354 J-0.529946
G03 X20.783952 Y16.944411 I1.958899 J-2.576397
G03 X20.677731 Y16.847660 I0.563152 J-0.724956
G01 X20.605466 Y16.771488 
M300 S50

(End cutting path id: path244)


(Start cutting path id: path244)
(Change tool to Default tool)

M300 S50
G00 X21.205078 Y17.324220

M300 S30
G01 X21.209238 Y17.316389 F400.000000
G02 X21.146488 Y17.236330 I-0.596425 J0.402857
G02 X21.062191 Y17.153679 I-0.734321 J0.664629
G01 X21.042973 Y17.146490 
G01 X21.038608 Y17.154535 
G02 X21.101563 Y17.236330 I0.544588 J-0.354028
G02 X21.185887 Y17.317272 I0.617409 J-0.558813
G01 X21.205079 Y17.324220 
G01 X21.205078 Y17.324220 
M300 S50

(End cutting path id: path244)


(Start cutting path id: path244)
(Change tool to Default tool)

M300 S50
G00 X20.632809 Y18.037113

M300 S30
G01 X20.636269 Y18.029246 F400.000000
G02 X20.345700 Y17.724613 I-7.845482 J7.192396
G02 X20.034644 Y17.421612 I-9.084733 J9.015075
G01 X20.015622 Y17.414066 
G01 X20.012220 Y17.421863 
G02 X20.302731 Y17.724613 I9.166238 J-8.504922
G02 X20.613779 Y18.029495 I11.156877 J-11.071396
G01 X20.632809 Y18.037113 
G01 X20.632809 Y18.037113 
M300 S50

(End cutting path id: path244)


(Start cutting path id: path244)
(Change tool to Default tool)

M300 S50
G00 X20.898435 Y18.267582

M300 S30
G02 X20.651821 Y18.057000 I-2.239305 J2.372762 F400.000000
G01 X20.626950 Y18.058598 
G01 X20.602723 Y18.058751 
G03 X19.968747 Y17.416020 I16.191085 J-16.604579
G03 X19.348995 Y16.753712 I47.961961 J-45.501265
G01 X19.351559 Y16.748051 
G01 X19.354169 Y16.742370 
G02 X18.980466 Y16.337895 I-17.041574 J15.370187
G03 X18.605128 Y15.930271 I14.699571 J-13.911902
G01 X18.605466 Y15.917973 
G01 X18.605995 Y15.905595 
G02 X18.388669 Y15.662113 I-4.338720 J3.653912
G03 X17.773428 Y14.959429 I8.856155 J-8.374757
G03 X16.513669 Y13.347660 I45.670865 J-36.994570
G02 X15.909750 Y12.547955 I-507.194303 J382.393377
G02 X15.867185 Y12.492192 I-6.383420 J4.828521
G03 X15.840000 Y12.443856 I0.153336 J-0.118051
G01 X15.845695 Y12.435552 
G01 X15.863753 Y12.444139 
G03 X16.126945 Y12.781255 I-8.238604 J6.703320
G02 X17.277294 Y14.245388 I32.103316 J-24.039152
G02 X18.669914 Y15.869146 I41.792445 J-34.434328
G03 X19.200387 Y16.473641 I-35.695215 J31.859247
G01 X19.197258 Y16.480474 
G01 X19.194554 Y16.486843 
G02 X19.505851 Y16.798833 I9.596968 J-9.264365
G03 X19.820528 Y17.118519 I-6.699750 J6.909483
G01 X19.820304 Y17.132817 
G01 X19.820118 Y17.147222 
G02 X20.476554 Y17.824224 I32.954717 J-31.296849
G03 X20.902605 Y18.263393 I-21.499056 J21.283103
G01 X20.898430 Y18.267583 
G01 X20.898435 Y18.267582 
M300 S50

(End cutting path id: path244)


(Start cutting path id: path244)
(Change tool to Default tool)

M300 S50
G00 X22.705078 Y18.566409

M300 S30
G03 X21.674514 Y17.873480 I3.097330 J-5.719347 F400.000000
G03 X21.265625 Y17.384769 I1.090303 J-1.327630
G02 X21.220873 Y17.332124 I-0.156017 J0.087281
G01 X21.193355 Y17.326179 
G03 X21.139526 Y17.306735 I-0.012497 J-0.049635
G02 X20.810543 Y16.964851 I-1.420182 J1.037368
G03 X20.886428 Y17.049358 I-0.182838 J0.240508
G01 X20.902343 Y17.044931 
G01 X20.897812 Y17.033991 
G02 X20.691405 Y16.833993 I-6.394913 J6.393337
G01 X20.480468 Y16.636728 
G01 X20.605468 Y16.771493 
G03 X20.258182 Y16.454294 I4.679973 J-5.472593
G02 X19.660155 Y15.876962 I-57.773531 J59.246065
G01 X19.324218 Y15.501962 
G03 X18.179475 Y14.313585 I58.665825 J-57.657328
G03 X17.572265 Y13.646493 I17.993192 J-16.987913
G02 X16.973980 Y12.976263 I-39.599570 J34.746637
G01 X16.957030 Y12.968759 
G01 X16.953336 Y12.976333 
G02 X17.167968 Y13.240243 I6.830560 J-5.335913
G02 X16.776412 Y12.809278 I-3.704091 J2.972017
G01 X16.765624 Y12.771493 
G01 X16.759614 Y12.746677 
G02 X16.658202 Y12.650400 I-0.567139 J0.495840
G03 X16.565131 Y12.558057 I0.353179 J-0.449039
G01 X16.566402 Y12.535165 
G01 X16.567951 Y12.512902 
G02 X16.501952 Y12.449225 I-0.234825 J0.177346
G03 X16.424608 Y12.378127 I0.228421 J-0.326105
G03 X16.367187 Y12.289068 I0.333126 J-0.277826
G01 X16.372709 Y12.276027 
G01 X16.390627 Y12.281268 
G02 X16.469682 Y12.349451 I0.230690 J-0.187554
G02 X16.515627 Y12.355488 I0.030023 J-0.050634
G01 X16.539170 Y12.357197 
G01 X16.541017 Y12.367208 
G01 X16.538103 Y12.394869 
G02 X16.652345 Y12.539082 I0.818187 J-0.530793
G03 X16.787737 Y12.686216 I-3.493225 J3.350312
G03 X17.523439 Y13.525411 I-122.073752 J107.761179
G02 X19.621950 Y15.763284 I31.343471 J-27.288728
G02 X21.880860 Y17.841817 I29.380722 J-29.663671
G03 X22.709373 Y18.560269 I-48.735546 J57.038379
G01 X22.705079 Y18.566426 
G01 X22.705078 Y18.566409 
M300 S50

(End cutting path id: path244)


(Start cutting path id: path244)
(Change tool to Default tool)

M300 S50
G00 X23.068359 Y17.867191

M300 S30
G03 X23.157580 Y17.946362 I-0.767278 J0.954530 F400.000000
G02 X23.222656 Y18.001956 I0.443525 J-0.453291
G01 X23.251956 Y18.037116 
G01 X23.232950 Y18.029711 
G03 X23.080081 Y17.880866 I2.491245 J-2.711527
G03 X23.074041 Y17.873860 I0.054750 J-0.053309
G02 X23.068361 Y17.867196 I-0.063468 J0.048342
G01 X23.068359 Y17.867191 
M300 S50

(End cutting path id: path244)


(Start cutting path id: path244)
(Change tool to Default tool)

M300 S50
G00 X23.464844 Y18.214847

M300 S30
G02 X23.467687 Y18.215827 I0.050347 J-0.141379 F400.000000
G02 X23.470744 Y18.216847 I3.153466 J-9.450207
G01 X23.468744 Y18.218847 
G01 X23.466727 Y18.216849 
G01 X23.464844 Y18.214947 
G01 X23.464844 Y18.214847 
M300 S50

(End cutting path id: path244)


(Start cutting path id: path244)
(Change tool to Default tool)

M300 S50
G00 X24.230469 Y18.849612

M300 S30
G01 X24.219664 Y18.857793 F400.000000
G03 X23.908203 Y18.619144 I3.657513 J-5.096001
G03 X23.583310 Y18.335208 I4.121399 J-5.043761
G01 X23.568359 Y18.300784 
G01 X23.556147 Y18.275091 
G01 X23.529299 Y18.269534 
G01 X23.509500 Y18.258167 
G02 X23.470709 Y18.216804 I-0.057714 J0.015254
G01 X23.482566 Y18.216862 
G01 X23.484379 Y18.203134 
G02 X23.421883 Y18.130865 I-0.784374 J0.615141
G01 X23.408209 Y18.125004 
G01 X23.398992 Y18.142085 
G02 X23.464849 Y18.214844 I0.266496 J-0.175034
G03 X23.404035 Y18.172658 I0.047545 J-0.133465
G02 X23.222661 Y18.001953 I-0.825474 J0.695360
G02 X23.203267 Y17.973436 I-0.243052 J0.144438
G02 X23.123051 Y17.880859 I-0.869680 J0.672523
G02 X22.970183 Y17.732015 I-2.646736 J2.565369
G01 X22.951176 Y17.724609 
G01 X22.947696 Y17.732080 
G02 X23.068363 Y17.867188 I2.317190 J-1.948076
G03 X22.915470 Y17.735996 I1.968953 J-2.449336
G02 X22.679692 Y17.525391 I-8.783884 J9.596506
G02 X22.741479 Y17.570421 I0.257364 J-0.288229
G01 X22.746102 Y17.564451 
G02 X22.567376 Y17.386989 I-16.875240 J16.816765
G02 X21.347664 Y16.189451 I-1781.053854 J1812.811506
G02 X20.735106 Y15.614250 I-13.417127 J13.674747
G01 X20.722664 Y15.626951 
G01 X20.721679 Y15.625983 
G01 X20.720664 Y15.624951 
G01 X20.716764 Y15.621051 
G02 X19.774243 Y14.662333 I-26.776489 J25.381460
G03 X19.732389 Y14.585895 I0.105239 J-0.107301
G02 X19.716331 Y14.555046 I-0.062860 J0.013116
G02 X19.556608 Y14.398395 I-1.991099 J1.870401
G03 X19.407471 Y14.246215 I1.175000 J-1.300672
G01 X19.408170 Y14.226519 
G01 X19.409021 Y14.206844 
G02 X19.275358 Y14.070269 I-0.967779 J0.813451
G03 X19.136399 Y13.934988 I1.245703 J-1.418582
G01 X19.136686 Y13.919879 
G01 X19.137473 Y13.904014 
G02 X18.935514 Y13.673785 I-3.505490 J2.871354
G03 X18.725228 Y13.439156 I4.966293 J-4.662581
G03 X18.630826 Y13.318316 I1.311846 J-1.122129
G03 X18.590096 Y13.230387 I0.214509 J-0.152760
G01 X18.605436 Y13.216754 
G03 X18.656707 Y13.254508 I-0.043064 J0.112174
G03 X18.695276 Y13.331988 I-0.166059 J0.131002
G02 X18.733662 Y13.386847 I0.093200 J-0.024354
G01 X18.777306 Y13.388628 
G03 X18.807570 Y13.377532 I0.047215 J0.081958
G01 X18.810506 Y13.382728 
G01 X18.809637 Y13.410699 
G02 X19.064412 Y13.710854 I3.479548 J-2.695270
G03 X19.330487 Y14.010293 I-6.647311 J6.174584
G01 X19.330037 Y14.021400 
G02 X19.329475 Y14.171398 I0.075282 J0.075282
G02 X22.869100 Y17.615150 I82.922454 J-81.690019
G02 X23.385748 Y18.091944 I46.513824 J-49.883467
G01 X23.390584 Y18.089760 
G03 X23.642256 Y17.975053 I0.150608 J-0.003003
G03 X24.230428 Y18.849525 I-1.467736 J1.622242
G01 X24.230469 Y18.849612 
M300 S50

(End cutting path id: path244)


(Start cutting path id: path244)
(Change tool to Default tool)

M300 S50
G00 X25.613278 Y18.560551

M300 S30
G01 X25.604501 Y18.565326 F400.000000
G03 X25.513668 Y18.496101 I0.403988 J-0.624296
G02 X25.412351 Y18.408390 I-3.069074 J3.442771
G02 X24.734371 Y17.839851 I-238.827478 J284.112278
G03 X24.065267 Y17.262319 I18.363039 J-21.950997
G03 X23.988277 Y17.175788 I0.332288 J-0.373166
G02 X23.917139 Y17.094866 I-0.401288 J0.281039
G01 X23.890617 Y17.087898 
G01 X23.851258 Y17.074924 
G02 X23.484367 Y16.707038 I-2.465099 J2.091538
G02 X23.453284 Y16.666494 I-0.305573 J0.202081
G02 X23.279289 Y16.480476 I-3.389111 J2.995675
G02 X23.013152 Y16.222333 I-6.431008 J6.363921
G01 X22.994133 Y16.214851 
G01 X22.991159 Y16.221748 
G02 X23.189445 Y16.429695 I20.580595 J-19.425934
G03 X23.021881 Y16.274914 I8.529279 J-9.401767
G03 X22.808586 Y16.074226 I488.640231 J-519.550509
G02 X22.684599 Y15.941058 I-4.612540 J4.170242
G02 X22.212883 Y15.458991 I-23.859341 J22.875192
G02 X21.454568 Y14.710857 I-50.873606 J50.807498
G01 X21.435539 Y14.703132 
G01 X21.432218 Y14.710972 
G02 X22.167961 Y15.458991 I49.421811 J-47.874900
G02 X22.415518 Y15.700919 I10.080416 J-10.067336
G03 X22.576164 Y15.855476 I-17.757219 J18.617561
G02 X22.185185 Y15.494582 I-10.180279 J10.636690
G03 X21.835930 Y15.162116 I4.794741 J-5.386551
G03 X21.263486 Y14.572553 I49.546837 J-48.680843
G01 X21.267570 Y14.568366 
G02 X21.421319 Y14.689219 I0.893367 J-0.978317
G01 X21.435539 Y14.681648 
G01 X21.449502 Y14.675598 
G03 X22.246086 Y15.441413 I-29.991907 J31.994123
G02 X23.699645 Y16.831673 I46.568778 J-47.234054
G02 X25.134758 Y18.121101 I40.999600 J-44.188579
G03 X25.604310 Y18.540194 I-16.259740 J18.689999
G01 X25.613273 Y18.560554 
G01 X25.613278 Y18.560551 
M300 S50

(End cutting path id: path244)


(Start cutting path id: path244)
(Change tool to Default tool)

M300 S50
G00 X25.873047 Y18.791019

M300 S30
G01 X25.853912 Y18.784008 F400.000000
G03 X25.746094 Y18.681644 I0.841750 J-0.994559
G03 X25.660058 Y18.578229 I0.813893 J-0.764615
G01 X25.664064 Y18.570315 
G01 X25.683221 Y18.577522 
G03 X25.791018 Y18.681644 I-1.018606 J1.162416
G03 X25.876890 Y18.783283 I-0.920928 J0.865169
G01 X25.873048 Y18.791019 
G01 X25.873047 Y18.791019 
M300 S50

(End cutting path id: path244)


(Start cutting path id: path244)
(Change tool to Default tool)

M300 S50
G00 X26.093750 Y18.968753

M300 S30
G01 X26.074537 Y18.961797 F400.000000
G03 X25.990234 Y18.880863 I0.532397 J-0.638928
G03 X25.927279 Y18.799068 I0.481633 J-0.435824
G01 X25.931644 Y18.791023 
G01 X25.950883 Y18.798221 
G03 X26.035159 Y18.880863 I-0.650123 J0.747266
G03 X26.097909 Y18.960922 I-0.533675 J0.482916
G01 X26.093749 Y18.968753 
G01 X26.093750 Y18.968753 
M300 S50

(End cutting path id: path244)


(Start cutting path id: path244)
(Change tool to Default tool)

M300 S50
G00 X27.857422 Y19.228520

M300 S30
G03 X27.494726 Y19.255871 I-0.197254 J-0.197254 F400.000000
G03 X27.257812 Y18.787113 I0.345283 J-0.468758
G01 X27.244635 Y18.766131 
G01 X27.216792 Y18.767583 
G01 X27.180126 Y18.767691 
G03 X27.111323 Y18.703133 I0.119915 J-0.196741
G02 X27.047439 Y18.637119 I-0.239136 J0.167503
G01 X27.025383 Y18.638683 
G01 X27.002334 Y18.639950 
G03 X26.902336 Y18.539073 I0.388444 J-0.485064
G02 X26.805574 Y18.433514 I-0.746785 J0.587422
G01 X26.791008 Y18.435558 
G01 X26.769329 Y18.429456 
G02 X26.701168 Y18.347668 I-0.082846 J-0.000254
G02 X26.785492 Y18.428610 I0.617409 J-0.558813
G01 X26.804684 Y18.435558 
G01 X26.808844 Y18.427727 
G02 X26.746094 Y18.347668 I-0.596425 J0.402857
G02 X26.663422 Y18.265095 I-0.860259 J0.778614
G01 X26.644531 Y18.257828 
G01 X26.639992 Y18.265931 
G02 X26.701171 Y18.347668 I0.468875 J-0.287182
G03 X26.608884 Y18.292904 I0.027039 J-0.150708
G02 X26.160155 Y17.830090 I-2.712313 J2.180824
G02 X25.867273 Y17.541963 I-6313.964785 J6417.931905
G02 X25.259765 Y16.945324 I-364.719487 J370.755721
G02 X25.001826 Y16.715450 I-2.540584 J2.591108
G03 X24.972655 Y16.691418 I1.350815 J-1.669390
G02 X24.465712 Y16.216043 I-8.122561 J8.153952
G03 X24.058593 Y15.814465 I3.412608 J-3.866857
G03 X23.729944 Y15.439754 I10.998287 J-9.977775
G01 X23.736327 Y15.433606 
G02 X23.868489 Y15.540531 I0.949772 J-1.038797
G01 X23.878905 Y15.535168 
G01 X23.927735 Y15.583998 
G03 X23.896242 Y15.551691 I0.102575 J-0.131492
G01 X23.886715 Y15.546888 
G01 X23.882709 Y15.554802 
G02 X23.968745 Y15.658216 I0.899770 J-0.661077
G02 X24.076540 Y15.762338 I1.125611 J-1.057459
G01 X24.095698 Y15.769544 
G01 X24.098811 Y15.762864 
G02 X24.035148 Y15.687514 I-13.028644 J10.943380
G03 X24.205030 Y15.845066 I-3.645634 J4.101312
G03 X25.046867 Y16.673842 I-47.162436 J48.747612
G02 X26.913374 Y18.492887 I66.991650 J-66.872448
G01 X26.964836 Y18.492202 
G01 X26.979806 Y18.491812 
G03 X27.085930 Y18.601576 I-0.741328 J0.822924
G02 X27.195635 Y18.720815 I1.399857 J-1.177844
G02 X27.234367 Y18.746108 I0.080429 J-0.080861
G03 X27.848923 Y19.095084 I-0.914344 J2.325797
G03 X27.857414 Y19.228530 I-0.054495 J0.070460
G01 X27.857422 Y19.228520 
M300 S50

(End cutting path id: path244)


(Start cutting path id: path244)
(Change tool to Default tool)

M300 S50
G00 X28.562500 Y18.515625

M300 S30
G03 X28.613771 Y18.558812 I-0.644863 J0.817595 F400.000000
G02 X28.660160 Y18.597655 I0.575779 J-0.640519
G01 X28.671880 Y18.613285 
G01 X28.652682 Y18.606335 
G03 X28.568364 Y18.525395 I0.532888 J-0.639518
G01 X28.565297 Y18.520369 
G01 X28.562464 Y18.515595 
G01 X28.562500 Y18.515625 
M300 S50

(End cutting path id: path244)


(Start cutting path id: path244)
(Change tool to Default tool)

M300 S50
G00 X28.886719 Y18.783203

M300 S30
G01 X28.892619 Y18.791003 F400.000000
G01 X28.876303 Y18.784638 
G03 X28.806679 Y18.716783 I1.150612 J-1.250256
G03 X28.849603 Y18.752551 I-0.375491 J0.494259
G02 X28.886759 Y18.783193 I0.324066 J-0.355105
G01 X28.886719 Y18.783203 
M300 S50

(End cutting path id: path244)


(Start cutting path id: path244)
(Change tool to Default tool)

M300 S50
G00 X29.246094 Y19.064453

M300 S30
G01 X29.262675 Y19.063454 F400.000000
G01 X29.263674 Y19.046873 
G02 X29.185550 Y18.976591 I-0.239952 J0.188163
G01 X29.167974 Y18.986323 
G01 X29.173765 Y19.000311 
G02 X29.246104 Y19.064453 I0.567202 J-0.566823
G01 X29.246094 Y19.064453 
M300 S50

(End cutting path id: path244)


(Start cutting path id: path244)
(Change tool to Default tool)

M300 S50
G00 X29.869138 Y19.536998

M300 S30
G03 X29.730369 Y19.430608 I1.186567 J-1.691386 F400.000000
G03 X29.708981 Y19.402233 I0.050316 J-0.060174
G01 X29.688601 Y19.386270 
G01 X29.656251 Y19.392433 
G01 X29.623614 Y19.391412 
G03 X29.548829 Y19.316263 I0.178969 J-0.252888
G02 X29.490894 Y19.253997 I-0.253055 J0.177370
G01 X29.478519 Y19.259623 
G01 X29.464735 Y19.266603 
G03 X29.392579 Y19.201033 I0.199376 J-0.291886
G02 X29.304854 Y19.112253 I-0.568448 J0.473960
G01 X29.287110 Y19.111193 
G01 X29.264601 Y19.107174 
G02 X29.115235 Y18.968615 I-0.443959 J0.328797
G01 X29.119395 Y18.960784 
G02 X29.056645 Y18.880725 I-0.596425 J0.402857
G02 X28.973973 Y18.798152 I-0.860259 J0.778614
G01 X28.955082 Y18.790885 
G01 X28.950717 Y18.798930 
G02 X29.013672 Y18.880725 I0.544588 J-0.354028
G02 X29.096373 Y18.961589 I0.703284 J-0.636538
G01 X29.115234 Y18.968615 
G03 X29.039378 Y18.910224 I0.272995 J-0.433120
G02 X28.886719 Y18.783068 I-1.228183 J1.319291
G01 X28.887258 Y18.773208 
G02 X28.835939 Y18.702988 I-0.360904 J0.209901
G02 X28.751643 Y18.620338 I-0.734311 J0.664620
G01 X28.732423 Y18.613148 
G01 X28.728058 Y18.621193 
G02 X28.791013 Y18.702988 I0.544588 J-0.354028
G03 X28.731203 Y18.655072 I0.964014 J-1.264588
G02 X28.660153 Y18.597519 I-1.573557 J1.869953
G01 X28.655696 Y18.583446 
G02 X28.613283 Y18.525249 I-0.295703 J0.170952
G02 X28.528986 Y18.442598 I-0.734321 J0.664629
G01 X28.509768 Y18.435409 
G01 X28.505888 Y18.442886 
G02 X28.562498 Y18.515489 I0.773371 J-0.544637
G03 X28.471879 Y18.441520 I2.178175 J-2.760944
G02 X28.367186 Y18.355333 I-3.508233 J4.154864
G03 X28.451239 Y18.424224 I-0.422055 J0.600658
G01 X28.457026 Y18.421743 
G01 X28.448974 Y18.403359 
G02 X28.234370 Y18.214712 I-4.025566 J4.363086
G02 X28.021983 Y18.046487 I-3.201541 J3.823816
G01 X28.013667 Y18.050649 
G01 X28.019832 Y18.063814 
G03 X28.138667 Y18.167837 I-2.092927 J2.510832
G03 X28.038491 Y18.085062 I5.712321 J-7.015215
G02 X27.933589 Y17.997915 I-9.656037 J11.516546
G02 X27.919016 Y17.975461 I-0.436740 J0.267492
G02 X27.878899 Y17.925645 I-0.346501 J0.237978
G02 X27.772782 Y17.821583 I-1.321903 J1.241867
G01 X27.753899 Y17.814317 
G01 X27.750363 Y17.821560 
G02 X27.824209 Y17.910017 I1.366345 J-1.065607
G02 X27.645724 Y17.764100 I-12.272066 J14.829038
G03 X27.474599 Y17.622908 I6.638325 J-8.219948
G02 X27.693623 Y17.804237 I8.675621 J-10.256232
G01 X27.701162 Y17.800642 
G01 X27.693241 Y17.782030 
G02 X27.435537 Y17.546736 I-4.637711 J4.820645
G02 X27.176296 Y17.333679 I-4.233385 J4.886810
G01 X27.167959 Y17.337752 
G01 X27.175792 Y17.355841 
G02 X27.425771 Y17.581892 I6.275805 J-6.688887
G02 X26.887308 Y17.148269 I-9.362971 J11.075587
G03 X26.640615 Y16.937361 I1.855857 J-2.420470
G02 X26.365948 Y16.688775 I-5.109719 J5.369791
G01 X26.351552 Y16.689314 
G01 X26.337571 Y16.689594 
G03 X26.132802 Y16.486189 I2.667292 J-2.889956
G02 X25.928215 Y16.284628 I-2.569112 J2.403067
G01 X25.912099 Y16.285017 
G01 X25.895979 Y16.285290 
G03 X25.632802 Y16.025252 I4.538588 J-4.856576
G03 X25.498937 Y15.875752 I2.181321 J-2.087886
G01 X25.503896 Y15.870955 
G02 X25.639922 Y15.971549 I0.604408 J-0.675033
G01 X25.664052 Y15.968615 
G01 X25.687296 Y15.967703 
G03 X25.892568 Y16.163927 I-1.649959 J1.931522
G02 X26.097002 Y16.367328 I2.933866 J-2.744339
G01 X26.111318 Y16.367053 
G01 X26.126110 Y16.366501 
G03 X26.492178 Y16.695177 I-7.685755 J8.928321
G02 X26.852735 Y17.027329 I20.665457 J-22.070901
G01 X26.857412 Y17.025256 
G01 X26.862301 Y17.022965 
G03 X27.445302 Y17.513537 I-47.302286 J56.806281
G02 X28.038656 Y18.009114 I28.377716 J-33.373639
G02 X29.023428 Y18.808459 I77.582467 J-94.573245
G03 X29.881158 Y19.521513 I-20.665698 J25.731091
G01 X29.869131 Y19.536974 
G01 X29.869138 Y19.536998 
M300 S50

(End cutting path id: path244)


(Start cutting path id: path244)
(Change tool to Default tool)

M300 S50
G00 X31.023435 Y19.546798

M300 S30
G01 X31.028395 Y19.533241 F400.000000
G02 X30.140622 Y18.740157 I-32.600490 J35.599379
G03 X29.502667 Y18.171553 I25.022028 J-28.716051
G03 X28.876950 Y17.587814 I25.062815 J-27.492390
G02 X28.025335 Y16.797117 I-28.910432 J30.283857
G01 X28.013669 Y16.808517 
G02 X30.488938 Y19.351954 I22.257736 J-19.185014
G02 X31.023435 Y19.546798 I0.504938 J-0.554608
G01 X31.023435 Y19.546798 
M300 S50

(End cutting path id: path244)


(Start cutting path id: path244)
(Change tool to Default tool)

M300 S50
G00 X31.150388 Y19.619068

M300 S30
G02 X31.072928 Y19.573794 I-0.355432 J0.519215 F400.000000
G01 X31.056638 Y19.591728 
G01 X31.038653 Y19.608038 
G03 X30.423825 Y19.109306 I7.909348 J-10.378850
G03 X28.928686 Y17.757953 I28.529463 J-33.067830
G03 X27.884763 Y16.706962 I16.550944 J-17.483583
G03 X27.433125 Y16.205476 I13.620749 J-12.720951
G01 X27.441403 Y16.195243 
G03 X27.509290 Y16.244106 I-0.169858 J0.307579
G03 X28.576169 Y17.240165 I-62.508916 J68.022724
G02 X30.060900 Y18.618249 I64.426506 J-67.923469
G02 X30.910153 Y19.357353 I17.868049 J-19.673477
G03 X31.115421 Y19.567698 I-0.918581 J1.101742
G03 X31.150388 Y19.619072 I-0.333986 J0.264906
G01 X31.150388 Y19.619068 
M300 S50

(End cutting path id: path244)


(Start cutting path id: path244)
(Change tool to Default tool)

M300 S50
G00 X31.199218 Y19.671798

M300 S30
G01 X31.186074 Y19.651371 F400.000000
G03 X31.150388 Y19.619068 I0.032552 J-0.071823
G01 X31.165898 Y19.622588 
G01 X31.183588 Y19.628868 
G01 X31.193527 Y19.651687 
G02 X31.199218 Y19.671838 I0.055489 J-0.004793
G01 X31.199218 Y19.671798 
M300 S50

(End cutting path id: path244)


(Start cutting path id: path244)
(Change tool to Default tool)

M300 S50
G00 X31.267578 Y19.746018

M300 S30
G03 X31.227964 Y19.751451 I-0.031360 J-0.081528 F400.000000
G01 X31.224608 Y19.742118 
G01 X31.226902 Y19.720151 
G03 X31.199218 Y19.671808 I0.408492 J-0.266030
G02 X31.263119 Y19.728273 I0.056812 J0.000097
G01 X31.267578 Y19.746028 
G01 X31.267578 Y19.746018 
M300 S50

(End cutting path id: path244)


(Start cutting path id: path244)
(Change tool to Default tool)

M300 S50
G00 X31.878906 Y19.312500

M300 S30
G01 X31.874375 Y19.301560 F400.000000
G02 X31.667969 Y19.101562 I-6.395672 J6.394089
G01 X31.457031 Y18.902344 
G01 X31.656250 Y19.113281 
G02 X31.865414 Y19.318494 I2.591629 J-2.432322
G01 X31.878906 Y19.312500 
G01 X31.878906 Y19.312500 
M300 S50

(End cutting path id: path244)


(Start cutting path id: path244)
(Change tool to Default tool)

M300 S50
G00 X32.369141 Y19.755818

M300 S30
G01 X32.364610 Y19.744878 F400.000000
G02 X32.158203 Y19.544881 I-6.395816 J6.394299
G01 X31.945312 Y19.347615 
G01 X32.144531 Y19.558553 
G02 X32.355440 Y19.762043 I2.155130 J-2.022655
G01 X32.369141 Y19.755818 
G01 X32.369141 Y19.755818 
M300 S50

(End cutting path id: path244)


(Start cutting path id: path244)
(Change tool to Default tool)

M300 S50
G00 X32.503906 Y19.878865

M300 S30
G01 X32.476312 Y19.878656 F400.000000
G01 X32.466796 Y19.855425 
G02 X32.459231 Y19.813748 I-0.052496 J-0.011996
G02 X32.417966 Y19.781205 I-0.069858 J0.046148
G01 X32.393164 Y19.789484 
G01 X32.392576 Y19.820265 
G01 X32.365465 Y19.841963 
G03 X30.189451 Y17.724562 I94.305041 J-99.092359
G03 X29.737121 Y17.264781 I21.214669 J-21.323273
G01 X29.742186 Y17.259719 
G02 X31.464346 Y18.895799 I111.326737 J-115.459563
G01 X31.480467 Y18.888625 
G01 X31.485635 Y18.886224 
G03 X31.980467 Y19.328078 I-24.194485 J27.593370
G03 X32.480705 Y19.783497 I-383.602565 J421.856523
G02 X32.517576 Y19.816359 I1.491536 J-1.636372
G01 X32.527266 Y19.846371 
G03 X32.503906 Y19.878859 I-0.050777 J-0.011868
G01 X32.503906 Y19.878865 
M300 S50

(End cutting path id: path244)


(Start cutting path id: path244)
(Change tool to Default tool)

M300 S50
G00 X34.148438 Y20.302693

M300 S30
G01 X34.114824 Y20.289085 F400.000000
G01 X34.101558 Y20.257773 
G03 X34.109440 Y20.222223 I0.084110 J0.000000
G01 X34.121088 Y20.214803 
G01 X34.137023 Y20.220879 
G03 X34.167958 Y20.257773 I-0.111294 J0.124733
G01 X34.170208 Y20.288362 
G01 X34.148428 Y20.302693 
G01 X34.148438 Y20.302693 
M300 S50

(End cutting path id: path244)


(Start cutting path id: path244)
(Change tool to Default tool)

M300 S50
G00 X34.394531 Y20.347653

M300 S30
G01 X34.364848 Y20.336833 F400.000000
G03 X33.830078 Y19.874997 I17.149364 J-20.398148
G02 X33.620783 Y19.739697 I-0.547089 J0.616763
G01 X33.599609 Y19.771481 
G03 X33.840366 Y20.006744 I-5.571349 J5.942278
G01 X33.835938 Y20.011716 
G03 X32.653455 Y18.986421 I8.920159 J-11.482243
G03 X31.404297 Y17.707028 I21.285327 J-22.031817
G02 X32.576496 Y19.415592 I4.438497 J-1.788741
G02 X33.238281 Y19.404294 I0.325047 J-0.348036
G01 X33.238333 Y19.383259 
G02 X32.869141 Y19.031247 I-6.303759 J6.241805
G03 X32.480993 Y18.679092 I43.872645 J-48.746777
G03 X31.935547 Y18.177731 I100.130570 J-109.482475
G02 X31.422128 Y17.713442 I-22.121727 J23.946587
G01 X31.404297 Y17.707028 
G01 X31.399397 Y17.703128 
G01 X31.394497 Y17.699228 
G01 X31.390597 Y17.695328 
G02 X31.140876 Y17.475059 I-1.146979 J1.048652
G01 X31.124972 Y17.443375 
G01 X31.142156 Y17.434765 
G03 X31.257784 Y17.537125 I-0.414083 J0.584242
G02 X31.381559 Y17.658419 I1.117615 J-1.016675
G01 X31.390597 Y17.654313 
G01 X31.400444 Y17.649871 
G03 X31.912081 Y18.113297 I-18.015823 J20.404198
G02 X33.170237 Y19.258307 I56.081784 J-60.359870
G02 X34.232394 Y20.181657 I37.686026 J-42.278751
G03 X34.399014 Y20.336963 I-1.564892 J1.845931
G01 X34.394503 Y20.347672 
G01 X34.394531 Y20.347653 
M300 S50

(End cutting path id: path244)


(Start cutting path id: path244)
(Change tool to Default tool)

M300 S50
G00 X34.658203 Y20.560547

M300 S30
G01 X34.633250 Y20.566192 F400.000000
G03 X34.578123 Y20.531247 I0.048937 J-0.138153
G01 X34.578161 Y20.511280 
G01 X34.603513 Y20.505857 
G03 X34.658180 Y20.541163 I-0.055649 J0.146142
G01 X34.658203 Y20.560547 
G01 X34.658203 Y20.560547 
M300 S50

(End cutting path id: path244)


(Start cutting path id: path244)
(Change tool to Default tool)

M300 S50
G00 X35.812500 Y20.308593

M300 S30
G02 X34.828223 Y19.326011 I-68.457314 J67.591087 F400.000000
G02 X34.302734 Y18.824218 I-17.017799 J17.295396
G01 X34.293817 Y18.833424 
G02 X35.435547 Y19.970702 I70.766289 J-69.901526
G02 X35.804709 Y20.316768 I7.968594 J-8.130462
G01 X35.812500 Y20.308593 
G01 X35.812500 Y20.308593 
M300 S50

(End cutting path id: path244)


(Start cutting path id: path244)
(Change tool to Default tool)

M300 S50
G00 X37.378906 Y20.130818

M300 S30
G03 X37.308313 Y20.066646 I0.405095 J-0.516542 F400.000000
G01 X37.302736 Y20.052688 
G01 X37.319901 Y20.043344 
G03 X37.396486 Y20.113238 I-0.170334 J0.263547
G01 X37.395487 Y20.129819 
G01 X37.378906 Y20.130818 
G01 X37.378906 Y20.130818 
M300 S50

(End cutting path id: path244)


(Start cutting path id: path244)
(Change tool to Default tool)

M300 S50
G00 X37.494141 Y20.992184

M300 S30
G03 X37.416573 Y20.919708 I9.820047 J-10.587802 F400.000000
G02 X37.324219 Y20.833980 I-6.226047 J6.614615
G02 X37.220302 Y20.754697 I-0.493498 J0.539087
G01 X37.212891 Y20.763670 
G02 X37.417824 Y20.968510 I3.175161 J-2.971681
G02 X37.587891 Y21.113279 I1.636247 J-1.749890
G01 X37.569075 Y21.110660 
G03 X37.013672 Y20.634764 I6.508688 J-8.158121
G03 X36.201962 Y19.878524 I57.499404 J-62.530755
G03 X34.968750 Y18.705076 I145.856166 J-154.519324
G03 X34.449286 Y18.191084 I16.287814 J-16.980690
G01 X34.457031 Y18.181639 
G02 X34.570737 Y18.249784 I0.956292 J-1.466715
G02 X34.613281 Y18.267579 I0.104976 J-0.191225
G03 X34.642782 Y18.288476 I-0.016152 J0.054077
G01 X34.646481 Y18.312499 
G02 X34.903873 Y19.347785 I0.944186 J0.314897
G02 X37.005856 Y20.562499 I3.559742 J-3.733872
G01 X37.017430 Y20.542968 
G02 X35.589841 Y19.150390 I-67.934671 J68.214595
G03 X35.272544 Y18.833239 I6.853303 J-7.173754
G01 X35.279294 Y18.826171 
G03 X36.557933 Y20.015612 I-17.737600 J20.349746
G03 X37.494138 Y20.992187 I-19.156919 J19.302051
G01 X37.494141 Y20.992184 
M300 S50

(End cutting path id: path244)


(Start cutting path id: path244)
(Change tool to Default tool)

M300 S50
G00 X37.671875 Y21.167965

M300 S30
G02 X37.618723 Y21.111856 I-0.273243 J0.205610 F400.000000
G03 X37.494141 Y20.992184 I0.841830 J-1.001056
G02 X37.658433 Y21.144537 I880.377662 J-949.202371
G03 X37.701172 Y21.185543 I-1.178838 J1.271437
G01 X37.712027 Y21.175392 
G01 X37.671872 Y21.167963 
G01 X37.671875 Y21.167965 
M300 S50

(End cutting path id: path244)


(Start cutting path id: path244)
(Change tool to Default tool)

M300 S50
G00 X37.773438 Y21.265625

M300 S30
G01 X37.831262 Y21.259676 F400.000000
G02 X37.589844 Y21.113281 I-0.171071 J0.009854
G02 X37.667837 Y21.167824 I0.615932 J-0.797702
G01 X37.671874 Y21.167971 
G02 X37.757387 Y21.242408 I0.218105 J-0.164220
G01 X37.773437 Y21.265631 
G01 X37.773438 Y21.265625 
M300 S50

(End cutting path id: path244)


(Start cutting path id: path244)
(Change tool to Default tool)

M300 S50
G00 X36.978516 Y21.445312

M300 S30
G02 X36.779886 Y21.300020 I-1.615407 J2.000016 F400.000000
G01 X36.767578 Y21.306641 
G01 X36.756115 Y21.311510 
G03 X35.445312 Y20.031250 I102.138403 J-105.886251
G02 X34.113931 Y18.733866 I-88.642549 J89.633518
G02 X33.601562 Y18.261719 I-11.755200 J12.242546
G03 X33.088757 Y17.797235 I19.168292 J-21.677728
G01 X33.080078 Y17.777344 
G01 X33.088469 Y17.773246 
G03 X33.212891 Y17.880859 I-0.994345 J1.275395
G02 X33.332805 Y17.974816 I0.531038 J-0.554242
G01 X33.347656 Y17.966799 
G01 X33.358360 Y17.960818 
G03 X33.390626 Y17.992189 I-0.049161 J0.082843
G02 X33.439007 Y18.046152 I0.184059 J-0.116348
G02 X33.474606 Y18.058599 I0.035599 J-0.044686
G03 X33.512294 Y18.072013 I-0.000000 J0.059651
G03 X33.931638 Y18.431646 I-6.981081 J8.564476
G03 X37.044168 Y21.371905 I-62.216739 J68.979606
G01 X36.978513 Y21.445317 
G01 X36.978516 Y21.445312 
M300 S50

(End cutting path id: path244)


(Start cutting path id: path244)
(Change tool to Default tool)

M300 S50
G00 X33.767575 Y18.369145

M300 S30
G01 X33.638669 Y18.224613 F400.000000
G02 X33.505823 Y18.084920 I-2.812970 J2.542083
G01 X33.494138 Y18.080082 
G01 X33.487168 Y18.094676 
G02 X33.623044 Y18.238285 I0.986147 J-0.796964
G01 X33.767575 Y18.369145 
M300 S50

(End cutting path id: path244)


(Start cutting path id: path244)
(Change tool to Default tool)

M300 S50
G00 X31.076169 Y17.458986

M300 S30
G01 X31.056929 Y17.451638 F400.000000
G03 X30.878903 Y17.281252 I2.427161 J-2.714189
G03 X30.724860 Y17.111368 I2.223228 J-2.170706
G01 X30.728513 Y17.103518 
G01 X30.747576 Y17.110905 
G03 X30.923825 Y17.281252 I-2.854211 J3.129464
G03 X31.079749 Y17.451173 I-2.663926 J2.600992
G01 X31.076169 Y17.458986 
G01 X31.076169 Y17.458986 
M300 S50

(End cutting path id: path244)


(Start cutting path id: path244)
(Change tool to Default tool)

M300 S50
G00 X28.892578 Y16.480467

M300 S30
G01 X28.873705 Y16.473437 F400.000000
G03 X28.791016 Y16.392577 I0.620064 J-0.716802
G03 X28.728061 Y16.310782 I0.481633 J-0.435824
G01 X28.732426 Y16.302737 
G01 X28.751667 Y16.309935 
G03 X28.835942 Y16.392577 I-0.649043 J0.746154
G03 X28.896912 Y16.472576 I-0.442963 J0.400832
G01 X28.892582 Y16.480467 
G01 X28.892578 Y16.480467 
M300 S50

(End cutting path id: path244)


(Start cutting path id: path244)
(Change tool to Default tool)

M300 S50
G00 X27.824216 Y17.910045

M300 S30
G02 X27.879143 Y17.954243 I1.631964 J-1.971907 F400.000000
G03 X27.933591 Y17.997935 I-1.729642 J2.211197
G02 X27.962794 Y18.031887 I0.119146 J-0.072947
G01 X27.960931 Y18.036995 
G01 X27.942048 Y18.029729 
G03 X27.835931 Y17.925667 I1.216280 J-1.346432
G01 X27.829775 Y17.917576 
G02 X27.824211 Y17.910037 I-0.044366 J0.026920
G01 X27.824216 Y17.910045 
M300 S50

(End cutting path id: path244)


(Start cutting path id: path244)
(Change tool to Default tool)

M300 S50
G00 X28.138669 Y18.167858

M300 S30
G03 X28.258795 Y18.266761 I-9.078200 J11.148686 F400.000000
G02 X28.367185 Y18.355358 I5.000726 J-6.007282
G02 X28.320672 Y18.323107 I-2.612044 J3.717492
G03 X28.234372 Y18.257698 I0.630356 J-0.921320
G03 X28.179267 Y18.206986 I0.513072 J-0.612820
G02 X28.138672 Y18.167858 I-0.843524 J0.834514
G01 X28.138669 Y18.167858 
M300 S50

(End cutting path id: path244)


(Start cutting path id: path244)
(Change tool to Default tool)

M300 S50
G00 X27.146484 Y17.347660

M300 S30
G01 X27.015625 Y17.203129 F400.000000
G02 X26.882779 Y17.063436 I-2.812970 J2.542083
G01 X26.871094 Y17.058598 
G01 X26.864267 Y17.073128 
G02 X27.001953 Y17.216801 I1.066896 J-0.884625
G01 X27.146484 Y17.347660 
M300 S50

(End cutting path id: path244)


(Start cutting path id: path244)
(Change tool to Default tool)

M300 S50
G00 X26.791016 Y17.037107

M300 S30
G01 X26.660156 Y16.892576 F400.000000
G02 X26.527310 Y16.752883 I-2.812970 J2.542083
G01 X26.515625 Y16.748045 
G01 X26.508798 Y16.762575 
G02 X26.646484 Y16.906248 I1.066896 J-0.884625
G01 X26.791016 Y17.037107 
M300 S50

(End cutting path id: path244)


(Start cutting path id: path244)
(Change tool to Default tool)

M300 S50
G00 X26.390625 Y16.681639

M300 S30
G01 X26.259766 Y16.537107 F400.000000
G02 X26.126919 Y16.397414 I-2.812601 J2.541750
G01 X26.115234 Y16.392576 
G01 X26.108407 Y16.407106 
G02 X26.246094 Y16.550779 I1.066892 J-0.884627
G01 X26.390625 Y16.681639 
M300 S50

(End cutting path id: path244)


(Start cutting path id: path244)
(Change tool to Default tool)

M300 S50
G00 X25.945312 Y16.281248

M300 S30
G01 X25.816406 Y16.136717 F400.000000
G02 X25.683560 Y15.997024 I-2.812970 J2.542083
G01 X25.671875 Y15.992186 
G01 X25.665048 Y16.006715 
G02 X25.802734 Y16.150389 I1.066879 J-0.884606
G01 X25.945312 Y16.281248 
M300 S50

(End cutting path id: path244)


(Start cutting path id: path244)
(Change tool to Default tool)

M300 S50
G00 X25.291016 Y15.730463

M300 S30
G03 X25.218679 Y15.666324 I0.494699 J-0.630797 F400.000000
G01 X25.212886 Y15.652333 
G01 X25.229963 Y15.643281 
G03 X25.306636 Y15.714833 I-0.190841 J0.281356
G01 X25.305748 Y15.729574 
G01 X25.291006 Y15.730463 
G01 X25.291016 Y15.730463 
M300 S50

(End cutting path id: path244)


(Start cutting path id: path244)
(Change tool to Default tool)

M300 S50
G00 X24.972656 Y16.691406

M300 S30
G02 X25.731458 Y17.438620 I65.177928 J-65.429806 F400.000000
G02 X26.160156 Y17.830078 I6.344985 J-6.518130
G02 X26.473924 Y18.138325 I214.813611 J-218.347528
G03 X26.523438 Y18.187500 I-3.965102 J4.041926
G01 X26.517563 Y18.193727 
G03 X25.781250 Y17.531250 I40.371001 J-45.610915
G03 X25.359565 Y17.127702 I8.703104 J-9.516363
G03 X24.716797 Y16.464844 I22.177302 J-22.148199
G01 X24.723430 Y16.458533 
G02 X24.972656 Y16.691406 I2.295551 J-2.206954
G01 X24.972656 Y16.691406 
M300 S50

(End cutting path id: path244)


(Start cutting path id: path244)
(Change tool to Default tool)

M300 S50
G00 X24.224609 Y17.375000

M300 S30
G01 X24.239350 Y17.374112 F400.000000
G01 X24.240239 Y17.359370 
G02 X24.176100 Y17.287033 I-0.630797 J0.494699
G01 X24.162109 Y17.281240 
G01 X24.153057 Y17.298317 
G02 X24.224609 Y17.374990 I0.281356 J-0.190841
G01 X24.224609 Y17.375000 
M300 S50

(End cutting path id: path244)


(Start cutting path id: path244)
(Change tool to Default tool)

M300 S50
G00 X23.919922 Y17.103517

M300 S30
G01 X23.923641 Y17.095634 F400.000000
G02 X23.791016 Y16.947267 I-1.904848 J1.569291
G02 X23.636394 Y16.798377 I-2.230890 J2.162055
G01 X23.617188 Y16.791017 
G01 X23.613469 Y16.798900 
G02 X23.746094 Y16.947267 I1.907301 J-1.571467
G02 X23.900714 Y17.096155 I2.234620 J-2.165923
G01 X23.919922 Y17.103517 
G01 X23.919922 Y17.103517 
M300 S50

(End cutting path id: path244)


(Start cutting path id: path244)
(Change tool to Default tool)

M300 S50
G00 X23.189450 Y16.429692

M300 S30
G03 X23.365717 Y16.597480 I-3.403563 J3.752031 F400.000000
G02 X23.484372 Y16.707035 I1.454550 J-1.456342
G01 X23.521482 Y16.748055 
G01 X23.502332 Y16.740516 
G03 X23.234373 Y16.480477 I6.287779 J-6.747389
G03 X23.210606 Y16.453782 I0.241117 J-0.238598
G02 X23.189453 Y16.429697 I-0.272524 J0.218016
G01 X23.189450 Y16.429692 
M300 S50

(End cutting path id: path244)


(Start cutting path id: path244)
(Change tool to Default tool)

M300 S50
G00 X22.576169 Y15.855473

M300 S30
G02 X22.696131 Y15.968833 I8.977755 J-9.380459 F400.000000
G03 X22.808591 Y16.074223 I-23.875141 J25.589477
G02 X22.947142 Y16.209937 I1.186536 J-1.072758
G01 X22.945309 Y16.214848 
G01 X22.931555 Y16.209070 
G02 X22.576169 Y15.855473 I-14.364162 J14.081411
G01 X22.576169 Y15.855473 
M300 S50

(End cutting path id: path244)


(Start cutting path id: path244)
(Change tool to Default tool)

M300 S50
G00 X23.556641 Y15.242183

M300 S30
G03 X23.486048 Y15.178011 I0.405095 J-0.516542 F400.000000
G01 X23.480471 Y15.164053 
G01 X23.497636 Y15.154709 
G03 X23.574221 Y15.224603 I-0.170334 J0.263547
G01 X23.573222 Y15.241184 
G01 X23.556641 Y15.242183 
G01 X23.556641 Y15.242183 
M300 S50

(End cutting path id: path244)


(Start cutting path id: path244)
(Change tool to Default tool)

M300 S50
G00 X24.035156 Y15.687500

M300 S30
G03 X23.953213 Y15.605724 I0.668300 J-0.751606 F400.000000
G02 X23.927734 Y15.583984 I-0.092413 J0.082508
G03 X23.959803 Y15.608985 I-7.391660 J9.514550
G03 X24.013674 Y15.658204 I-0.294348 J0.376257
G03 X24.025610 Y15.674117 I-0.065609 J0.061644
G02 X24.035154 Y15.687504 I0.081945 J-0.048326
G01 X24.035156 Y15.687500 
M300 S50

(End cutting path id: path244)


(Start cutting path id: path244)
(Change tool to Default tool)

M300 S50
G00 X21.263672 Y14.167964

M300 S30
G03 X21.147773 Y13.875355 I0.672986 J-0.435818 F400.000000
G03 X21.003906 Y12.732417 I10.430181 J-1.893425
G01 X21.072971 Y12.712309 
G03 X21.212891 Y13.119136 I-1.155282 J0.624812
G03 X21.323871 Y14.148588 I-8.607206 J1.448605
G01 X21.263671 Y14.167964 
G01 X21.263672 Y14.167964 
M300 S50

(End cutting path id: path244)


(Start cutting path id: path244)
(Change tool to Default tool)

M300 S50
G00 X23.525385 Y8.066422

M300 S30
G03 X23.532906 Y8.003928 I2.016015 J0.210927 F400.000000
G02 X23.533185 Y7.992202 I-0.052212 J-0.007108
G01 X23.536825 Y7.978664 
G02 X23.560525 Y7.943372 I-0.722726 J-0.510939
G03 X23.543687 Y8.000417 I-19.066842 J-5.597054
G02 X23.525365 Y8.066419 I1.850341 J0.549187
G01 X23.525385 Y8.066422 
M300 S50

(End cutting path id: path244)


(Start cutting path id: path244)
(Change tool to Default tool)

M300 S50
G00 X23.560545 Y7.943375

M300 S30
G02 X23.572651 Y7.900983 I-3.083449 J-0.903458 F400.000000
G03 X23.583985 Y7.863295 I0.910205 J0.253185
G02 X23.583792 Y7.890562 I0.114909 J0.014446
G01 X23.576185 Y7.916025 
G02 X23.567597 Y7.930054 I0.044547 J0.036913
G03 X23.560555 Y7.943365 I-0.086604 J-0.037299
G01 X23.560545 Y7.943375 
M300 S50

(End cutting path id: path244)


(Start cutting path id: path244)
(Change tool to Default tool)

M300 S50
G00 X23.859375 Y7.097653

M300 S30
G02 X23.889386 Y7.087053 I-0.135514 J-0.431447 F400.000000
G02 X23.925785 Y7.054683 I-0.025845 J-0.065711
G02 X23.937587 Y7.000284 I-0.089359 J-0.047866
G01 X23.921885 Y6.992183 
G01 X23.907714 Y6.985970 
G01 X23.904305 Y6.976553 
G02 X23.881261 Y7.036740 I0.128277 J0.083618
G03 X23.859385 Y7.097647 I-0.168261 J-0.026054
G01 X23.859375 Y7.097653 
M300 S50

(End cutting path id: path244)


(Start cutting path id: path244)
(Change tool to Default tool)

M300 S50
G00 X23.914065 Y6.951169

M300 S30
G03 X23.939507 Y6.924066 I0.756364 J0.684511 F400.000000
G01 X23.966795 Y6.916009 
G01 X23.993439 Y6.909110 
G01 X23.996095 Y6.890619 
G03 X23.989555 Y6.853983 I0.043017 J-0.026581
G03 X24.015625 Y6.789056 I0.189793 J0.038509
G01 X24.043900 Y6.767858 
G01 X24.056645 Y6.777336 
G01 X24.074767 Y6.785753 
G02 X24.291020 Y6.583976 I-1.504824 J-1.829551
G02 X24.317645 Y6.551734 I-0.226305 J-0.213991
G03 X24.341800 Y6.521476 I0.310633 J0.223213
G03 X24.115886 Y6.726872 I-2.341769 J-2.348762
G02 X23.914065 Y6.951164 I0.660332 J0.797121
G01 X23.914065 Y6.951169 
M300 S50

(End cutting path id: path244)


(Start cutting path id: path244)
(Change tool to Default tool)

M300 S50
G00 X25.060550 Y5.966794

M300 S30
G03 X25.216109 Y5.865851 I0.711041 J0.925420 F400.000000
G03 X25.572269 Y5.722653 I0.804577 J1.486618
G03 X25.769432 Y5.675227 I0.829799 J3.016162
G03 X26.212894 Y5.589841 I3.402115 J16.474997
G02 X26.548150 Y5.517545 I-0.847125 J-4.741805
G01 X26.546878 Y5.505861 
G02 X26.039619 Y5.551349 I-0.066155 J2.113369
G02 X25.322269 Y5.765627 I0.975885 J4.574915
G02 X25.188811 Y5.862287 I0.117592 J0.302821
G03 X25.060550 Y5.966799 I-0.322524 J-0.264855
G01 X25.060550 Y5.966794 
M300 S50

(End cutting path id: path244)


(Start cutting path id: path244)
(Change tool to Default tool)

M300 S50
G00 X27.980465 Y5.652356

M300 S30
G01 X27.968299 Y5.652020 F400.000000
G01 X27.957025 Y5.650356 
G02 X27.900021 Y5.618271 I-0.331063 J0.521510
G02 X27.878895 Y5.611296 I-0.035172 J0.071047
G02 X27.486350 Y5.548530 I-2.094881 J11.842623
G02 X27.294911 Y5.527316 I-0.430574 J3.011243
G03 X27.268452 Y5.519223 I0.004735 J-0.062779
G03 X27.232411 Y5.492156 I0.089025 J-0.156070
G01 X27.243613 Y5.466055 
G03 X27.658192 Y5.503876 I-0.081046 J3.179499
G03 X27.819514 Y5.574295 I-0.054343 J0.344488
G02 X27.980458 Y5.652314 I0.258831 J-0.328924
G01 X27.980465 Y5.652356 
M300 S50

(End cutting path id: path244)


(Start cutting path id: path244)
(Change tool to Default tool)

M300 S50
G00 X28.046875 Y5.660156

M300 S30
G03 X28.506275 Y5.836037 I-0.554991 J2.137551 F400.000000
G02 X29.046875 Y6.113281 I41.432116 J-80.123043
G03 X29.232250 Y6.224806 I-2.427588 J4.244948
G02 X29.324219 Y6.275391 I0.461045 J-0.729323
G02 X28.564815 Y5.866743 I-8.111638 J14.164189
G02 X27.980469 Y5.652344 I-1.215373 J2.408986
G02 X28.018358 Y5.662940 I0.107502 J-0.311363
G01 X28.046879 Y5.660144 
G01 X28.046875 Y5.660156 
M300 S50

(End cutting path id: path244)


(Start cutting path id: path244)
(Change tool to Default tool)

M300 S50
G00 X29.212894 Y6.150388

M300 S30
G01 X29.204428 Y6.133043 F400.000000
G02 X29.123054 Y6.080078 I-0.349017 J0.447228
G02 X29.044220 Y6.047896 I-0.193966 J0.362501
G01 X29.035164 Y6.054688 
G01 X29.043381 Y6.071971 
G02 X29.123054 Y6.124998 I0.315394 J-0.387508
G02 X29.203625 Y6.157413 I0.188640 J-0.352545
G01 X29.212894 Y6.150388 
G01 X29.212894 Y6.150388 
M300 S50

(End cutting path id: path244)


(Start cutting path id: path244)
(Change tool to Default tool)

M300 S50
G00 X29.324215 Y6.275403

M300 S30
G02 X29.343632 Y6.284111 I0.053223 J-0.092674 F400.000000
G03 X29.363275 Y6.292983 I-0.033357 J0.100035
G01 X29.359141 Y6.307069 
G01 X29.363275 Y6.296883 
G03 X29.346886 Y6.288168 I0.037519 J-0.090323
G02 X29.324215 Y6.275403 I-0.101122 J0.153082
G01 X29.324215 Y6.275403 
M300 S50

(End cutting path id: path244)


(Start cutting path id: path244)
(Change tool to Default tool)

M300 S50
G00 X29.363275 Y6.292983

M300 S30
G01 X29.372334 Y6.286527 F400.000000
G02 X29.367175 Y6.257823 I-0.051138 J-0.005625
G02 X29.381750 Y6.264584 I0.048232 J-0.084889
G03 X29.396475 Y6.271493 I-0.032346 J0.088082
G02 X29.407685 Y6.288699 I0.075057 J-0.036649
G01 X29.412105 Y6.300793 
G01 X29.418921 Y6.310047 
G03 X29.472655 Y6.341813 I-0.040096 J0.129152
G02 X29.417016 Y6.316741 I-0.135139 J0.225621
G03 X29.363280 Y6.292983 I0.081489 J-0.256964
G01 X29.363275 Y6.292983 
M300 S50

(End cutting path id: path244)


(Start cutting path id: path244)
(Change tool to Default tool)

M300 S50
G00 X29.472650 Y6.341813

M300 S30
G02 X29.512164 Y6.360005 I0.103669 J-0.173168 F400.000000
G03 X29.552730 Y6.378923 I-0.063151 J0.188365
G01 X29.560225 Y6.385690 
G01 X29.568360 Y6.392593 
G01 X29.585967 Y6.397511 
G01 X29.599610 Y6.400393 
G02 X29.772432 Y6.478934 I0.391742 J-0.632580
G03 X29.968751 Y6.572268 I-0.221097 J0.718192
G03 X30.107643 Y6.684991 I-0.536062 J0.802440
G02 X30.246095 Y6.802736 I0.910896 J-0.930818
G02 X30.206975 Y6.776275 I-2.411013 J3.522234
G02 X30.101563 Y6.707036 I-4.366901 J6.533514
G01 X29.945313 Y6.607426 
G01 X30.080079 Y6.720707 
G02 X30.217277 Y6.824737 I0.919011 J-1.069530
G02 X30.253907 Y6.835942 I0.037032 J-0.055589
G01 X30.270447 Y6.829603 
G01 X30.271487 Y6.824222 
G03 X30.289146 Y6.837920 I-0.316236 J0.425907
G02 X30.306647 Y6.851562 I0.373309 J-0.460868
G01 X30.345551 Y6.807479 
G01 X30.306647 Y6.853562 
G01 X30.297950 Y6.854482 
G01 X30.296847 Y6.869192 
G03 X30.314047 Y6.917080 I-0.124719 J0.071828
G01 X30.306647 Y6.925832 
G03 X30.081097 Y6.852353 I0.000000 J-0.382911
G03 X29.472662 Y6.341848 I3.431003 J-4.707002
G01 X29.472650 Y6.341813 
M300 S50

(End cutting path id: path244)


(Start cutting path id: path244)
(Change tool to Default tool)

M300 S50
G00 X29.599603 Y6.400407

M300 S30
G02 X29.575979 Y6.389543 I-0.055553 J0.089686 F400.000000
G03 X29.552733 Y6.378927 I0.032055 J-0.100948
G03 X29.487899 Y6.336539 I0.674610 J-1.102612
G01 X29.480463 Y6.322287 
G01 X29.488666 Y6.316503 
G03 X29.554683 Y6.343767 I-0.243883 J0.684087
G02 X29.565385 Y6.348628 I0.025900 J-0.042815
G01 X29.576163 Y6.353567 
G03 X29.650198 Y6.402064 I-0.355328 J0.623197
G01 X29.658193 Y6.418017 
G01 X29.650851 Y6.422615 
G02 X29.599603 Y6.400437 I-0.281119 J0.579295
G01 X29.599603 Y6.400407 
M300 S50

(End cutting path id: path244)


(Start cutting path id: path244)
(Change tool to Default tool)

M300 S50
G00 X29.199222 Y6.517575

M300 S30
G01 X29.193791 Y6.510670 F400.000000
G01 X29.187502 Y6.503905 
G03 X29.122348 Y6.486438 I0.000309 J-0.131402
G01 X29.109372 Y6.458985 
G02 X28.988745 Y6.315056 I-0.121964 J-0.020295
G02 X28.734372 Y6.455085 I-0.003194 J0.295256
G02 X28.680172 Y6.658726 I0.310133 J0.191576
G02 X28.742172 Y6.777351 I0.154257 J-0.005108
G01 X28.709455 Y6.779749 
G01 X28.691392 Y6.775351 
G03 X28.646398 Y6.594750 I0.260023 J-0.160686
G03 X28.712872 Y6.427694 I0.290881 J0.018993
G03 X29.018039 Y6.288668 I0.296038 J0.245374
G03 X29.132793 Y6.437494 I-0.002871 J0.120867
G01 X29.144686 Y6.464055 
G02 X29.187483 Y6.466794 I0.024381 J-0.045235
G01 X29.193904 Y6.478477 
G01 X29.199203 Y6.517574 
G01 X29.199222 Y6.517575 
M300 S50

(End cutting path id: path244)


(Start cutting path id: path244)
(Change tool to Default tool)

M300 S50
G00 X29.224612 Y6.636716

M300 S30
G03 X29.221976 Y6.556506 I0.222603 J-0.047464 F400.000000
G01 X29.199222 Y6.517575 
G03 X29.246346 Y6.542558 I-0.014052 J0.083441
G03 X29.277352 Y6.615235 I-0.081203 J0.077596
G01 X29.248746 Y6.628281 
G01 X29.224622 Y6.636715 
G01 X29.224612 Y6.636716 
M300 S50

(End cutting path id: path244)


(Start cutting path id: path244)
(Change tool to Default tool)

M300 S50
G00 X29.261722 Y6.804685

M300 S30
G01 X29.234269 Y6.813532 F400.000000
G01 X29.228522 Y6.802685 
G01 X29.212150 Y6.771839 
G02 X28.933600 Y6.787055 I-0.069410 J1.286600
G03 X28.795723 Y6.789661 I-0.077913 J-0.473622
G03 X28.746100 Y6.777255 I0.026751 J-0.212458
G01 X28.754778 Y6.776332 
G01 X28.757820 Y6.765535 
G01 X28.767443 Y6.744650 
G03 X29.007820 Y6.726475 I0.236326 J1.526883
G02 X29.196991 Y6.677125 I0.001030 J-0.383299
G02 X29.224617 Y6.636635 I-0.027153 J-0.048196
G02 X29.269701 Y6.732179 I0.225892 J-0.048182
G03 X29.261727 Y6.804604 I-0.040498 J0.032192
G01 X29.261722 Y6.804685 
M300 S50

(End cutting path id: path244)


(Start cutting path id: path244)
(Change tool to Default tool)

M300 S50
G00 X28.742191 Y6.777341

M300 S30
G01 X28.744072 Y6.777361 F400.000000
G01 X28.746091 Y6.777341 
G01 X28.742191 Y6.781241 
G01 X28.742191 Y6.777341 
G01 X28.742191 Y6.777341 
M300 S50

(End cutting path id: path244)


(Start cutting path id: path244)
(Change tool to Default tool)

M300 S50
G00 X29.375000 Y7.335938

M300 S30
G01 X29.368432 Y7.345870 F400.000000
G03 X29.332030 Y7.330038 I0.010180 J-0.073170
G03 X29.287887 Y7.270274 I0.093470 J-0.115224
G01 X29.302730 Y7.257768 
G01 X29.329442 Y7.254927 
G02 X29.345700 Y7.216748 I-0.036700 J-0.038179
G02 X29.329298 Y7.163576 I-0.094386 J0.000000
G01 X29.296870 Y7.146438 
G01 X29.288830 Y7.131785 
G03 X29.351560 Y7.060498 I0.260262 J0.165776
G03 X29.455202 Y6.991530 I0.371564 J0.446012
G01 X29.464842 Y7.001908 
G01 X29.472428 Y7.019739 
G02 X29.634764 Y7.037068 I0.162336 J-0.751712
G02 X29.791868 Y7.017901 I0.000000 J-0.653432
G01 X29.800779 Y6.996048 
G01 X29.807056 Y6.988995 
G03 X29.890619 Y7.039018 I-0.202010 J0.432267
G03 X29.970972 Y7.120506 I-0.227830 J0.305019
G01 X29.964839 Y7.140581 
G02 X29.914714 Y7.221657 I0.026639 J0.072503
G02 X29.980469 Y7.281206 I0.066576 J-0.007435
G01 X29.991452 Y7.294675 
G01 X29.972669 Y7.322226 
G03 X29.907450 Y7.340485 I-0.063059 J-0.099631
G03 X29.802747 Y7.320226 I0.005680 J-0.310050
G02 X29.417767 Y7.256898 I-0.348481 J0.916628
G02 X29.375013 Y7.335856 I0.001941 J0.052105
G01 X29.375000 Y7.335938 
M300 S50

(End cutting path id: path244)


(Start cutting path id: path244)
(Change tool to Default tool)

M300 S50
G00 X29.800781 Y7.275388

M300 S30
G02 X29.868042 Y7.264653 I0.024288 J-0.063905 F400.000000
G02 X29.898441 Y7.197258 I-0.051581 J-0.063819
G02 X29.850191 Y7.124561 I-0.084461 J0.003697
G02 X29.642581 Y7.076164 I-0.215364 J0.454359
G02 X29.402604 Y7.117200 I-0.010091 J0.663196
G01 X29.376956 Y7.173824 
G02 X29.416825 Y7.213021 I0.062959 J-0.024164
G02 X29.548831 Y7.236324 I0.132006 J-0.362235
G03 X29.694589 Y7.247409 I0.000000 J0.963854
G03 X29.800784 Y7.275384 I-0.078650 J0.514104
G01 X29.800781 Y7.275388 
M300 S50

(End cutting path id: path244)


(Start cutting path id: path244)
(Change tool to Default tool)

M300 S50
G00 X30.271478 Y6.824235

M300 S30
G03 X30.258815 Y6.813496 I0.077948 J-0.104749 F400.000000
G02 X30.246088 Y6.802755 I-0.087579 J0.090863
G02 X30.268077 Y6.817150 I0.434226 J-0.639277
G03 X30.275388 Y6.822285 I-0.048063 J0.076212
G01 X30.271488 Y6.824285 
G01 X30.271478 Y6.824235 
M300 S50

(End cutting path id: path244)


(Start cutting path id: path244)
(Change tool to Default tool)

M300 S50
G00 X31.074215 Y7.492202

M300 S30
G03 X31.019780 Y7.431300 I11.934194 J-10.721694 F400.000000
G02 X30.921871 Y7.332045 I-1.007406 J0.895827
G02 X30.670930 Y7.113853 I-4.530452 J4.957047
G02 X30.533199 Y7.011733 I-1.032501 J1.248610
G01 X30.526656 Y7.018295 
G02 X30.568359 Y7.064463 I0.177037 J-0.117997
G03 X30.605032 Y7.097221 I-0.396233 J0.480489
G02 X30.652339 Y7.140633 I0.855749 J-0.885055
G02 X30.950175 Y7.374115 I3.345861 J-3.961369
G03 X31.074214 Y7.492196 I-0.381189 J0.524613
G01 X31.074215 Y7.492202 
M300 S50

(End cutting path id: path244)


(Start cutting path id: path244)
(Change tool to Default tool)

M300 S50
G00 X31.208980 Y7.673842

M300 S30
G01 X31.200266 Y7.666072 F400.000000
G01 X31.191400 Y7.658212 
G01 X31.183600 Y7.662112 
G01 X31.194979 Y7.668349 
G01 X31.208990 Y7.673832 
G01 X31.208980 Y7.673842 
M300 S50

(End cutting path id: path244)


(Start cutting path id: path244)
(Change tool to Default tool)

M300 S50
G00 X31.378904 Y8.304704

M300 S30
G03 X31.476064 Y8.202732 I0.064968 J-0.035371 F400.000000
G01 X31.458984 Y8.242204 
G02 X31.418038 Y8.240479 I-0.023036 J0.059976
G01 X31.412114 Y8.255874 
G01 X31.408250 Y8.275868 
G02 X31.378914 Y8.304704 I0.088841 J0.119720
G01 X31.378904 Y8.304704 
M300 S50

(End cutting path id: path244)


(Start cutting path id: path244)
(Change tool to Default tool)

M300 S50
G00 X30.388670 Y8.218764

M300 S30
G01 X30.378603 Y8.188780 F400.000000
G02 X30.289060 Y8.177744 I-0.064833 J0.157254
G03 X30.174354 Y8.176768 I-0.054213 J-0.369534
G01 X30.160154 Y8.156264 
G01 X30.152122 Y8.123686 
G02 X30.107424 Y8.091814 I-0.079728 J0.064532
G01 X30.079571 Y8.096951 
G01 X30.076174 Y8.119154 
G01 X30.063052 Y8.131638 
G03 X29.943361 Y8.027354 I0.398272 J-0.577942
G03 X29.884060 Y7.949369 I0.400506 J-0.366090
G01 X29.890631 Y7.943374 
G02 X29.952254 Y7.969346 I0.081134 J-0.106413
G01 X29.968761 Y7.955094 
G02 X29.957420 Y7.914671 I-0.077711 J0.000000
G02 X29.923841 Y7.880874 I-0.087334 J0.053190
G03 X29.898987 Y7.847661 I0.029869 J-0.048257
G01 X29.904311 Y7.810564 
G01 X29.902527 Y7.784556 
G01 X29.871111 Y7.769544 
G01 X29.858452 Y7.755419 
G01 X29.875011 Y7.728524 
G03 X29.938408 Y7.713138 I0.054420 J0.085927
G03 X30.074230 Y7.746104 I-0.041348 J0.466632
G02 X30.377913 Y7.841688 I0.726704 J-1.778628
G01 X30.394542 Y7.818374 
G01 X30.407257 Y7.804693 
G03 X30.484382 Y7.865244 I-0.123060 J0.236139
G03 X30.521463 Y7.922673 I-0.175752 J0.154168
G01 X30.513682 Y7.929694 
G01 X30.483979 Y7.944165 
G02 X30.500012 Y8.033209 I0.145508 J0.019766
G03 X30.507333 Y8.107128 I-0.085557 J0.045796
G03 X30.449232 Y8.197272 I-0.186679 J-0.056526
G03 X30.396369 Y8.228107 I-0.105893 J-0.120809
G01 X30.388682 Y8.218752 
G01 X30.388670 Y8.218764 
M300 S50

(End cutting path id: path244)


(Start cutting path id: path244)
(Change tool to Default tool)

M300 S50
G00 X30.308590 Y8.117202

M300 S30
G02 X30.433269 Y8.102144 I0.045791 J-0.144552 F400.000000
G02 X30.453121 Y8.029312 I-0.028578 J-0.046911
G03 X30.427650 Y7.945704 I0.198250 J-0.106079
G03 X30.439451 Y7.894546 I0.081361 J-0.008172
G01 X30.437846 Y7.877251 
G01 X30.421871 Y7.875016 
G03 X30.371521 Y7.883964 I-0.036451 J-0.058976
G03 X30.152340 Y7.820326 I0.283645 J-1.386193
G01 X29.929684 Y7.736346 
G01 X29.970704 Y7.843768 
G03 X30.002214 Y7.951998 I-0.654014 J0.249111
G03 X30.001954 Y8.000018 I-0.113835 J0.023394
G01 X30.013883 Y8.032774 
G02 X30.080084 Y8.060568 I0.085064 J-0.109873
G03 X30.167368 Y8.077340 I-0.112518 J0.821043
G03 X30.308600 Y8.117208 I-0.559415 J2.251836
G01 X30.308590 Y8.117202 
M300 S50

(End cutting path id: path244)


(Start cutting path id: path244)
(Change tool to Default tool)

M300 S50
G00 X29.789056 Y8.843766

M300 S30
G02 X29.741733 Y8.855503 I0.279187 J1.226935 F400.000000
G03 X29.701166 Y8.865246 I-0.202115 J-0.752226
G03 X29.618820 Y8.870813 I-0.060785 J-0.287308
G02 X29.445306 Y8.873046 I-0.073860 J1.003258
G03 X29.618740 Y8.861447 I0.160377 J1.095639
G02 X29.789056 Y8.843746 I0.008771 J-0.743814
G01 X29.789056 Y8.843766 
M300 S50

(End cutting path id: path244)


(Start cutting path id: path244)
(Change tool to Default tool)

M300 S50
G00 X28.390625 Y10.455078

M300 S30
G03 X27.462715 Y10.403640 I0.036268 J-9.049439 F400.000000
G03 X26.613281 Y10.265625 I0.844329 J-7.879541
G02 X24.119943 Y9.789535 I-10.135125 J46.311788
G02 X23.205078 Y9.708984 I-1.000120 J6.123370
G01 X22.730469 Y9.703084 
G01 X22.882812 Y9.578084 
G02 X23.062552 Y9.327784 I-0.383260 J-0.464903
G02 X23.130859 Y8.925740 I-0.978923 J-0.373143
G03 X23.245390 Y7.886302 I3.817697 J-0.105373
G03 X23.619141 Y6.988240 I3.213380 J0.810525
G03 X24.774371 Y5.819738 I2.985669 J1.796451
G03 X26.193359 Y5.400350 I1.480009 J2.397325
G03 X26.516378 Y5.428554 I0.032141 J1.495760
G03 X26.650391 Y5.490190 I-0.061480 J0.310180
G03 X26.707576 Y5.562622 I-0.121994 J0.155105
G01 X26.693361 Y5.583940 
G02 X26.613414 Y5.587021 I-0.019978 J0.520476
G02 X26.468752 Y5.609330 I0.224038 J1.932909
G03 X26.042374 Y5.689101 I-7.326600 J-37.981463
G03 X25.945314 Y5.705030 I-0.525971 J-2.901224
G02 X25.858623 Y5.720752 I0.193424 J1.313404
G02 X25.835940 Y5.728470 I0.021958 J0.101725
G03 X25.812522 Y5.737235 I-0.067805 J-0.145482
G03 X25.767580 Y5.748000 I-0.141725 J-0.492503
G02 X25.724121 Y5.759659 I0.058883 J0.306318
G02 X25.589846 Y5.810500 I0.851478 J2.451548
G03 X25.454796 Y5.857402 I-0.490711 J-1.195080
G03 X25.378908 Y5.871050 I-0.105308 J-0.367738
G02 X25.317151 Y5.891654 I0.010320 J0.133786
G01 X25.302738 Y5.917920 
G01 X25.287495 Y5.935633 
G03 X25.232428 Y5.929640 I-0.016179 J-0.107327
G02 X25.193086 Y5.928367 I-0.021503 J0.055972
G01 X25.187508 Y5.943310 
G03 X25.162995 Y6.021373 I-0.046010 J0.028432
G03 X25.029305 Y6.011670 I-0.057553 J-0.132874
G01 X25.007077 Y6.011503 
G01 X25.000005 Y6.029250 
G01 X24.990805 Y6.064768 
G03 X24.843755 Y6.187453 I-0.717113 J-0.710058
G03 X24.743585 Y6.222910 I-0.116706 J-0.170485
G01 X24.736333 Y6.216753 
G02 X24.586079 Y6.324927 I21.055237 J29.404177
G02 X24.443364 Y6.441362 I0.934918 J1.291616
G02 X24.407751 Y6.510034 I0.391665 J0.246683
G03 X24.318364 Y6.646440 I-0.408446 J-0.170166
G02 X24.045419 Y6.960613 I2.989631 J2.872959
G02 X23.898443 Y7.181597 I1.337149 J1.048705
G03 X23.790389 Y7.346373 I-1.202500 J-0.670734
G03 X23.751958 Y7.384722 I-0.160970 J-0.122886
G02 X23.738055 Y7.421715 I0.233422 J0.108833
G03 X23.724618 Y7.458942 I-0.298478 J-0.086699
G02 X23.706616 Y7.508559 I0.388642 J0.169078
G03 X23.689458 Y7.558552 I-0.565128 J-0.166020
G02 X23.687510 Y7.564398 I0.063214 J0.024313
G03 X23.685558 Y7.570272 I-0.066709 J-0.018905
G03 X23.687013 Y7.619906 I-0.070090 J0.026893
G01 X23.664078 Y7.636682 
G01 X23.640213 Y7.653389 
G02 X23.640638 Y7.703092 I0.066676 J0.024283
G03 X23.640802 Y7.751810 I-0.064047 J0.024574
G01 X23.615248 Y7.769502 
G01 X23.610230 Y7.775991 
G01 X23.607448 Y7.783172 
G02 X23.596195 Y7.820373 I0.345941 J0.124945
G03 X23.584008 Y7.863252 I-0.600670 J-0.147553
G03 X23.589564 Y7.842961 I0.073983 J0.009351
G01 X23.589908 Y7.826142 
G03 X23.594723 Y7.813473 I0.075545 J0.021462
G02 X23.599708 Y7.800752 I-0.080921 J-0.039049
G01 X23.594860 Y7.807566 
G01 X23.591908 Y7.816382 
G01 X23.591223 Y7.821027 
G01 X23.589908 Y7.826182 
G03 X23.466350 Y8.113405 I-1.193424 J-0.343200
G02 X23.375064 Y8.410166 I0.576684 J0.339814
G02 X23.369669 Y8.569865 I2.594449 J0.167589
G01 X23.375064 Y8.570322 
G03 X23.457319 Y8.275297 I1.429847 J0.239673
G02 X23.525455 Y8.066416 I-1.637036 J-0.649544
G03 X23.518583 Y8.128772 I-3.973957 J-0.406370
G03 X23.502015 Y8.257822 I-6.408895 J-0.757234
G02 X23.521893 Y8.706762 I1.227558 J0.170556
G02 X23.646546 Y8.882822 I0.276769 J-0.063798
G02 X23.849379 Y8.935953 I0.184648 J-0.291180
G03 X24.033265 Y8.968762 I0.021669 J0.410264
G02 X23.683660 Y8.846163 I-1.123839 J2.644977
G03 X23.627015 Y8.771496 I0.020888 J-0.074667
G03 X23.644963 Y8.726060 I0.066483 J0.000000
G01 X23.675845 Y8.718766 
G03 X23.705862 Y8.745758 I-0.019035 J0.051355
G03 X23.711005 Y8.789076 I-0.058113 J0.028863
G01 X23.718784 Y8.814323 
G01 X23.740305 Y8.816416 
G03 X23.873995 Y8.806713 I0.076137 J0.123172
G03 X23.898509 Y8.884776 I-0.021497 J0.049631
G01 X23.903518 Y8.900091 
G01 X23.937569 Y8.900406 
G03 X23.996266 Y8.899091 I0.031183 J0.081239
G03 X24.074288 Y8.947276 I-0.063177 J0.189558
G02 X24.136334 Y8.996000 I0.232744 J-0.232511
G01 X24.146558 Y8.990246 
G01 X24.156800 Y8.982723 
G03 X24.201248 Y9.005876 I-0.042706 J0.136228
G01 X24.203133 Y9.006813 
G01 X24.205148 Y9.007876 
G02 X24.268228 Y9.023377 I0.137423 J-0.423132
G03 X24.334054 Y9.037176 I-0.145087 J0.856026
G02 X24.353440 Y9.036741 I0.008121 J-0.070317
G01 X24.375074 Y9.041076 
G02 X24.889646 Y9.179701 I0.489208 J-0.791577
G02 X26.457105 Y8.984436 I-0.223016 J-8.179124
G03 X26.569568 Y8.969531 I0.139816 J0.623204
G03 X27.480543 Y8.941466 I1.620766 J37.810647
G02 X29.131382 Y8.894594 I-1.604444 J-85.603540
G02 X29.445386 Y8.873106 I-0.197527 J-5.191478
G03 X29.078732 Y8.924744 I-4.937749 J-33.732791
G03 X28.101636 Y8.992247 I-1.003026 J-7.413248
G02 X26.749461 Y9.029404 I0.097531 J28.171325
G02 X26.125074 Y9.093809 I0.314949 J6.112148
G03 X25.210179 Y9.152695 I-0.784364 J-5.049749
G03 X24.634840 Y9.103609 I0.123880 J-4.848316
G03 X24.833831 Y9.155054 I-0.080354 J0.721387
G02 X25.125074 Y9.212984 I0.289467 J-0.694219
G02 X25.810890 Y9.185979 I-0.021026 J-9.255832
G02 X26.279371 Y9.125094 I-0.341826 J-4.463020
G03 X26.749278 Y9.070736 I0.640728 J3.480610
G03 X28.125074 Y9.035254 I1.476204 J30.548399
G02 X29.498585 Y9.000362 I-0.104332 J-31.158402
G02 X29.851636 Y8.953224 I-0.099164 J-2.088413
G02 X30.521407 Y8.760779 I-1.221065 J-5.511447
G02 X31.125074 Y8.500099 I-1.667597 J-4.691020
G02 X31.304110 Y8.370459 I-0.330858 J-0.645369
G02 X31.326246 Y8.345802 I-0.195834 J-0.198075
G03 X31.252998 Y8.366188 I-0.114181 J-0.268465
G01 X31.238356 Y8.343802 
G01 X31.230519 Y8.330209 
G02 X31.171946 Y8.345802 I0.003732 J0.131832
G02 X31.103451 Y8.402959 I0.103905 J0.194134
G01 X31.101636 Y8.433692 
G03 X31.077748 Y8.509105 I-0.044389 J0.027429
G03 X30.234449 Y8.804786 I-2.639971 J-6.178944
G03 X29.989133 Y8.829185 I-0.193068 J-0.695720
G02 X29.789136 Y8.843846 I-0.050009 J0.689257
G02 X29.983948 Y8.798795 I-6.294085 J-27.661007
G02 X30.080152 Y8.773536 I-0.437927 J-1.863763
G02 X30.126827 Y8.757743 I-0.157635 J-0.542730
G02 X30.453199 Y8.629004 I-10.875699 J-28.049648
G03 X30.601535 Y8.583089 I0.354997 J0.884304
G01 X30.625074 Y8.589944 
G01 X30.645791 Y8.592991 
G02 X30.712964 Y8.543074 I-0.136411 J-0.253723
G03 X30.785221 Y8.498646 I0.129104 J0.128999
G03 X30.843823 Y8.500104 I0.027250 J0.083134
G02 X30.879626 Y8.501758 I0.020394 J-0.053132
G01 X30.884843 Y8.488384 
G01 X30.891070 Y8.460463 
G03 X31.169999 Y8.302837 I1.372866 J2.103776
G02 X31.444781 Y8.148946 I-1.144149 J-2.365214
G01 X31.445389 Y8.127056 
G03 X31.296277 Y7.972323 I0.356198 J-0.492472
G03 X31.257889 Y7.845806 I0.189289 J-0.126517
G01 X31.265059 Y7.836420 
G03 X31.326249 Y7.828226 I0.061190 J0.224376
G01 X31.365817 Y7.848615 
G01 X31.371169 Y7.890726 
G01 X31.376279 Y7.917035 
G01 X31.398509 Y7.920026 
G01 X31.419578 Y7.925745 
G01 X31.421949 Y7.964946 
G02 X31.416504 Y8.011411 I0.088256 J0.033893
G01 X31.429749 Y8.017676 
G01 X31.459626 Y8.022038 
G03 X31.525449 Y8.127051 I-0.278077 J0.247437
G02 X31.585579 Y8.238797 I0.581665 J-0.240942
G01 X31.601619 Y8.240332 
G01 X31.605898 Y8.217617 
G02 X31.457088 Y7.908301 I-4.438979 J1.945112
G02 X31.354214 Y7.805071 I-0.218440 J0.114811
G03 X31.232479 Y7.697364 I0.162134 J-0.305901
G03 X31.184377 Y7.682306 I0.108815 J-0.431949
G03 X31.054745 Y7.593848 I0.116861 J-0.310471
G02 X30.872239 Y7.407272 I-2.353413 J2.119531
G02 X30.613338 Y7.177832 I-3.944005 J4.189630
G03 X30.357698 Y6.949845 I3.304632 J-3.962787
G01 X30.345760 Y6.921973 
G02 X30.338418 Y6.894318 I-0.055757 J0.000000
G02 X30.308650 Y6.855563 I-0.156466 J0.089375
G03 X30.445245 Y6.967034 I-1.321078 J1.758259
G02 X30.564509 Y7.068453 I2.614625 J-2.953840
G03 X30.333036 Y6.835578 I1.256386 J-1.480304
G02 X30.019587 Y6.554782 I-1.134834 J0.951451
G02 X29.782139 Y6.444243 I-0.478939 J0.718506
G03 X29.576228 Y6.353610 I0.240477 J-0.825565
G01 X29.572413 Y6.350692 
G01 X29.568428 Y6.347710 
G01 X29.561295 Y6.345571 
G01 X29.554758 Y6.343810 
G02 X29.473772 Y6.306343 I-0.210057 J0.347783
G03 X29.396554 Y6.271540 I0.134538 J-0.401569
G03 X29.387080 Y6.249384 I0.209812 J-0.102822
G02 X29.373114 Y6.228570 I-0.049792 J0.018316
G01 X29.363910 Y6.231393 
G01 X29.367214 Y6.253960 
G01 X29.367214 Y6.257860 
G02 X29.200049 Y6.180072 I-0.545131 J0.952970
G03 X29.046901 Y6.113329 I0.483368 J-1.318202
G02 X28.622952 Y5.879255 I-7.998753 J13.986171
G03 X28.599635 Y5.853564 I0.024158 J-0.045353
G01 X28.578285 Y5.836637 
G02 X28.527365 Y5.841844 I-0.015847 J0.096607
G03 X28.473169 Y5.843463 I-0.029412 J-0.076625
G03 X28.406271 Y5.802784 I0.049816 J-0.157269
G02 X28.341001 Y5.759483 I-0.139796 J0.139878
G02 X28.291037 Y5.757864 I-0.027172 J0.066788
G03 X28.251187 Y5.754543 I-0.016053 J-0.048126
G01 X28.234397 Y5.726614 
G01 X28.220352 Y5.701288 
G01 X28.193377 Y5.701224 
G01 X28.156574 Y5.706624 
G03 X28.123067 Y5.681694 I0.014697 J-0.054734
G02 X28.090525 Y5.656008 I-0.051604 J0.031920
G01 X28.054707 Y5.660214 
G01 X28.050945 Y5.660343 
G01 X28.046907 Y5.660214 
G03 X27.815664 Y5.547117 I0.162185 J-0.624564
G02 X27.584016 Y5.449277 I-0.302687 J0.393501
G03 X27.239083 Y5.373097 I0.342987 J-2.371994
G01 X27.212923 Y5.337949 
G03 X27.282709 Y5.268898 I0.069055 J0.000000
G03 X27.980501 Y5.345749 I-0.037534 J3.547139
G03 X28.923627 Y5.685101 I-0.763103 J3.601053
G03 X30.412141 Y6.617234 I-5.256713 J10.048961
G03 X31.505812 Y7.769605 I-2.720692 J3.677272
G03 X32.035188 Y9.070358 I-2.973293 J1.968158
G01 X32.091828 Y9.373093 
G01 X31.953156 Y9.476608 
G03 X31.455005 Y9.777573 I-1.734733 J-2.308552
G03 X30.531281 Y10.148484 I-3.513573 J-7.414575
G03 X29.578517 Y10.373102 I-1.726427 J-5.190025
G03 X28.390656 Y10.455124 I-1.154870 J-8.082605
G01 X28.390625 Y10.455078 
M300 S50

(End cutting path id: path244)


(Start cutting path id: path244)
(Change tool to Default tool)

M300 S50
G00 X37.199219 Y14.775386

M300 S30
G03 X36.854573 Y14.689023 I-0.146447 J-0.146447 F400.000000
G03 X36.546875 Y12.624995 I6.847173 J-2.075701
G03 X36.566836 Y12.533216 I0.219324 J-0.000359
G03 X36.634765 Y12.435542 I0.305858 J0.140255
G03 X36.786851 Y12.367313 I0.165670 J0.165670
G03 X36.919921 Y12.417962 I0.010084 J0.173637
G03 X36.985781 Y12.488194 I-1.064710 J1.064433
G01 X36.990231 Y12.499992 
G01 X36.992585 Y12.513412 
G02 X37.101559 Y12.808586 I23.412083 J-8.475663
G03 X37.191163 Y13.088669 I-2.733654 J1.028928
G01 X37.179689 Y13.103508 
G01 X37.154875 Y13.089840 
G03 X36.996095 Y12.814445 I2.925464 J-1.870161
G02 X36.784929 Y12.567438 I-0.632774 J0.327191
G02 X36.695313 Y12.593742 I-0.034769 J0.047353
G02 X36.690493 Y12.662298 I0.109951 J0.042177
G02 X36.896485 Y13.470695 I17.234217 J-3.961094
G03 X37.215530 Y14.718431 I-27.246807 J7.631631
G03 X37.199220 Y14.775383 I-0.059485 J0.013776
G01 X37.199219 Y14.775386 
M300 S50

(End cutting path id: path244)


(Start cutting path id: path244)
(Change tool to Default tool)

M300 S50
G00 X38.058594 Y27.162109

M300 S30
G02 X37.752595 Y26.767832 I-0.961920 J0.430666 F400.000000
G02 X37.074219 Y26.380859 I-1.590999 J2.000977
G02 X35.799760 Y26.007176 I-2.972578 J7.777949
G02 X31.902344 Y25.302734 I-15.204986 J72.989832
G03 X28.441983 Y24.750938 I45.198424 J-294.569033
G03 X28.167969 Y24.683594 I0.299534 J-1.809912
G01 X28.164461 Y24.690742 
G02 X28.291016 Y24.767574 I0.847355 J-1.253091
G03 X28.491695 Y24.888958 I-1.184794 J2.185347
G01 X28.501953 Y24.908199 
G01 X28.456152 Y24.944567 
G03 X27.767578 Y24.738277 I1.304487 J-5.606578
G02 X27.412104 Y24.608236 I-23.059512 J62.483386
G02 X27.035156 Y24.472652 I-26.446644 J72.934823
G03 X26.662670 Y24.325285 I1.977789 J-5.543519
G03 X26.218750 Y24.115230 I3.143755 J-7.217957
G03 X24.140864 Y22.900173 I9.803004 J-19.148502
G03 X24.068359 Y22.691402 I0.100655 J-0.151933
G03 X24.156557 Y22.631418 I0.083025 J0.027244
G03 X24.878906 Y22.740232 I-0.239814 J4.044014
G02 X25.410859 Y22.863391 I5.279697 J-21.593827
G01 X25.425781 Y22.859373 
G02 X25.442396 Y22.772900 I-0.049471 J-0.054338
G02 X25.074219 Y22.136717 I-4.591820 J2.232787
G02 X24.922240 Y21.930129 I-2.821781 J1.916683
G02 X24.582031 Y21.517576 I-11.807171 J9.390147
G03 X24.249347 Y21.106654 I7.515366 J-6.424591
G03 X24.234375 Y21.062498 I0.057625 J-0.044156
G01 X24.276823 Y21.038357 
G03 X25.707031 Y21.939451 I-16.858464 J28.343159
G02 X27.156468 Y22.836928 I14.138081 J-21.214006
G02 X27.605469 Y23.029295 I1.048553 J-1.827230
G02 X28.503974 Y23.223274 I1.723752 J-5.806453
G02 X28.941406 Y23.212889 I0.186624 J-1.356957
G01 X29.091797 Y23.185549 
G01 X28.947266 Y23.097659 
G03 X28.921210 Y23.037549 I0.029487 J-0.048484
G01 X28.964846 Y23.013679 
G02 X29.077862 Y23.012460 I0.054955 J-0.144532
G02 X29.316408 Y22.871101 I-0.348299 J-0.859720
G02 X29.542980 Y22.678743 I-4.965067 J-6.077794
G02 X29.835940 Y22.412116 I-8.437995 J-9.565627
G03 X30.447031 Y21.905996 I4.369446 J4.653710
G03 X30.525393 Y21.912116 I0.035603 J0.048879
G01 X30.525812 Y21.933285 
G03 X30.394533 Y22.052741 I-0.752908 J-0.695561
G02 X30.250849 Y22.178867 I0.842531 J1.104727
G02 X30.146486 Y22.302741 I0.706995 J0.701537
G01 X30.050786 Y22.435554 
G01 X30.173833 Y22.390634 
G02 X31.149325 Y21.916391 I-2.163768 J-5.691143
G02 X31.164067 Y21.794931 I-0.040005 J-0.066481
G01 X31.143358 Y21.783649 
G02 X30.152349 Y21.572275 I-14.857970 J67.231459
G03 X28.776517 Y21.269106 I10.060515 J-48.929796
G03 X28.703130 Y21.230478 I0.037849 J-0.160932
G01 X28.730713 Y21.171808 
G03 X30.480474 Y21.482431 I-3.584716 J25.276516
G02 X31.235757 Y21.636297 I8.429167 J-39.445751
G02 X31.345708 Y21.650400 I0.165284 J-0.852916
G03 X31.453815 Y21.666175 I-0.042912 J0.672396
G03 X31.480474 Y21.681650 I-0.011695 J0.050847
G02 X31.535386 Y21.714229 I0.081991 J-0.075628
G02 X32.990239 Y22.058603 I14.191916 J-56.710377
G01 X32.995822 Y22.047102 
G02 X32.908209 Y21.992193 I-0.263370 J0.322883
G02 X32.223240 Y21.735583 I-2.006505 J4.313464
G02 X31.156256 Y21.484380 I-3.029868 J10.477748
G01 X31.128404 Y21.420856 
G03 X31.226566 Y21.373052 I0.087702 J0.055403
G03 X32.208956 Y21.578853 I-0.480636 J4.741931
G03 X33.910160 Y22.238286 I-4.847369 J15.029329
G02 X34.247182 Y22.388727 I9.895952 J-21.716417
G01 X34.265629 Y22.392583 
G01 X34.276663 Y22.362133 
G02 X34.021488 Y22.189458 I-0.984740 J1.180337
G01 X33.812504 Y22.078130 
G01 X33.980473 Y22.103520 
G02 X34.134412 Y22.115578 I0.155442 J-0.995764
G01 X34.146488 Y22.103520 
G01 X34.134984 Y22.084373 
G02 X33.513676 Y21.767582 I-9.507371 J17.878711
G03 X33.306367 Y21.588991 I0.236374 J-0.484002
G01 X33.349613 Y21.529301 
G03 X34.189151 Y21.918322 I-0.886060 J3.012595
G03 X35.595707 Y23.005863 I-6.401004 J9.731991
G03 X36.403953 Y23.829424 I-6.426937 J7.115816
G03 X36.400395 Y23.931645 I-0.056577 J0.049203
G01 X36.373791 Y23.933641 
G03 X36.115238 Y23.720707 I1.866186 J-2.529439
G02 X35.855811 Y23.485293 I-22.168188 J24.168772
G02 X35.703129 Y23.349613 I-13.476979 J15.012018
G01 X35.550785 Y23.214848 
G01 X35.691410 Y23.380863 
G03 X35.826235 Y23.551757 I-2.472667 J2.089415
G03 X36.050785 Y23.869145 I-8.420876 J6.195846
G02 X36.477340 Y24.375295 I2.658710 J-1.807798
G02 X36.841801 Y24.632816 I1.021235 J-1.058656
G02 X37.626141 Y24.742192 I0.554854 J-1.111922
G02 X37.878910 Y24.437504 I-0.057252 J-0.304688
G02 X37.710720 Y23.991903 I-0.674381 J0.000000
G02 X37.093754 Y23.544926 I-1.298568 J1.143135
G02 X36.886023 Y23.466617 I-0.984356 J2.296531
G02 X36.554692 Y23.369145 I-1.792538 J5.481395
G03 X36.359916 Y23.276546 I0.146488 J-0.559275
G01 X36.373051 Y23.236332 
G03 X37.525937 Y23.610970 I-0.000000 J1.961226
G03 X38.042973 Y24.451176 I-0.761266 J1.047646
G03 X37.969021 Y24.720461 I-0.331404 J0.053786
G03 X37.644535 Y24.927738 I-0.490959 J-0.410956
G03 X37.219985 Y24.931604 I-0.219722 J-0.815996
G03 X36.644535 Y24.677738 I0.448827 J-1.796511
G01 X36.410160 Y24.521488 
G01 X36.529301 Y24.703129 
G01 X36.507600 Y24.734231 
G03 X36.421879 Y24.677739 I0.034408 J-0.145492
G01 X36.238285 Y24.429693 
G01 X36.263675 Y24.648443 
G03 X36.178125 Y24.786843 I-0.129845 J0.015379
G03 X35.986331 Y24.748053 I-0.063917 J-0.177518
G02 X35.469564 Y24.386579 I-1.595821 J1.731277
G02 X35.123050 Y24.302740 I-0.345543 J0.670158
G02 X34.801292 Y24.383136 I0.000806 J0.687287
G02 X34.724612 Y24.513678 I0.067842 J0.127643
G02 X34.760256 Y24.584030 I0.090789 J-0.001793
G02 X35.035159 Y24.751959 I0.939930 J-1.229706
G03 X35.272333 Y24.880568 I-1.098851 J2.309441
G03 X35.492191 Y25.031256 I-1.360239 J2.220359
G02 X35.712984 Y25.180620 I1.412566 J-1.850216
G02 X36.123050 Y25.408209 I3.898162 J-6.540415
G03 X37.758283 Y26.488302 I-4.170230 J8.091521
G03 X38.138675 Y27.076178 I-0.743766 J0.898269
G03 X38.115319 Y27.171531 I-0.096990 J0.026779
G01 X38.058595 Y27.162118 
G01 X38.058594 Y27.162109 
M300 S50

(End cutting path id: path244)


(Start cutting path id: path244)
(Change tool to Default tool)

M300 S50
G00 X29.523438 Y25.992188

M300 S30
G03 X28.586294 Y25.999956 I-0.508970 J-4.869863 F400.000000
G03 X26.167969 Y25.697266 I2.883947 J-32.853027
G03 X25.777714 Y25.589422 I0.301455 J-1.850913
G01 X25.789062 Y25.546875 
G02 X26.072605 Y25.578615 I0.638732 J-4.423663
G01 X26.089844 Y25.572265 
G01 X26.087715 Y25.561920 
G02 X25.871094 Y25.484375 I-1.192627 J2.990239
G03 X25.013077 Y25.143116 I1.986116 J-6.242911
G03 X24.568359 Y24.857422 I0.943228 J-1.957224
G01 X24.579343 Y24.837697 
G03 X25.035156 Y25.013672 I-1.717805 J5.127801
G02 X26.161040 Y25.443898 I4.983385 J-11.353013
G02 X27.150391 Y25.705078 I2.733160 J-8.348793
G02 X28.344988 Y25.868136 I1.866155 J-9.214366
G02 X29.568359 Y25.878906 I0.697471 J-9.739261
G01 X29.605237 Y25.930181 
G03 X29.523439 Y25.992188 I-0.092098 J-0.036536
G01 X29.523438 Y25.992188 
M300 S50

(End cutting path id: path244)


(Start cutting path id: path244)
(Change tool to Default tool)

M300 S50
G00 X28.123047 Y30.275391

M300 S30
G03 X26.780308 Y30.209072 I-0.033123 J-12.955595 F400.000000
G03 X25.546875 Y30.013672 I1.130591 J-11.127317
G03 X23.093371 Y29.338587 I4.844940 J-22.404270
G03 X22.908203 Y29.126953 I0.088866 J-0.264575
G01 X22.953548 Y29.083312 
G03 X23.857422 Y29.347656 I-1.931890 J8.283207
G02 X27.545004 Y30.116531 I4.687870 J-13.255977
G02 X30.658203 Y29.833984 I0.690615 J-9.682987
G02 X31.234825 Y29.684886 I-90.438052 J-350.952614
G03 X31.345703 Y29.656250 I12.935892 J49.859483
G03 X31.389135 Y29.660640 I0.015745 J0.061258
G01 X31.390623 Y29.677730 
G03 X31.003123 Y29.868772 I-0.754286 J-1.041442
G03 X29.712889 Y30.177730 I-3.491501 J-11.732243
G03 X29.188065 Y30.241508 I-0.794240 J-4.344542
G03 X28.123045 Y30.275386 I-1.111674 J-18.189738
G01 X28.123047 Y30.275391 
M300 S50

(End cutting path id: path244)


(Start cutting path id: path244)
(Change tool to Default tool)

M300 S50
G00 X12.146484 Y12.814453

M300 S30
G01 X12.127711 Y12.812299 F400.000000
G03 X12.123044 Y12.570312 I1.558703 J-0.151103
G02 X12.139640 Y12.192129 I-13.291020 J-0.772726
G02 X12.148434 Y11.703125 I-20.966617 J-0.621618
G03 X12.173514 Y11.327419 I3.119847 J0.019572
G01 X12.197264 Y11.324219 
G03 X12.307385 Y11.927241 I-1.330548 J0.554545
G03 X12.146484 Y12.814453 I-3.102061 J-0.104381
G01 X12.146484 Y12.814453 
M300 S50

(End cutting path id: path244)


(Footer)
M5
G00 X0.0000 Y0.0000
M2
(Using default footer. To add your own footer create file "footer" in the output dir.)
(end)
%
