%
(Header)
(Generated by gcodetools from Inkscape.)
(Using default header. To add your own header create file "header" in the output dir.)
M3
(Header end.)
G21 (All units in mm)

(Start cutting path id: path11629)
(Change tool to Default tool)

M300 S50
G00 X18.234375 Y35.644531

M300 S30
G01 X11.837891 Y22.042969  F400.000000
G01 X5.443359 Y8.441406 
G01 X5.443359 Y8.119141 
G03 X5.498998 Y7.808570  I0.894614 J-0.000000
G03 X6.136719 Y6.246094  I24.003204 J8.885470
G01 X6.830078 Y4.693359 
G01 X20.324219 Y4.697259 
G01 X33.816406 Y4.701159 
G01 X34.613281 Y6.482409 
G01 X35.408203 Y8.263659 
G01 X28.656250 Y21.955078 
G01 X21.904297 Y35.644531 
G01 X20.070312 Y35.644531 
G01 X18.234375 Y35.644531 
M300 S50

(End cutting path id: path11629)


(Start cutting path id: path11629)
(Change tool to Default tool)

M300 S50
G00 X19.298828 Y35.396484

M300 S30
G02 X20.001953 Y35.434107  I0.703125 J-6.551472 F400.000000
G02 X20.705078 Y35.396484  I-0.000000 J-6.589094
G01 X21.408203 Y35.320312 
G01 X20.001953 Y35.320312 
G01 X18.595703 Y35.320312 
G01 X19.298828 Y35.396484 
M300 S50

(End cutting path id: path11629)


(Start cutting path id: path11629)
(Change tool to Default tool)

M300 S50
G00 X20.783203 Y35.125000

M300 S30
G02 X20.957904 Y34.774319  I-0.055060 J-0.246286 F400.000000
G02 X15.619141 Y23.326172  I-581.661287 J264.284762
G03 X10.133432 Y11.728350  I1304.347629 J-624.045872
G03 X10.076172 Y11.470703  I0.551025 J-0.257647
G01 X10.076172 Y11.199219 
G01 X18.494141 Y11.199219 
G01 X26.910156 Y11.199219 
G01 X27.070312 Y10.953125 
G02 X27.215722 Y10.699181  I-2.264401 J-1.465216
G02 X27.763672 Y9.574219  I-44.730111 J-22.483206
G01 X28.298828 Y8.439453 
G01 X17.189453 Y8.439453 
G01 X6.078125 Y8.439453 
G01 X6.402344 Y9.080078 
G03 X7.765085 Y11.871888  I-95.347866 J48.269797
G03 X16.923828 Y31.453125  I-4739.598011 J2228.787366
G01 X18.595703 Y35.046875 
G01 X19.878906 Y35.050785 
G03 X20.495085 Y35.123323  I-0.007556 J2.717537
G02 X20.783203 Y35.125000  I0.147710 J-0.626375
G01 X20.783203 Y35.125000 
M300 S50

(End cutting path id: path11629)


(Start cutting path id: path11629)
(Change tool to Default tool)

M300 S50
G00 X21.740234 Y34.607422

M300 S30
G01 X28.242188 Y21.419922  F400.000000
G01 X34.744141 Y8.230469 
G01 X34.201172 Y7.054688 
G02 X33.634396 Y5.919196  I-18.768531 J8.659025
G02 X33.572266 Y5.886719  I-0.055033 J0.029614
G02 X33.509845 Y5.930104  I0.009111 J0.079707
G02 X27.691406 Y17.468750  I2058.622380 J1045.310271
G01 X21.896484 Y29.041016 
G01 X21.664062 Y29.041016 
G01 X21.431641 Y29.041016 
G01 X17.296875 Y20.416016 
G01 X13.160156 Y11.791016 
G01 X12.031250 Y11.791016 
G02 X10.951921 Y11.840218  I-0.000000 J11.863115
G02 X10.902344 Y11.894531  I0.004962 J0.054313
G02 X11.287709 Y13.600026  I3.966654 J-0.000000
G02 X21.472656 Y34.091797  I614.204804 J-292.498900
G01 X21.740234 Y34.607422 
M300 S50

(End cutting path id: path11629)


(Start cutting path id: path11629)
(Change tool to Default tool)

M300 S50
G00 X21.656254 Y27.949219

M300 S30
G02 X21.912241 Y27.785548  I-0.010460 J-0.298382 F400.000000
G02 X32.630863 Y6.242188  I-1670.155928 J-844.402753
G01 X33.099613 Y5.285156 
G01 X20.201172 Y5.285156 
G01 X7.304688 Y5.285156 
G01 X7.136719 Y5.531250 
G02 X6.990835 Y5.788508  I1.590175 J1.071739
G02 X6.535156 Y6.812500  I25.395188 J11.914290
G01 X6.099609 Y7.847656 
G01 X17.601562 Y7.847656 
G01 X29.101562 Y7.847656 
G01 X29.101562 Y8.080078 
G03 X29.052036 Y8.301131  I-0.518046 J0.000008
G03 X26.890625 Y12.763672  I-219.505574 J-103.561789
G02 X24.679204 Y17.213545  I48623.373545 J24165.444081
G02 X22.589844 Y21.419922  I13557.039068 J6736.681286
G01 X20.501953 Y25.625000 
G01 X21.037109 Y26.789062 
G02 X21.596501 Y27.914803  I19.498188 J-8.986993
G02 X21.656250 Y27.949219  I0.057460 J-0.030682
G01 X21.656254 Y27.949219 
M300 S50

(End cutting path id: path11629)


(Start cutting path id: path11629)
(Change tool to Default tool)

M300 S50
G00 X20.162113 Y24.802734

M300 S30
G02 X20.348280 Y24.687586  I-0.000071 J-0.208183 F400.000000
G02 X26.091801 Y12.935547  I-672.663469 J-336.027296
G01 X26.638676 Y11.791016 
G01 X20.246098 Y11.791016 
G01 X13.853520 Y11.791016 
G01 X14.271488 Y12.683594 
G02 X20.014933 Y24.710666  I869.236166 J-407.712814
G02 X20.162113 Y24.802734  I0.147122 J-0.071516
G01 X20.162113 Y24.802734 
M300 S50

(End cutting path id: path11629)


(Start cutting path id: path11629)
(Change tool to Default tool)

M300 S50
G00 X26.238285 Y13.232422

M300 S30
G01 X26.429692 Y13.091797  F400.000000
G02 X26.594346 Y12.936985  I-0.560572 J-0.761174
G02 X26.621098 Y12.863281  I-0.088152 J-0.073704
G02 X26.542218 Y12.815742  I-0.053765 J0.000000
G02 X26.355473 Y13.003906  I0.207416 J0.392602
G01 X26.238285 Y13.232422 
M300 S50

(End cutting path id: path11629)


(Start cutting path id: path11629)
(Change tool to Default tool)

M300 S50
G00 X16.888676 Y11.544922

M300 S30
G02 X20.145864 Y11.573817  I3.254168 J-183.228658 F400.000000
G02 X23.507816 Y11.544922  I-0.003230 J-195.973325
G01 X26.869145 Y11.486332 
G01 X20.250000 Y11.486332 
G01 X13.632812 Y11.486332 
G01 X16.888676 Y11.544922 
M300 S50

(End cutting path id: path11629)


(Start cutting path id: path11629)
(Change tool to Default tool)

M300 S50
G00 X11.363285 Y11.541022

M300 S30
G02 X12.069763 Y11.579024  I0.713911 J-6.686072 F400.000000
G02 X12.685551 Y11.541022  I0.005438 J-4.920004
G01 X13.302738 Y11.462892 
G01 X11.978520 Y11.464892 
G01 X10.654301 Y11.466892 
G01 X11.363285 Y11.541022 
M300 S50

(End cutting path id: path11629)


(Start cutting path id: path11629)
(Change tool to Default tool)

M300 S50
G00 X11.701176 Y8.193365

M300 S30
G02 X17.379617 Y8.220655  I5.680351 J-591.169559 F400.000000
G02 X22.951176 Y8.193365  I0.001837 J-568.393617
G02 X23.582258 Y8.170248  I-0.115345 J-11.774435
G01 X23.581841 Y8.154755 
G02 X22.007290 Y8.145043  I-2.184952 J226.594404
G02 X17.273442 Y8.138675  I-4.728164 J1755.281036
G01 X6.021484 Y8.138675 
G01 X11.701176 Y8.193365 
M300 S50

(End cutting path id: path11629)


(Start cutting path id: path11629)
(Change tool to Default tool)

M300 S50
G00 X13.662113 Y5.039068

M300 S30
G02 X20.143603 Y5.066022  I6.479323 J-778.738176 F400.000000
G02 X26.732426 Y5.039068  I-0.002242 J-805.857402
G02 X27.546179 Y5.015793  I-0.163011 J-19.936640
G01 X27.545871 Y5.000619 
G02 X25.748374 Y4.990875  I-2.490641 J293.643160
G02 X20.250004 Y4.984378  I-5.504844 J2332.155741
G02 X14.750470 Y4.990830  I-0.003261 J2340.968444
G02 X12.923540 Y5.000600  I0.714914 J304.494344
G01 X12.923187 Y5.016037 
G02 X13.662113 Y5.039068  I0.873533 J-16.160715
G01 X13.662113 Y5.039068 
M300 S50

(End cutting path id: path11629)


(Start cutting path id: path11629)
(Change tool to Default tool)

M300 S50
G00 X34.892582 Y8.505865

M300 S30
G01 X35.001957 Y8.375006  F400.000000
G01 X35.113285 Y8.242194 
G01 X35.001957 Y8.111334 
G01 X34.892582 Y7.980475 
G01 X34.892582 Y8.242194 
G01 X34.892582 Y8.505865 
M300 S50

(End cutting path id: path11629)


(Footer)
M5
G00 X0.0000 Y0.0000
M2
(Using default footer. To add your own footer create file "footer" in the output dir.)
(end)
%
